JustShoot/Resources/FujiPro400H.cube
#Generated with IWLTBAP LUT Generator
#Website: http://luts.iwltbap.com
TITLE "ORI"
#LUT size
LUT_3D_SIZE 9
#LUT data points
0.027451 0.003922 0.003922
0.054902 0.019608 0.000000
0.176471 0.031373 0.007843
0.400000 0.062745 0.011765
0.623529 0.094118 0.015686
0.737255 0.117647 0.019608
0.796078 0.125490 0.007843
0.835294 0.141176 0.011765
0.854902 0.149020 0.011765
0.027451 0.058824 0.000000
0.050980 0.078431 0.007843
0.164706 0.082353 0.000000
0.396078 0.105882 0.007843
0.619608 0.133333 0.000000
0.733333 0.152941 0.000000
0.800000 0.160784 0.000000
0.839216 0.168627 0.000000
0.854902 0.184314 0.011765
0.015686 0.231373 0.078431
0.050980 0.235294 0.062745
0.149020 0.239216 0.035294
0.372549 0.262745 0.007843
0.584314 0.278431 0.000000
0.721569 0.290196 0.000000
0.807843 0.298039 0.003922
0.850980 0.286275 0.000000
0.866667 0.290196 0.015686
0.031373 0.447059 0.164706
0.050980 0.447059 0.141176
0.152941 0.458824 0.121569
0.356863 0.478431 0.070588
0.560784 0.486275 0.023529
0.705882 0.494118 0.000000
0.796078 0.501961 0.000000
0.862745 0.486275 0.003922
0.878431 0.470588 0.019608
0.043137 0.584314 0.207843
0.070588 0.588235 0.188235
0.172549 0.603922 0.164706
0.345098 0.619608 0.101961
0.552941 0.643137 0.043137
0.698039 0.650980 0.007843
0.803922 0.658824 0.003922
0.866667 0.650980 0.011765
0.905882 0.623529 0.047059
0.062745 0.650980 0.227451
0.101961 0.666667 0.223529
0.196078 0.678431 0.180392
0.368627 0.698039 0.121569
0.556863 0.725490 0.070588
0.698039 0.741176 0.027451
0.811765 0.756863 0.023529
0.886275 0.745098 0.023529
0.909804 0.745098 0.070588
0.101961 0.701961 0.243137
0.141176 0.713725 0.223529
0.239216 0.729412 0.196078
0.411765 0.752941 0.137255
0.564706 0.776471 0.086275
0.698039 0.796078 0.050980
0.800000 0.815686 0.039216
0.886275 0.823529 0.043137
0.929412 0.811765 0.082353
0.160784 0.745098 0.243137
0.207843 0.756863 0.227451
0.309804 0.772549 0.200000
0.450980 0.792157 0.145098
0.588235 0.823529 0.105882
0.713725 0.835294 0.094118
0.807843 0.854902 0.086275
0.886275 0.862745 0.094118
0.929412 0.870588 0.121569
0.278431 0.784314 0.219608
0.317647 0.796078 0.227451
0.411765 0.807843 0.196078
0.529412 0.831373 0.180392
0.635294 0.843137 0.152941
0.725490 0.858824 0.145098
0.800000 0.870588 0.149020
0.878431 0.882353 0.176471
0.921569 0.890196 0.219608
0.062745 0.023529 0.121569
0.078431 0.031373 0.117647
0.200000 0.039216 0.062745
0.415686 0.066667 0.011765
0.623529 0.094118 0.015686
0.737255 0.117647 0.011765
0.800000 0.129412 0.011765
0.835294 0.141176 0.011765
0.847059 0.141176 0.011765
0.054902 0.078431 0.078431
0.082353 0.082353 0.090196
0.207843 0.090196 0.050980
0.443137 0.113725 0.011765
0.623529 0.137255 0.003922
0.741176 0.156863 0.000000
0.800000 0.160784 0.000000
0.839216 0.168627 0.000000
0.854902 0.184314 0.015686
0.043137 0.247059 0.098039
0.078431 0.250980 0.109804
0.200000 0.262745 0.086275
0.400000 0.266667 0.027451
0.607843 0.282353 0.015686
0.729412 0.294118 0.011765
0.800000 0.298039 0.011765
0.843137 0.290196 0.019608
0.862745 0.294118 0.047059
0.054902 0.454902 0.164706
0.082353 0.458824 0.168627
0.200000 0.466667 0.133333
0.403922 0.474510 0.074510
0.588235 0.490196 0.035294
0.721569 0.490196 0.019608
0.807843 0.490196 0.027451
0.858824 0.478431 0.035294
0.874510 0.466667 0.078431
0.066667 0.592157 0.211765
0.094118 0.603922 0.219608
0.203922 0.603922 0.164706
0.388235 0.627451 0.117647
0.588235 0.643137 0.074510
0.717647 0.650980 0.054902
0.803922 0.650980 0.050980
0.878431 0.643137 0.062745
0.894118 0.615686 0.113725
0.090196 0.666667 0.247059
0.117647 0.670588 0.227451
0.223529 0.690196 0.196078
0.411765 0.705882 0.137255
0.580392 0.729412 0.090196
0.713725 0.745098 0.074510
0.803922 0.752941 0.066667
0.882353 0.749020 0.082353
0.917647 0.725490 0.121569
0.125490 0.709804 0.247059
0.152941 0.717647 0.231373
0.262745 0.737255 0.200000
0.435294 0.760784 0.156863
0.588235 0.776471 0.109804
0.717647 0.800000 0.098039
0.811765 0.803922 0.086275
0.886275 0.811765 0.098039
0.929412 0.807843 0.156863
0.180392 0.756863 0.235294
0.215686 0.764706 0.243137
0.329412 0.776471 0.200000
0.474510 0.796078 0.168627
0.600000 0.819608 0.145098
0.713725 0.835294 0.133333
0.807843 0.850980 0.137255
0.882353 0.858824 0.145098
0.937255 0.862745 0.215686
0.301961 0.792157 0.258824
0.345098 0.788235 0.262745
0.435294 0.807843 0.243137
0.545098 0.835294 0.227451
0.631373 0.847059 0.203922
0.733333 0.862745 0.200000
0.803922 0.870588 0.211765
0.874510 0.886275 0.239216
0.921569 0.886275 0.286275
0.066667 0.047059 0.305882
0.101961 0.058824 0.329412
0.219608 0.062745 0.305882
0.419608 0.074510 0.223529
0.600000 0.094118 0.164706
0.721569 0.105882 0.141176
0.788235 0.121569 0.121569
0.831373 0.137255 0.113725
0.839216 0.152941 0.133333
0.074510 0.086275 0.286275
0.113725 0.094118 0.313725
0.235294 0.105882 0.290196
0.443137 0.117647 0.227451
0.623529 0.137255 0.180392
0.733333 0.145098 0.152941
0.800000 0.160784 0.141176
0.831373 0.172549 0.137255
0.858824 0.176471 0.149020
0.062745 0.239216 0.258824
0.105882 0.250980 0.282353
0.243137 0.254902 0.282353
0.439216 0.266667 0.223529
0.619608 0.274510 0.196078
0.729412 0.278431 0.172549
0.803922 0.278431 0.164706
0.843137 0.274510 0.160784
0.854902 0.290196 0.188235
0.066667 0.450980 0.290196
0.098039 0.454902 0.286275
0.235294 0.462745 0.266667
0.431373 0.470588 0.235294
0.600000 0.470588 0.200000
0.725490 0.474510 0.196078
0.796078 0.474510 0.188235
0.850980 0.462745 0.196078
0.878431 0.450980 0.227451
0.082353 0.596078 0.298039
0.133333 0.592157 0.313725
0.243137 0.603922 0.270588
0.443137 0.619608 0.247059
0.603922 0.627451 0.211765
0.729412 0.635294 0.203922
0.811765 0.627451 0.203922
0.866667 0.619608 0.207843
0.898039 0.607843 0.258824
0.109804 0.670588 0.325490
0.149020 0.670588 0.305882
0.266667 0.690196 0.290196
0.439216 0.705882 0.239216
0.596078 0.713725 0.227451
0.729412 0.733333 0.223529
0.803922 0.733333 0.207843
0.878431 0.721569 0.243137
0.913725 0.709804 0.282353
0.152941 0.721569 0.325490
0.207843 0.721569 0.305882
0.313725 0.745098 0.294118
0.466667 0.760784 0.254902
0.607843 0.772549 0.231373
0.725490 0.796078 0.231373
0.815686 0.796078 0.235294
0.878431 0.803922 0.258824
0.925490 0.792157 0.309804
0.203922 0.764706 0.317647
0.258824 0.776471 0.309804
0.360784 0.792157 0.309804
0.505882 0.807843 0.266667
0.631373 0.823529 0.262745
0.721569 0.831373 0.254902
0.807843 0.847059 0.266667
0.882353 0.854902 0.298039
0.941176 0.850980 0.349020
0.325490 0.800000 0.345098
0.368627 0.800000 0.349020
0.466667 0.819608 0.333333
0.564706 0.839216 0.321569
0.662745 0.850980 0.321569
0.737255 0.862745 0.325490
0.807843 0.874510 0.333333
0.870588 0.882353 0.368627
0.917647 0.878431 0.403922
0.086275 0.078431 0.458824
0.117647 0.074510 0.474510
0.235294 0.090196 0.466667
0.423529 0.090196 0.407843
0.592157 0.101961 0.368627
0.713725 0.101961 0.341176
0.784314 0.117647 0.309804
0.835294 0.133333 0.290196
0.835294 0.145098 0.298039
0.094118 0.121569 0.466667
0.141176 0.125490 0.498039
0.247059 0.129412 0.466667
0.427451 0.125490 0.431373
0.603922 0.137255 0.396078
0.713725 0.149020 0.356863
0.788235 0.152941 0.345098
0.831373 0.156863 0.305882
0.850980 0.180392 0.321569
0.086275 0.254902 0.454902
0.125490 0.270588 0.486275
0.254902 0.262745 0.486275
0.443137 0.262745 0.447059
0.603922 0.266667 0.419608
0.713725 0.270588 0.388235
0.792157 0.270588 0.376471
0.835294 0.270588 0.360784
0.858824 0.282353 0.356863
0.086275 0.447059 0.490196
0.121569 0.443137 0.490196
0.258824 0.454902 0.498039
0.450980 0.447059 0.466667
0.603922 0.450980 0.423529
0.721569 0.454902 0.419608
0.788235 0.450980 0.392157
0.847059 0.447059 0.400000
0.862745 0.439216 0.400000
0.094118 0.588235 0.501961
0.160784 0.592157 0.494118
0.278431 0.592157 0.486275
0.443137 0.607843 0.466667
0.603922 0.607843 0.450980
0.717647 0.615686 0.423529
0.803922 0.603922 0.419608
0.862745 0.600000 0.431373
0.878431 0.592157 0.431373
0.125490 0.674510 0.498039
0.180392 0.682353 0.490196
0.305882 0.694118 0.482353
0.466667 0.701961 0.450980
0.623529 0.713725 0.447059
0.733333 0.705882 0.431373
0.807843 0.713725 0.423529
0.874510 0.705882 0.439216
0.894118 0.698039 0.458824
0.164706 0.729412 0.490196
0.215686 0.737255 0.478431
0.341176 0.745098 0.458824
0.490196 0.760784 0.447059
0.619608 0.772549 0.423529
0.725490 0.784314 0.427451
0.807843 0.792157 0.443137
0.882353 0.788235 0.435294
0.909804 0.780392 0.462745
0.243137 0.780392 0.474510
0.290196 0.780392 0.474510
0.392157 0.792157 0.454902
0.529412 0.807843 0.447059
0.639216 0.823529 0.447059
0.725490 0.835294 0.435294
0.803922 0.847059 0.447059
0.866667 0.850980 0.462745
0.921569 0.843137 0.494118
0.345098 0.811765 0.482353
0.411765 0.819608 0.509804
0.498039 0.827451 0.490196
0.584314 0.839216 0.478431
0.674510 0.854902 0.470588
0.756863 0.858824 0.478431
0.819608 0.862745 0.494118
0.878431 0.874510 0.509804
0.909804 0.882353 0.537255
0.101961 0.098039 0.556863
0.141176 0.105882 0.564706
0.235294 0.105882 0.549020
0.411765 0.109804 0.517647
0.572549 0.109804 0.490196
0.698039 0.121569 0.470588
0.776471 0.125490 0.462745
0.827451 0.129412 0.435294
0.843137 0.149020 0.423529
0.109804 0.141176 0.576471
0.149020 0.156863 0.592157
0.254902 0.152941 0.572549
0.431373 0.149020 0.537255
0.588235 0.152941 0.513725
0.705882 0.156863 0.498039
0.776471 0.160784 0.478431
0.827451 0.176471 0.458824
0.854902 0.184314 0.458824
0.098039 0.274510 0.607843
0.141176 0.278431 0.607843
0.262745 0.282353 0.600000
0.435294 0.274510 0.572549
0.592157 0.270588 0.552941
0.705882 0.278431 0.533333
0.776471 0.270588 0.521569
0.835294 0.278431 0.505882
0.850980 0.282353 0.498039
0.109804 0.447059 0.631373
0.160784 0.450980 0.635294
0.278431 0.454902 0.619608
0.447059 0.443137 0.600000
0.600000 0.443137 0.580392
0.701961 0.439216 0.568627
0.776471 0.447059 0.549020
0.835294 0.443137 0.552941
0.866667 0.450980 0.541176
0.117647 0.576471 0.643137
0.184314 0.588235 0.662745
0.294118 0.584314 0.627451
0.462745 0.600000 0.615686
0.611765 0.596078 0.592157
0.713725 0.596078 0.588235
0.796078 0.596078 0.584314
0.850980 0.588235 0.564706
0.886275 0.580392 0.572549
0.149020 0.678431 0.650980
0.196078 0.682353 0.643137
0.325490 0.686275 0.627451
0.478431 0.694118 0.619608
0.607843 0.694118 0.603922
0.717647 0.701961 0.596078
0.792157 0.701961 0.580392
0.862745 0.690196 0.592157
0.894118 0.670588 0.596078
0.192157 0.733333 0.635294
0.250980 0.737255 0.627451
0.364706 0.756863 0.615686
0.509804 0.764706 0.607843
0.627451 0.772549 0.600000
0.729412 0.776471 0.596078
0.803922 0.776471 0.596078
0.870588 0.780392 0.584314
0.901961 0.764706 0.615686
0.262745 0.803922 0.611765
0.317647 0.800000 0.627451
0.431373 0.807843 0.619608
0.545098 0.815686 0.600000
0.647059 0.823529 0.600000
0.733333 0.835294 0.588235
0.796078 0.835294 0.596078
0.874510 0.839216 0.607843
0.905882 0.839216 0.619608
0.380392 0.823529 0.619608
0.435294 0.819608 0.619608
0.517647 0.835294 0.607843
0.607843 0.847059 0.611765
0.682353 0.858824 0.603922
0.756863 0.858824 0.603922
0.807843 0.870588 0.615686
0.874510 0.874510 0.623529
0.901961 0.878431 0.643137
0.113725 0.133333 0.603922
0.156863 0.133333 0.619608
0.254902 0.133333 0.603922
0.415686 0.129412 0.580392
0.572549 0.133333 0.556863
0.686275 0.141176 0.545098
0.760784 0.137255 0.529412
0.819608 0.149020 0.525490
0.847059 0.164706 0.513725
0.133333 0.180392 0.643137
0.164706 0.176471 0.635294
0.270588 0.180392 0.635294
0.427451 0.176471 0.607843
0.572549 0.176471 0.584314
0.682353 0.176471 0.568627
0.764706 0.184314 0.560784
0.823529 0.196078 0.549020
0.850980 0.196078 0.549020
0.125490 0.298039 0.678431
0.164706 0.290196 0.678431
0.286275 0.298039 0.662745
0.447059 0.290196 0.639216
0.588235 0.294118 0.627451
0.690196 0.294118 0.607843
0.772549 0.290196 0.603922
0.827451 0.294118 0.584314
0.874510 0.309804 0.584314
0.137255 0.454902 0.713725
0.172549 0.458824 0.725490
0.290196 0.450980 0.701961
0.447059 0.454902 0.678431
0.596078 0.450980 0.662745
0.690196 0.447059 0.647059
0.772549 0.450980 0.631373
0.827451 0.447059 0.623529
0.862745 0.443137 0.623529
0.141176 0.596078 0.741176
0.196078 0.584314 0.737255
0.321569 0.592157 0.721569
0.462745 0.596078 0.701961
0.603922 0.588235 0.686275
0.713725 0.588235 0.682353
0.784314 0.580392 0.670588
0.847059 0.580392 0.670588
0.874510 0.580392 0.662745
0.172549 0.682353 0.745098
0.223529 0.674510 0.745098
0.349020 0.690196 0.729412
0.490196 0.690196 0.705882
0.619608 0.690196 0.698039
0.713725 0.690196 0.690196
0.788235 0.686275 0.682353
0.847059 0.682353 0.686275
0.878431 0.674510 0.690196
0.235294 0.745098 0.745098
0.270588 0.752941 0.733333
0.396078 0.760784 0.729412
0.521569 0.764706 0.705882
0.635294 0.768627 0.701961
0.717647 0.768627 0.698039
0.796078 0.776471 0.701961
0.858824 0.768627 0.698039
0.890196 0.760784 0.694118
0.290196 0.807843 0.725490
0.337255 0.815686 0.717647
0.435294 0.807843 0.713725
0.560784 0.819608 0.709804
0.662745 0.823529 0.705882
0.733333 0.823529 0.709804
0.807843 0.835294 0.705882
0.874510 0.835294 0.698039
0.901961 0.839216 0.705882
0.407843 0.827451 0.709804
0.462745 0.843137 0.713725
0.533333 0.847059 0.701961
0.627451 0.854902 0.705882
0.686275 0.862745 0.701961
0.752941 0.866667 0.694118
0.811765 0.870588 0.701961
0.866667 0.878431 0.709804
0.901961 0.870588 0.717647
0.141176 0.172549 0.662745
0.168627 0.164706 0.662745
0.274510 0.176471 0.647059
0.419608 0.164706 0.619608
0.560784 0.168627 0.607843
0.666667 0.164706 0.600000
0.752941 0.176471 0.592157
0.807843 0.184314 0.584314
0.843137 0.200000 0.588235
0.133333 0.207843 0.670588
0.200000 0.215686 0.705882
0.290196 0.215686 0.670588
0.439216 0.211765 0.654902
0.568627 0.207843 0.635294
0.682353 0.215686 0.623529
0.764706 0.219608 0.623529
0.815686 0.219608 0.611765
0.847059 0.235294 0.615686
0.156863 0.321569 0.721569
0.196078 0.333333 0.725490
0.301961 0.317647 0.698039
0.450980 0.317647 0.686275
0.580392 0.321569 0.674510
0.686275 0.317647 0.654902
0.760784 0.321569 0.658824
0.819608 0.325490 0.647059
0.854902 0.333333 0.643137
0.164706 0.470588 0.764706
0.207843 0.466667 0.756863
0.321569 0.466667 0.741176
0.470588 0.470588 0.721569
0.596078 0.458824 0.709804
0.690196 0.462745 0.701961
0.768627 0.454902 0.694118
0.827451 0.462745 0.686275
0.866667 0.462745 0.682353
0.184314 0.596078 0.780392
0.227451 0.596078 0.796078
0.349020 0.588235 0.764706
0.482353 0.592157 0.749020
0.607843 0.588235 0.745098
0.698039 0.588235 0.737255
0.768627 0.580392 0.729412
0.835294 0.584314 0.729412
0.866667 0.584314 0.733333
0.211765 0.678431 0.796078
0.258824 0.678431 0.803922
0.372549 0.686275 0.784314
0.505882 0.690196 0.768627
0.619608 0.686275 0.756863
0.709804 0.682353 0.752941
0.784314 0.678431 0.745098
0.847059 0.678431 0.752941
0.886275 0.674510 0.737255
0.266667 0.752941 0.800000
0.305882 0.752941 0.796078
0.411765 0.752941 0.792157
0.537255 0.764706 0.780392
0.635294 0.756863 0.768627
0.721569 0.760784 0.768627
0.788235 0.764706 0.772549
0.854902 0.760784 0.760784
0.886275 0.764706 0.756863
0.337255 0.811765 0.792157
0.388235 0.815686 0.792157
0.462745 0.815686 0.780392
0.580392 0.823529 0.772549
0.666667 0.827451 0.772549
0.737255 0.823529 0.772549
0.803922 0.827451 0.772549
0.862745 0.835294 0.772549
0.898039 0.827451 0.772549
0.447059 0.843137 0.780392
0.478431 0.847059 0.784314
0.556863 0.850980 0.772549
0.627451 0.854902 0.768627
0.698039 0.862745 0.776471
0.752941 0.870588 0.776471
0.811765 0.870588 0.780392
0.858824 0.866667 0.780392
0.901961 0.870588 0.780392
0.188235 0.231373 0.717647
0.223529 0.239216 0.721569
0.317647 0.235294 0.694118
0.447059 0.235294 0.682353
0.560784 0.235294 0.658824
0.666667 0.239216 0.658824
0.733333 0.235294 0.654902
0.800000 0.239216 0.650980
0.839216 0.266667 0.654902
0.192157 0.282353 0.729412
0.227451 0.278431 0.729412
0.329412 0.274510 0.717647
0.462745 0.278431 0.694118
0.572549 0.270588 0.678431
0.670588 0.274510 0.674510
0.745098 0.278431 0.670588
0.811765 0.278431 0.678431
0.854902 0.290196 0.674510
0.211765 0.384314 0.764706
0.243137 0.376471 0.756863
0.345098 0.380392 0.737255
0.470588 0.372549 0.729412
0.592157 0.372549 0.713725
0.686275 0.384314 0.705882
0.749020 0.376471 0.705882
0.823529 0.384314 0.713725
0.847059 0.392157 0.717647
0.219608 0.509804 0.788235
0.258824 0.509804 0.792157
0.360784 0.505882 0.780392
0.486275 0.501961 0.752941
0.607843 0.494118 0.745098
0.690196 0.498039 0.752941
0.752941 0.494118 0.745098
0.819608 0.498039 0.741176
0.858824 0.501961 0.741176
0.239216 0.603922 0.835294
0.294118 0.607843 0.815686
0.392157 0.600000 0.803922
0.513725 0.607843 0.796078
0.619608 0.607843 0.784314
0.690196 0.600000 0.780392
0.772549 0.603922 0.780392
0.827451 0.596078 0.768627
0.874510 0.607843 0.768627
0.270588 0.686275 0.839216
0.317647 0.686275 0.827451
0.419608 0.686275 0.823529
0.537255 0.690196 0.811765
0.627451 0.686275 0.807843
0.705882 0.694118 0.815686
0.776471 0.686275 0.796078
0.839216 0.686275 0.800000
0.874510 0.682353 0.796078
0.337255 0.752941 0.847059
0.364706 0.752941 0.843137
0.458824 0.752941 0.827451
0.568627 0.760784 0.827451
0.654902 0.760784 0.827451
0.721569 0.756863 0.815686
0.788235 0.764706 0.819608
0.843137 0.760784 0.819608
0.890196 0.764706 0.815686
0.400000 0.807843 0.850980
0.443137 0.815686 0.831373
0.525490 0.811765 0.847059
0.615686 0.815686 0.831373
0.682353 0.819608 0.827451
0.745098 0.827451 0.831373
0.800000 0.819608 0.831373
0.858824 0.823529 0.835294
0.901961 0.827451 0.843137
0.505882 0.854902 0.847059
0.529412 0.850980 0.835294
0.596078 0.858824 0.823529
0.654902 0.862745 0.839216
0.709804 0.866667 0.835294
0.764706 0.866667 0.831373
0.807843 0.870588 0.831373
0.854902 0.866667 0.831373
0.898039 0.862745 0.835294
0.262745 0.345098 0.764706
0.298039 0.341176 0.752941
0.400000 0.341176 0.745098
0.498039 0.341176 0.729412
0.596078 0.337255 0.721569
0.670588 0.341176 0.709804
0.733333 0.345098 0.709804
0.807843 0.356863 0.721569
0.839216 0.368627 0.717647
0.254902 0.388235 0.772549
0.309804 0.388235 0.768627
0.407843 0.388235 0.756863
0.501961 0.380392 0.745098
0.603922 0.384314 0.733333
0.670588 0.380392 0.721569
0.741176 0.388235 0.729412
0.803922 0.400000 0.725490
0.847059 0.407843 0.737255
0.290196 0.470588 0.803922
0.329412 0.466667 0.788235
0.419608 0.462745 0.776471
0.521569 0.474510 0.772549
0.607843 0.466667 0.756863
0.682353 0.470588 0.764706
0.752941 0.470588 0.760784
0.811765 0.474510 0.760784
0.850980 0.486275 0.764706
0.301961 0.556863 0.815686
0.356863 0.568627 0.819608
0.447059 0.556863 0.811765
0.545098 0.560784 0.800000
0.631373 0.560784 0.788235
0.698039 0.560784 0.788235
0.760784 0.560784 0.780392
0.815686 0.568627 0.784314
0.858824 0.572549 0.788235
0.345098 0.650980 0.839216
0.380392 0.639216 0.827451
0.474510 0.639216 0.827451
0.564706 0.635294 0.815686
0.643137 0.639216 0.811765
0.709804 0.643137 0.815686
0.768627 0.639216 0.807843
0.823529 0.647059 0.815686
0.870588 0.639216 0.811765
0.380392 0.701961 0.850980
0.415686 0.701961 0.839216
0.505882 0.701961 0.847059
0.588235 0.705882 0.839216
0.662745 0.705882 0.831373
0.725490 0.701961 0.835294
0.768627 0.701961 0.827451
0.827451 0.705882 0.831373
0.866667 0.705882 0.839216
0.423529 0.760784 0.858824
0.450980 0.764706 0.862745
0.537255 0.764706 0.858824
0.611765 0.760784 0.850980
0.682353 0.760784 0.854902
0.737255 0.764706 0.839216
0.788235 0.768627 0.847059
0.835294 0.768627 0.843137
0.874510 0.760784 0.847059
0.474510 0.819608 0.874510
0.513725 0.819608 0.870588
0.584314 0.819608 0.858824
0.650980 0.815686 0.862745
0.717647 0.823529 0.866667
0.749020 0.815686 0.854902
0.800000 0.827451 0.866667
0.854902 0.823529 0.866667
0.890196 0.823529 0.854902
0.572549 0.850980 0.874510
0.596078 0.850980 0.866667
0.643137 0.850980 0.866667
0.701961 0.862745 0.870588
0.737255 0.858824 0.866667
0.776471 0.858824 0.870588
0.819608 0.862745 0.870588
0.858824 0.862745 0.870588
0.898039 0.862745 0.874510
