JustShoot/Resources/FujiPro400H.cube
#Generated with IWLTBAP LUT Generator
#Website: http://luts.iwltbap.com
TITLE "ORI"
#LUT size
LUT_3D_SIZE 5
#LUT data points
0.027451 0.003922 0.003922
0.176471 0.031373 0.007843
0.623529 0.094118 0.015686
0.796078 0.125490 0.007843
0.854902 0.149020 0.011765
0.015686 0.231373 0.078431
0.149020 0.239216 0.035294
0.584314 0.278431 0.000000
0.807843 0.298039 0.003922
0.866667 0.290196 0.015686
0.043137 0.584314 0.207843
0.172549 0.603922 0.164706
0.552941 0.643137 0.043137
0.803922 0.658824 0.003922
0.905882 0.623529 0.047059
0.101961 0.701961 0.243137
0.239216 0.729412 0.196078
0.564706 0.776471 0.086275
0.800000 0.815686 0.039216
0.929412 0.811765 0.082353
0.278431 0.784314 0.219608
0.411765 0.807843 0.196078
0.635294 0.843137 0.152941
0.800000 0.870588 0.149020
0.921569 0.890196 0.219608
0.066667 0.047059 0.305882
0.219608 0.062745 0.305882
0.600000 0.094118 0.164706
0.788235 0.121569 0.121569
0.839216 0.152941 0.133333
0.062745 0.239216 0.258824
0.243137 0.254902 0.282353
0.619608 0.274510 0.196078
0.803922 0.278431 0.164706
0.854902 0.290196 0.188235
0.082353 0.596078 0.298039
0.243137 0.603922 0.270588
0.603922 0.627451 0.211765
0.811765 0.627451 0.203922
0.898039 0.607843 0.258824
0.152941 0.721569 0.325490
0.313725 0.745098 0.294118
0.607843 0.772549 0.231373
0.815686 0.796078 0.235294
0.925490 0.792157 0.309804
0.325490 0.800000 0.345098
0.466667 0.819608 0.333333
0.662745 0.850980 0.321569
0.807843 0.874510 0.333333
0.917647 0.878431 0.403922
0.101961 0.098039 0.556863
0.235294 0.105882 0.549020
0.572549 0.109804 0.490196
0.776471 0.125490 0.462745
0.843137 0.149020 0.423529
0.098039 0.274510 0.607843
0.262745 0.282353 0.600000
0.592157 0.270588 0.552941
0.776471 0.270588 0.521569
0.850980 0.282353 0.498039
0.117647 0.576471 0.643137
0.294118 0.584314 0.627451
0.611765 0.596078 0.592157
0.796078 0.596078 0.584314
0.886275 0.580392 0.572549
0.192157 0.733333 0.635294
0.364706 0.756863 0.615686
0.627451 0.772549 0.600000
0.803922 0.776471 0.596078
0.901961 0.764706 0.615686
0.380392 0.823529 0.619608
0.517647 0.835294 0.607843
0.682353 0.858824 0.603922
0.807843 0.870588 0.615686
0.901961 0.878431 0.643137
0.141176 0.172549 0.662745
0.274510 0.176471 0.647059
0.560784 0.168627 0.607843
0.752941 0.176471 0.592157
0.843137 0.200000 0.588235
0.156863 0.321569 0.721569
0.301961 0.317647 0.698039
0.580392 0.321569 0.674510
0.760784 0.321569 0.658824
0.854902 0.333333 0.643137
0.184314 0.596078 0.780392
0.349020 0.588235 0.764706
0.607843 0.588235 0.745098
0.768627 0.580392 0.729412
0.866667 0.584314 0.733333
0.266667 0.752941 0.800000
0.411765 0.752941 0.792157
0.635294 0.756863 0.768627
0.788235 0.764706 0.772549
0.886275 0.764706 0.756863
0.447059 0.843137 0.780392
0.556863 0.850980 0.772549
0.698039 0.862745 0.776471
0.811765 0.870588 0.780392
0.901961 0.870588 0.780392
0.262745 0.345098 0.764706
0.400000 0.341176 0.745098
0.596078 0.337255 0.721569
0.733333 0.345098 0.709804
0.839216 0.368627 0.717647
0.290196 0.470588 0.803922
0.419608 0.462745 0.776471
0.607843 0.466667 0.756863
0.752941 0.470588 0.760784
0.850980 0.486275 0.764706
0.345098 0.650980 0.839216
0.474510 0.639216 0.827451
0.643137 0.639216 0.811765
0.768627 0.639216 0.807843
0.870588 0.639216 0.811765
0.423529 0.760784 0.858824
0.537255 0.764706 0.858824
0.682353 0.760784 0.854902
0.788235 0.768627 0.847059
0.874510 0.760784 0.847059
0.572549 0.850980 0.874510
0.643137 0.850980 0.866667
0.737255 0.858824 0.866667
0.819608 0.862745 0.870588
0.898039 0.862745 0.874510
