JustShoot/Resources/FujiC200.cube
#Generated with IWLTBAP LUT Generator
#Website: http://luts.iwltbap.com
TITLE "ф╚бл"
#LUT size
LUT_3D_SIZE 9
#LUT data points
0.007843 0.031373 0.015686
0.054902 0.039216 0.027451
0.164706 0.050980 0.058824
0.317647 0.066667 0.058824
0.474510 0.070588 0.035294
0.564706 0.109804 0.011765
0.639216 0.160784 0.015686
0.698039 0.203922 0.007843
0.752941 0.231373 0.007843
0.019608 0.062745 0.039216
0.043137 0.050980 0.031373
0.164706 0.082353 0.062745
0.329412 0.098039 0.074510
0.482353 0.117647 0.047059
0.592157 0.160784 0.015686
0.662745 0.200000 0.003922
0.721569 0.231373 0.003922
0.772549 0.247059 0.007843
0.035294 0.141176 0.105882
0.043137 0.137255 0.074510
0.133333 0.137255 0.066667
0.337255 0.196078 0.070588
0.513725 0.239216 0.035294
0.643137 0.278431 0.007843
0.721569 0.317647 0.007843
0.780392 0.325490 0.000000
0.819608 0.309804 0.003922
0.023529 0.282353 0.172549
0.023529 0.274510 0.141176
0.137255 0.258824 0.098039
0.301961 0.282353 0.066667
0.501961 0.341176 0.031373
0.623529 0.376471 0.011765
0.721569 0.400000 0.000000
0.792157 0.431373 0.003922
0.831373 0.427451 0.015686
0.011765 0.427451 0.239216
0.031373 0.435294 0.215686
0.164706 0.407843 0.113725
0.329412 0.419608 0.074510
0.513725 0.462745 0.023529
0.666667 0.513725 0.007843
0.776471 0.545098 0.011765
0.823529 0.560784 0.011765
0.858824 0.545098 0.054902
0.054902 0.560784 0.309804
0.098039 0.564706 0.250980
0.196078 0.549020 0.164706
0.388235 0.560784 0.074510
0.564706 0.623529 0.031373
0.729412 0.682353 0.007843
0.839216 0.717647 0.019608
0.882353 0.709804 0.054902
0.898039 0.698039 0.105882
0.141176 0.639216 0.360784
0.180392 0.643137 0.298039
0.243137 0.639216 0.239216
0.419608 0.654902 0.137255
0.588235 0.713725 0.050980
0.741176 0.788235 0.019608
0.847059 0.815686 0.035294
0.901961 0.827451 0.082353
0.921569 0.811765 0.188235
0.188235 0.674510 0.400000
0.223529 0.674510 0.380392
0.301961 0.682353 0.317647
0.443137 0.721569 0.258824
0.596078 0.760784 0.180392
0.745098 0.835294 0.082353
0.854902 0.882353 0.098039
0.901961 0.894118 0.184314
0.929412 0.878431 0.329412
0.223529 0.698039 0.490196
0.270588 0.701961 0.462745
0.341176 0.717647 0.435294
0.505882 0.760784 0.400000
0.600000 0.800000 0.325490
0.729412 0.850980 0.309804
0.843137 0.909804 0.250980
0.898039 0.917647 0.345098
0.925490 0.917647 0.490196
0.015686 0.031373 0.035294
0.062745 0.043137 0.031373
0.149020 0.050980 0.062745
0.266667 0.066667 0.062745
0.431373 0.066667 0.047059
0.560784 0.101961 0.023529
0.650980 0.164706 0.015686
0.717647 0.207843 0.015686
0.764706 0.227451 0.023529
0.027451 0.062745 0.050980
0.035294 0.054902 0.039216
0.133333 0.062745 0.054902
0.270588 0.070588 0.058824
0.466667 0.082353 0.039216
0.592157 0.129412 0.019608
0.670588 0.192157 0.007843
0.733333 0.219608 0.007843
0.784314 0.239216 0.015686
0.023529 0.180392 0.137255
0.047059 0.121569 0.098039
0.109804 0.121569 0.078431
0.282353 0.152941 0.086275
0.490196 0.172549 0.054902
0.635294 0.219608 0.015686
0.721569 0.270588 0.015686
0.776471 0.290196 0.007843
0.811765 0.290196 0.019608
0.007843 0.329412 0.239216
0.019608 0.270588 0.168627
0.101961 0.239216 0.109804
0.247059 0.250980 0.078431
0.482353 0.313725 0.043137
0.647059 0.349020 0.003922
0.756863 0.396078 0.007843
0.811765 0.415686 0.007843
0.839216 0.403922 0.043137
0.023529 0.462745 0.321569
0.031373 0.431373 0.235294
0.101961 0.407843 0.164706
0.298039 0.411765 0.098039
0.490196 0.458824 0.039216
0.686275 0.517647 0.007843
0.792157 0.549020 0.019608
0.843137 0.552941 0.023529
0.866667 0.541176 0.070588
0.043137 0.560784 0.364706
0.082353 0.580392 0.317647
0.149020 0.572549 0.235294
0.345098 0.576471 0.121569
0.564706 0.639216 0.043137
0.737255 0.694118 0.027451
0.854902 0.725490 0.031373
0.894118 0.721569 0.066667
0.901961 0.694118 0.145098
0.105882 0.643137 0.423529
0.168627 0.650980 0.388235
0.227451 0.654902 0.298039
0.388235 0.678431 0.203922
0.588235 0.729412 0.094118
0.756863 0.811765 0.039216
0.866667 0.835294 0.062745
0.909804 0.839216 0.117647
0.925490 0.819608 0.227451
0.176471 0.682353 0.470588
0.207843 0.690196 0.435294
0.290196 0.698039 0.396078
0.443137 0.725490 0.333333
0.588235 0.776471 0.243137
0.745098 0.847059 0.129412
0.850980 0.890196 0.125490
0.909804 0.898039 0.211765
0.933333 0.886275 0.360784
0.227451 0.705882 0.521569
0.258824 0.705882 0.501961
0.333333 0.721569 0.470588
0.486275 0.764706 0.450980
0.600000 0.807843 0.392157
0.725490 0.850980 0.352941
0.843137 0.909804 0.290196
0.894118 0.921569 0.380392
0.929412 0.917647 0.513725
0.047059 0.035294 0.117647
0.090196 0.047059 0.109804
0.156863 0.054902 0.105882
0.266667 0.066667 0.094118
0.431373 0.082353 0.098039
0.576471 0.113725 0.074510
0.674510 0.168627 0.054902
0.737255 0.184314 0.066667
0.776471 0.207843 0.101961
0.019608 0.054902 0.082353
0.047059 0.047059 0.078431
0.137255 0.062745 0.086275
0.266667 0.086275 0.098039
0.454902 0.101961 0.101961
0.596078 0.145098 0.074510
0.694118 0.184314 0.043137
0.752941 0.207843 0.054902
0.800000 0.211765 0.082353
0.039216 0.176471 0.192157
0.035294 0.129412 0.137255
0.113725 0.121569 0.117647
0.278431 0.149020 0.121569
0.462745 0.176471 0.117647
0.615686 0.215686 0.066667
0.729412 0.254902 0.031373
0.788235 0.250980 0.039216
0.815686 0.258824 0.078431
0.019608 0.345098 0.305882
0.015686 0.298039 0.243137
0.094118 0.262745 0.188235
0.250980 0.266667 0.121569
0.482353 0.317647 0.090196
0.643137 0.345098 0.050980
0.772549 0.388235 0.039216
0.827451 0.376471 0.050980
0.850980 0.368627 0.101961
0.019608 0.462745 0.392157
0.023529 0.458824 0.329412
0.086275 0.435294 0.247059
0.270588 0.415686 0.152941
0.466667 0.450980 0.094118
0.658824 0.513725 0.062745
0.800000 0.549020 0.066667
0.862745 0.541176 0.101961
0.866667 0.525490 0.152941
0.031373 0.572549 0.470588
0.062745 0.592157 0.435294
0.129412 0.600000 0.349020
0.337255 0.596078 0.243137
0.541176 0.639216 0.168627
0.721569 0.698039 0.117647
0.850980 0.737255 0.125490
0.901961 0.717647 0.168627
0.905882 0.690196 0.231373
0.105882 0.647059 0.545098
0.141176 0.662745 0.494118
0.211765 0.682353 0.443137
0.372549 0.701961 0.356863
0.588235 0.752941 0.266667
0.756863 0.815686 0.215686
0.870588 0.847059 0.227451
0.913725 0.850980 0.243137
0.929412 0.823529 0.278431
0.145098 0.682353 0.564706
0.200000 0.694118 0.549020
0.282353 0.705882 0.513725
0.423529 0.749020 0.466667
0.596078 0.792157 0.411765
0.745098 0.850980 0.290196
0.866667 0.901961 0.231373
0.917647 0.905882 0.305882
0.937255 0.894118 0.400000
0.215686 0.721569 0.572549
0.254902 0.709804 0.572549
0.333333 0.729412 0.572549
0.466667 0.772549 0.537255
0.611765 0.815686 0.494118
0.717647 0.854902 0.454902
0.847059 0.909804 0.388235
0.905882 0.921569 0.447059
0.933333 0.921569 0.549020
0.074510 0.050980 0.231373
0.101961 0.058824 0.227451
0.164706 0.062745 0.200000
0.270588 0.082353 0.184314
0.419608 0.098039 0.184314
0.560784 0.117647 0.188235
0.682353 0.145098 0.176471
0.768627 0.192157 0.215686
0.823529 0.239216 0.254902
0.039216 0.043137 0.215686
0.054902 0.054902 0.196078
0.125490 0.058824 0.184314
0.247059 0.082353 0.168627
0.443137 0.109804 0.184314
0.588235 0.149020 0.203922
0.709804 0.188235 0.200000
0.788235 0.219608 0.239216
0.827451 0.266667 0.282353
0.031373 0.149020 0.250980
0.050980 0.129412 0.235294
0.117647 0.121569 0.203922
0.250980 0.145098 0.203922
0.462745 0.188235 0.231373
0.623529 0.231373 0.231373
0.737255 0.258824 0.215686
0.811765 0.286275 0.239216
0.839216 0.301961 0.270588
0.023529 0.345098 0.388235
0.027451 0.313725 0.349020
0.090196 0.274510 0.313725
0.274510 0.274510 0.266667
0.505882 0.325490 0.274510
0.654902 0.360784 0.239216
0.764706 0.376471 0.211765
0.835294 0.392157 0.235294
0.866667 0.384314 0.262745
0.023529 0.470588 0.470588
0.003922 0.474510 0.435294
0.058824 0.458824 0.403922
0.262745 0.443137 0.329412
0.482353 0.474510 0.282353
0.670588 0.517647 0.262745
0.784314 0.541176 0.247059
0.858824 0.552941 0.270588
0.886275 0.545098 0.282353
0.039216 0.576471 0.537255
0.054902 0.596078 0.545098
0.098039 0.619608 0.513725
0.290196 0.615686 0.443137
0.533333 0.639216 0.368627
0.694118 0.690196 0.329412
0.835294 0.721569 0.329412
0.898039 0.725490 0.352941
0.917647 0.701961 0.349020
0.101961 0.647059 0.619608
0.133333 0.670588 0.607843
0.188235 0.690196 0.592157
0.341176 0.721569 0.545098
0.572549 0.756863 0.490196
0.745098 0.803922 0.447059
0.862745 0.835294 0.427451
0.921569 0.847059 0.435294
0.925490 0.827451 0.431373
0.160784 0.690196 0.635294
0.192157 0.694118 0.643137
0.258824 0.713725 0.631373
0.403922 0.756863 0.607843
0.580392 0.807843 0.568627
0.749020 0.854902 0.537255
0.874510 0.901961 0.494118
0.929412 0.913725 0.494118
0.937255 0.898039 0.525490
0.219608 0.717647 0.643137
0.243137 0.717647 0.650980
0.313725 0.745098 0.647059
0.454902 0.776471 0.635294
0.600000 0.823529 0.615686
0.717647 0.858824 0.607843
0.847059 0.905882 0.533333
0.913725 0.921569 0.525490
0.937255 0.925490 0.607843
0.094118 0.050980 0.356863
0.133333 0.066667 0.341176
0.192157 0.074510 0.325490
0.282353 0.090196 0.305882
0.411765 0.109804 0.290196
0.560784 0.133333 0.286275
0.674510 0.164706 0.305882
0.780392 0.215686 0.356863
0.823529 0.278431 0.407843
0.058824 0.054902 0.368627
0.101961 0.058824 0.364706
0.156863 0.066667 0.333333
0.250980 0.094118 0.301961
0.407843 0.121569 0.301961
0.588235 0.164706 0.298039
0.709804 0.203922 0.325490
0.792157 0.243137 0.388235
0.847059 0.305882 0.435294
0.039216 0.137255 0.400000
0.066667 0.133333 0.407843
0.149020 0.141176 0.400000
0.262745 0.164706 0.380392
0.443137 0.200000 0.352941
0.623529 0.243137 0.364706
0.749020 0.282353 0.392157
0.827451 0.329412 0.435294
0.866667 0.380392 0.482353
0.023529 0.356863 0.509804
0.039216 0.333333 0.498039
0.133333 0.298039 0.462745
0.282353 0.313725 0.454902
0.505882 0.349020 0.454902
0.670588 0.388235 0.466667
0.784314 0.423529 0.474510
0.854902 0.439216 0.486275
0.882353 0.462745 0.501961
0.019608 0.494118 0.568627
0.023529 0.501961 0.560784
0.086275 0.482353 0.529412
0.286275 0.474510 0.513725
0.521569 0.513725 0.517647
0.698039 0.541176 0.501961
0.815686 0.560784 0.490196
0.874510 0.568627 0.490196
0.901961 0.564706 0.498039
0.074510 0.603922 0.619608
0.078431 0.619608 0.627451
0.129412 0.631373 0.635294
0.286275 0.639216 0.603922
0.545098 0.658824 0.580392
0.717647 0.694118 0.552941
0.843137 0.721569 0.537255
0.905882 0.725490 0.533333
0.921569 0.721569 0.537255
0.133333 0.666667 0.666667
0.149020 0.674510 0.670588
0.207843 0.698039 0.682353
0.321569 0.733333 0.678431
0.564706 0.772549 0.670588
0.752941 0.803922 0.631373
0.862745 0.827451 0.603922
0.921569 0.835294 0.611765
0.941176 0.823529 0.611765
0.180392 0.694118 0.670588
0.215686 0.698039 0.678431
0.270588 0.725490 0.690196
0.400000 0.768627 0.705882
0.568627 0.823529 0.705882
0.756863 0.866667 0.705882
0.874510 0.894118 0.666667
0.925490 0.901961 0.674510
0.945098 0.898039 0.670588
0.243137 0.717647 0.698039
0.266667 0.725490 0.694118
0.325490 0.741176 0.701961
0.450980 0.780392 0.717647
0.580392 0.827451 0.713725
0.729412 0.878431 0.733333
0.854902 0.905882 0.698039
0.921569 0.921569 0.678431
0.925490 0.921569 0.701961
0.121569 0.062745 0.458824
0.164706 0.062745 0.443137
0.227451 0.094118 0.435294
0.317647 0.113725 0.439216
0.419608 0.117647 0.431373
0.545098 0.145098 0.435294
0.670588 0.176471 0.466667
0.772549 0.235294 0.509804
0.831373 0.298039 0.556863
0.086275 0.050980 0.509804
0.117647 0.066667 0.482353
0.196078 0.078431 0.470588
0.298039 0.105882 0.466667
0.419608 0.125490 0.450980
0.572549 0.152941 0.474510
0.698039 0.200000 0.501961
0.784314 0.258824 0.529412
0.843137 0.333333 0.576471
0.058824 0.078431 0.541176
0.074510 0.078431 0.541176
0.141176 0.101961 0.541176
0.290196 0.156863 0.537255
0.462745 0.203922 0.545098
0.615686 0.250980 0.529412
0.745098 0.294118 0.556863
0.823529 0.352941 0.596078
0.862745 0.400000 0.627451
0.019608 0.360784 0.662745
0.054902 0.356863 0.662745
0.160784 0.345098 0.627451
0.337255 0.352941 0.631373
0.529412 0.388235 0.631373
0.686275 0.419608 0.619608
0.796078 0.447059 0.627451
0.866667 0.486275 0.654902
0.894118 0.517647 0.662745
0.011765 0.560784 0.698039
0.027451 0.552941 0.698039
0.101961 0.525490 0.678431
0.301961 0.505882 0.658824
0.541176 0.541176 0.674510
0.713725 0.572549 0.674510
0.835294 0.592157 0.682353
0.890196 0.607843 0.686275
0.905882 0.623529 0.678431
0.086275 0.647059 0.701961
0.090196 0.666667 0.729412
0.160784 0.682353 0.749020
0.321569 0.666667 0.721569
0.572549 0.690196 0.729412
0.749020 0.725490 0.733333
0.858824 0.737255 0.717647
0.917647 0.733333 0.709804
0.929412 0.721569 0.690196
0.172549 0.698039 0.733333
0.196078 0.713725 0.733333
0.247059 0.721569 0.752941
0.352941 0.752941 0.772549
0.568627 0.788235 0.776471
0.776471 0.823529 0.768627
0.874510 0.831373 0.752941
0.933333 0.847059 0.752941
0.933333 0.823529 0.729412
0.235294 0.717647 0.745098
0.243137 0.721569 0.733333
0.301961 0.729412 0.749020
0.411765 0.772549 0.760784
0.576471 0.831373 0.800000
0.772549 0.878431 0.819608
0.882353 0.898039 0.800000
0.933333 0.905882 0.796078
0.949020 0.894118 0.780392
0.290196 0.729412 0.733333
0.309804 0.741176 0.737255
0.349020 0.752941 0.741176
0.462745 0.784314 0.768627
0.588235 0.827451 0.796078
0.737255 0.882353 0.815686
0.866667 0.913725 0.819608
0.921569 0.917647 0.796078
0.941176 0.925490 0.780392
0.149020 0.062745 0.549020
0.188235 0.082353 0.541176
0.258824 0.094118 0.533333
0.352941 0.129412 0.549020
0.458824 0.141176 0.552941
0.568627 0.156863 0.552941
0.662745 0.188235 0.603922
0.772549 0.258824 0.658824
0.831373 0.349020 0.701961
0.117647 0.062745 0.592157
0.156863 0.074510 0.588235
0.223529 0.090196 0.564706
0.341176 0.129412 0.576471
0.458824 0.152941 0.580392
0.576471 0.172549 0.600000
0.698039 0.203922 0.635294
0.796078 0.290196 0.682353
0.854902 0.396078 0.713725
0.070588 0.070588 0.650980
0.094118 0.074510 0.647059
0.188235 0.090196 0.650980
0.309804 0.129412 0.647059
0.498039 0.192157 0.662745
0.639216 0.231373 0.674510
0.760784 0.301961 0.709804
0.827451 0.380392 0.725490
0.870588 0.450980 0.733333
0.027451 0.278431 0.760784
0.050980 0.313725 0.764706
0.176471 0.317647 0.749020
0.364706 0.364706 0.749020
0.576471 0.411765 0.749020
0.725490 0.447059 0.752941
0.815686 0.478431 0.764706
0.878431 0.521569 0.784314
0.894118 0.541176 0.752941
0.015686 0.596078 0.831373
0.062745 0.584314 0.815686
0.176471 0.549020 0.800000
0.349020 0.545098 0.792157
0.572549 0.576471 0.788235
0.745098 0.615686 0.800000
0.847059 0.631373 0.796078
0.901961 0.647059 0.803922
0.921569 0.650980 0.772549
0.047059 0.709804 0.831373
0.070588 0.733333 0.854902
0.176471 0.725490 0.854902
0.341176 0.690196 0.823529
0.556863 0.686275 0.815686
0.764706 0.729412 0.835294
0.878431 0.752941 0.835294
0.913725 0.768627 0.835294
0.929412 0.756863 0.807843
0.196078 0.749020 0.788235
0.223529 0.756863 0.819608
0.270588 0.780392 0.835294
0.384314 0.800000 0.854902
0.564706 0.796078 0.858824
0.788235 0.827451 0.866667
0.890196 0.847059 0.862745
0.933333 0.854902 0.858824
0.945098 0.827451 0.819608
0.286275 0.749020 0.788235
0.309804 0.749020 0.796078
0.341176 0.764706 0.803922
0.439216 0.792157 0.823529
0.592157 0.839216 0.858824
0.792157 0.886275 0.894118
0.898039 0.901961 0.882353
0.941176 0.913725 0.874510
0.956863 0.890196 0.850980
0.333333 0.756863 0.768627
0.349020 0.752941 0.772549
0.384314 0.776471 0.784314
0.470588 0.800000 0.807843
0.603922 0.839216 0.831373
0.760784 0.878431 0.870588
0.882353 0.921569 0.890196
0.929412 0.933333 0.878431
0.952941 0.929412 0.866667
0.172549 0.078431 0.627451
0.207843 0.086275 0.623529
0.270588 0.109804 0.611765
0.376471 0.141176 0.619608
0.486275 0.168627 0.639216
0.592157 0.188235 0.650980
0.686275 0.227451 0.678431
0.776471 0.290196 0.721569
0.847059 0.419608 0.768627
0.137255 0.078431 0.647059
0.184314 0.090196 0.662745
0.258824 0.109804 0.647059
0.372549 0.152941 0.650980
0.501961 0.184314 0.658824
0.607843 0.200000 0.674510
0.709804 0.243137 0.705882
0.803922 0.325490 0.752941
0.866667 0.450980 0.796078
0.074510 0.098039 0.717647
0.121569 0.105882 0.721569
0.223529 0.125490 0.725490
0.364706 0.176471 0.709804
0.517647 0.227451 0.717647
0.662745 0.247059 0.733333
0.764706 0.305882 0.752941
0.847059 0.400000 0.784314
0.874510 0.509804 0.823529
0.031373 0.270588 0.819608
0.047059 0.247059 0.800000
0.141176 0.227451 0.807843
0.345098 0.282353 0.803922
0.572549 0.352941 0.788235
0.729412 0.396078 0.800000
0.831373 0.466667 0.815686
0.886275 0.529412 0.839216
0.894118 0.572549 0.823529
0.050980 0.584314 0.890196
0.086275 0.584314 0.894118
0.207843 0.572549 0.878431
0.396078 0.576471 0.870588
0.631373 0.611765 0.862745
0.796078 0.647059 0.878431
0.878431 0.662745 0.878431
0.913725 0.678431 0.878431
0.917647 0.670588 0.854902
0.109804 0.749020 0.917647
0.156863 0.749020 0.917647
0.254902 0.733333 0.917647
0.403922 0.709804 0.898039
0.592157 0.717647 0.878431
0.784314 0.760784 0.901961
0.890196 0.788235 0.901961
0.925490 0.796078 0.901961
0.945098 0.768627 0.890196
0.223529 0.807843 0.901961
0.247059 0.815686 0.921569
0.305882 0.823529 0.921569
0.447059 0.823529 0.921569
0.592157 0.803922 0.913725
0.776471 0.823529 0.909804
0.890196 0.858824 0.917647
0.937255 0.866667 0.913725
0.941176 0.847059 0.898039
0.321569 0.800000 0.850980
0.333333 0.811765 0.870588
0.380392 0.811765 0.862745
0.470588 0.831373 0.882353
0.615686 0.858824 0.909804
0.788235 0.874510 0.925490
0.894118 0.898039 0.917647
0.949020 0.913725 0.933333
0.949020 0.901961 0.917647
0.396078 0.800000 0.835294
0.407843 0.792157 0.835294
0.443137 0.796078 0.839216
0.501961 0.815686 0.858824
0.615686 0.847059 0.870588
0.764706 0.886275 0.898039
0.878431 0.909804 0.921569
0.933333 0.933333 0.925490
0.956863 0.937255 0.921569
0.192157 0.105882 0.674510
0.215686 0.105882 0.674510
0.294118 0.133333 0.674510
0.403922 0.172549 0.678431
0.513725 0.203922 0.694118
0.627451 0.235294 0.713725
0.717647 0.274510 0.737255
0.792157 0.356863 0.760784
0.850980 0.482353 0.788235
0.172549 0.105882 0.717647
0.211765 0.109804 0.701961
0.286275 0.141176 0.698039
0.407843 0.188235 0.709804
0.537255 0.219608 0.721569
0.650980 0.254902 0.733333
0.733333 0.301961 0.752941
0.811765 0.396078 0.788235
0.858824 0.513725 0.811765
0.121569 0.129412 0.768627
0.156863 0.129412 0.776471
0.266667 0.172549 0.760784
0.400000 0.219608 0.749020
0.549020 0.266667 0.756863
0.670588 0.298039 0.768627
0.768627 0.352941 0.784314
0.835294 0.447059 0.803922
0.882353 0.545098 0.831373
0.074510 0.301961 0.827451
0.090196 0.282353 0.827451
0.192157 0.274510 0.827451
0.380392 0.321569 0.811765
0.580392 0.376471 0.811765
0.721569 0.423529 0.815686
0.815686 0.458824 0.823529
0.862745 0.513725 0.827451
0.890196 0.592157 0.843137
0.129412 0.588235 0.898039
0.152941 0.572549 0.894118
0.227451 0.560784 0.878431
0.400000 0.545098 0.890196
0.600000 0.572549 0.874510
0.768627 0.607843 0.882353
0.862745 0.635294 0.874510
0.901961 0.654902 0.870588
0.909804 0.658824 0.854902
0.207843 0.725490 0.917647
0.235294 0.729412 0.925490
0.317647 0.713725 0.925490
0.447059 0.709804 0.913725
0.619608 0.725490 0.901961
0.780392 0.764706 0.901961
0.882353 0.776471 0.913725
0.921569 0.776471 0.905882
0.921569 0.756863 0.898039
0.298039 0.819608 0.941176
0.329412 0.811765 0.941176
0.376471 0.803922 0.925490
0.490196 0.788235 0.921569
0.615686 0.784314 0.909804
0.760784 0.803922 0.913725
0.870588 0.835294 0.917647
0.929412 0.858824 0.921569
0.929412 0.831373 0.913725
0.392157 0.843137 0.917647
0.403922 0.831373 0.909804
0.450980 0.839216 0.921569
0.541176 0.843137 0.913725
0.658824 0.847059 0.925490
0.776471 0.847059 0.925490
0.862745 0.870588 0.921569
0.921569 0.890196 0.933333
0.933333 0.890196 0.921569
0.443137 0.815686 0.886275
0.478431 0.823529 0.878431
0.509804 0.831373 0.886275
0.576471 0.843137 0.894118
0.643137 0.847059 0.898039
0.768627 0.874510 0.917647
0.858824 0.894118 0.921569
0.921569 0.917647 0.941176
0.952941 0.929412 0.945098
