JustShoot/Resources/FujiC200.cube
#Generated with IWLTBAP LUT Generator
#Website: http://luts.iwltbap.com
TITLE "ф╚бл"
#LUT size
LUT_3D_SIZE 5
#LUT data points
0.007843 0.031373 0.015686
0.164706 0.050980 0.058824
0.474510 0.070588 0.035294
0.639216 0.160784 0.015686
0.752941 0.231373 0.007843
0.035294 0.141176 0.105882
0.133333 0.137255 0.066667
0.513725 0.239216 0.035294
0.721569 0.317647 0.007843
0.819608 0.309804 0.003922
0.011765 0.427451 0.239216
0.164706 0.407843 0.113725
0.513725 0.462745 0.023529
0.776471 0.545098 0.011765
0.858824 0.545098 0.054902
0.141176 0.639216 0.360784
0.243137 0.639216 0.239216
0.588235 0.713725 0.050980
0.847059 0.815686 0.035294
0.921569 0.811765 0.188235
0.223529 0.698039 0.490196
0.341176 0.717647 0.435294
0.600000 0.800000 0.325490
0.843137 0.909804 0.250980
0.925490 0.917647 0.490196
0.047059 0.035294 0.117647
0.156863 0.054902 0.105882
0.431373 0.082353 0.098039
0.674510 0.168627 0.054902
0.776471 0.207843 0.101961
0.039216 0.176471 0.192157
0.113725 0.121569 0.117647
0.462745 0.176471 0.117647
0.729412 0.254902 0.031373
0.815686 0.258824 0.078431
0.019608 0.462745 0.392157
0.086275 0.435294 0.247059
0.466667 0.450980 0.094118
0.800000 0.549020 0.066667
0.866667 0.525490 0.152941
0.105882 0.647059 0.545098
0.211765 0.682353 0.443137
0.588235 0.752941 0.266667
0.870588 0.847059 0.227451
0.929412 0.823529 0.278431
0.215686 0.721569 0.572549
0.333333 0.729412 0.572549
0.611765 0.815686 0.494118
0.847059 0.909804 0.388235
0.933333 0.921569 0.549020
0.094118 0.050980 0.356863
0.192157 0.074510 0.325490
0.411765 0.109804 0.290196
0.674510 0.164706 0.305882
0.823529 0.278431 0.407843
0.039216 0.137255 0.400000
0.149020 0.141176 0.400000
0.443137 0.200000 0.352941
0.749020 0.282353 0.392157
0.866667 0.380392 0.482353
0.019608 0.494118 0.568627
0.086275 0.482353 0.529412
0.521569 0.513725 0.517647
0.815686 0.560784 0.490196
0.901961 0.564706 0.498039
0.133333 0.666667 0.666667
0.207843 0.698039 0.682353
0.564706 0.772549 0.670588
0.862745 0.827451 0.603922
0.941176 0.823529 0.611765
0.243137 0.717647 0.698039
0.325490 0.741176 0.701961
0.580392 0.827451 0.713725
0.854902 0.905882 0.698039
0.925490 0.921569 0.701961
0.149020 0.062745 0.549020
0.258824 0.094118 0.533333
0.458824 0.141176 0.552941
0.662745 0.188235 0.603922
0.831373 0.349020 0.701961
0.070588 0.070588 0.650980
0.188235 0.090196 0.650980
0.498039 0.192157 0.662745
0.760784 0.301961 0.709804
0.870588 0.450980 0.733333
0.015686 0.596078 0.831373
0.176471 0.549020 0.800000
0.572549 0.576471 0.788235
0.847059 0.631373 0.796078
0.921569 0.650980 0.772549
0.196078 0.749020 0.788235
0.270588 0.780392 0.835294
0.564706 0.796078 0.858824
0.890196 0.847059 0.862745
0.945098 0.827451 0.819608
0.333333 0.756863 0.768627
0.384314 0.776471 0.784314
0.603922 0.839216 0.831373
0.882353 0.921569 0.890196
0.952941 0.929412 0.866667
0.192157 0.105882 0.674510
0.294118 0.133333 0.674510
0.513725 0.203922 0.694118
0.717647 0.274510 0.737255
0.850980 0.482353 0.788235
0.121569 0.129412 0.768627
0.266667 0.172549 0.760784
0.549020 0.266667 0.756863
0.768627 0.352941 0.784314
0.882353 0.545098 0.831373
0.129412 0.588235 0.898039
0.227451 0.560784 0.878431
0.600000 0.572549 0.874510
0.862745 0.635294 0.874510
0.909804 0.658824 0.854902
0.298039 0.819608 0.941176
0.376471 0.803922 0.925490
0.615686 0.784314 0.909804
0.870588 0.835294 0.917647
0.929412 0.831373 0.913725
0.443137 0.815686 0.886275
0.509804 0.831373 0.886275
0.643137 0.847059 0.898039
0.858824 0.894118 0.921569
0.952941 0.929412 0.945098
