JustShoot/Resources/FujiPro400H.cube
#Generated with IWLTBAP LUT Generator
#Website: http://luts.iwltbap.com
TITLE "ORI"
#LUT size
LUT_3D_SIZE 25
#LUT data points
0.027451 0.003922 0.003922
0.031373 0.011765 0.000000
0.047059 0.015686 0.003922
0.054902 0.019608 0.000000
0.078431 0.019608 0.000000
0.125490 0.027451 0.007843
0.176471 0.031373 0.007843
0.247059 0.039216 0.007843
0.317647 0.050980 0.007843
0.400000 0.062745 0.011765
0.486275 0.070588 0.007843
0.556863 0.082353 0.007843
0.623529 0.094118 0.015686
0.662745 0.105882 0.019608
0.701961 0.113725 0.015686
0.737255 0.117647 0.019608
0.760784 0.117647 0.019608
0.780392 0.121569 0.015686
0.796078 0.125490 0.007843
0.815686 0.129412 0.015686
0.823529 0.137255 0.015686
0.835294 0.141176 0.011765
0.839216 0.145098 0.011765
0.843137 0.149020 0.019608
0.854902 0.149020 0.011765
0.035294 0.019608 0.007843
0.035294 0.023529 0.000000
0.047059 0.031373 0.000000
0.047059 0.031373 0.000000
0.074510 0.035294 0.000000
0.117647 0.039216 0.003922
0.168627 0.039216 0.003922
0.235294 0.047059 0.000000
0.317647 0.058824 0.003922
0.403922 0.066667 0.000000
0.478431 0.074510 0.000000
0.556863 0.090196 0.003922
0.615686 0.098039 0.007843
0.658824 0.101961 0.007843
0.701961 0.113725 0.007843
0.741176 0.121569 0.007843
0.764706 0.125490 0.003922
0.792157 0.129412 0.007843
0.815686 0.137255 0.011765
0.823529 0.141176 0.007843
0.835294 0.141176 0.007843
0.843137 0.145098 0.003922
0.847059 0.149020 0.007843
0.850980 0.156863 0.000000
0.854902 0.156863 0.007843
0.027451 0.039216 0.000000
0.035294 0.043137 0.000000
0.039216 0.039216 0.000000
0.062745 0.047059 0.011765
0.074510 0.043137 0.000000
0.105882 0.050980 0.000000
0.164706 0.054902 0.007843
0.235294 0.066667 0.000000
0.317647 0.078431 0.003922
0.396078 0.078431 0.000000
0.482353 0.098039 0.000000
0.556863 0.105882 0.000000
0.619608 0.113725 0.000000
0.662745 0.117647 0.000000
0.701961 0.125490 0.000000
0.741176 0.125490 0.000000
0.768627 0.129412 0.000000
0.780392 0.137255 0.000000
0.807843 0.149020 0.007843
0.823529 0.149020 0.000000
0.827451 0.152941 0.000000
0.847059 0.156863 0.000000
0.850980 0.160784 0.000000
0.854902 0.164706 0.003922
0.854902 0.168627 0.000000
0.027451 0.058824 0.000000
0.023529 0.066667 0.003922
0.035294 0.062745 0.000000
0.050980 0.078431 0.007843
0.090196 0.066667 0.003922
0.121569 0.078431 0.007843
0.164706 0.082353 0.000000
0.231373 0.090196 0.000000
0.305882 0.094118 0.000000
0.396078 0.105882 0.007843
0.482353 0.113725 0.003922
0.552941 0.117647 0.000000
0.619608 0.133333 0.000000
0.654902 0.133333 0.000000
0.694118 0.149020 0.000000
0.733333 0.152941 0.000000
0.756863 0.156863 0.000000
0.788235 0.152941 0.000000
0.800000 0.160784 0.000000
0.819608 0.164706 0.000000
0.831373 0.168627 0.000000
0.839216 0.168627 0.000000
0.847059 0.176471 0.003922
0.850980 0.180392 0.007843
0.854902 0.184314 0.011765
0.023529 0.109804 0.019608
0.035294 0.109804 0.023529
0.039216 0.109804 0.023529
0.047059 0.117647 0.023529
0.070588 0.117647 0.023529
0.109804 0.121569 0.007843
0.160784 0.125490 0.003922
0.231373 0.137255 0.003922
0.298039 0.145098 0.000000
0.376471 0.141176 0.000000
0.458824 0.152941 0.003922
0.529412 0.164706 0.000000
0.588235 0.168627 0.000000
0.643137 0.180392 0.000000
0.690196 0.188235 0.000000
0.729412 0.188235 0.003922
0.756863 0.188235 0.003922
0.772549 0.196078 0.000000
0.803922 0.200000 0.003922
0.823529 0.196078 0.000000
0.831373 0.203922 0.007843
0.839216 0.207843 0.000000
0.847059 0.207843 0.000000
0.850980 0.211765 0.000000
0.854902 0.211765 0.003922
0.023529 0.164706 0.054902
0.023529 0.168627 0.039216
0.035294 0.172549 0.047059
0.043137 0.176471 0.047059
0.074510 0.176471 0.031373
0.109804 0.180392 0.031373
0.156863 0.184314 0.023529
0.219608 0.192157 0.011765
0.305882 0.196078 0.007843
0.376471 0.196078 0.000000
0.450980 0.211765 0.000000
0.529412 0.219608 0.000000
0.588235 0.219608 0.007843
0.643137 0.227451 0.000000
0.690196 0.235294 0.000000
0.729412 0.235294 0.000000
0.749020 0.239216 0.000000
0.776471 0.243137 0.000000
0.800000 0.243137 0.000000
0.815686 0.243137 0.007843
0.835294 0.247059 0.007843
0.843137 0.247059 0.000000
0.850980 0.247059 0.000000
0.854902 0.250980 0.000000
0.858824 0.250980 0.000000
0.015686 0.231373 0.078431
0.027451 0.231373 0.078431
0.043137 0.231373 0.074510
0.050980 0.235294 0.062745
0.078431 0.231373 0.058824
0.113725 0.239216 0.047059
0.149020 0.239216 0.035294
0.227451 0.247059 0.027451
0.294118 0.254902 0.015686
0.372549 0.262745 0.007843
0.443137 0.266667 0.000000
0.521569 0.274510 0.000000
0.584314 0.278431 0.000000
0.639216 0.282353 0.000000
0.686275 0.294118 0.000000
0.721569 0.290196 0.000000
0.749020 0.294118 0.000000
0.780392 0.298039 0.000000
0.807843 0.298039 0.003922
0.815686 0.294118 0.000000
0.843137 0.290196 0.007843
0.850980 0.286275 0.000000
0.854902 0.290196 0.003922
0.854902 0.294118 0.000000
0.866667 0.290196 0.015686
0.023529 0.305882 0.117647
0.023529 0.309804 0.101961
0.039216 0.313725 0.109804
0.043137 0.313725 0.090196
0.078431 0.317647 0.086275
0.101961 0.313725 0.070588
0.156863 0.321569 0.070588
0.207843 0.313725 0.035294
0.282353 0.325490 0.027451
0.360784 0.333333 0.019608
0.443137 0.341176 0.011765
0.513725 0.337255 0.003922
0.584314 0.349020 0.011765
0.631373 0.352941 0.007843
0.674510 0.360784 0.011765
0.713725 0.364706 0.011765
0.749020 0.364706 0.007843
0.776471 0.364706 0.007843
0.803922 0.356863 0.007843
0.823529 0.356863 0.003922
0.843137 0.356863 0.003922
0.858824 0.356863 0.007843
0.862745 0.356863 0.000000
0.874510 0.349020 0.007843
0.862745 0.349020 0.003922
0.023529 0.384314 0.137255
0.031373 0.384314 0.133333
0.039216 0.376471 0.129412
0.043137 0.380392 0.133333
0.082353 0.396078 0.117647
0.109804 0.392157 0.101961
0.152941 0.396078 0.094118
0.211765 0.400000 0.070588
0.278431 0.396078 0.050980
0.349020 0.400000 0.039216
0.427451 0.411765 0.023529
0.498039 0.415686 0.003922
0.552941 0.419608 0.000000
0.623529 0.423529 0.003922
0.670588 0.427451 0.000000
0.713725 0.431373 0.000000
0.741176 0.435294 0.000000
0.776471 0.439216 0.003922
0.803922 0.431373 0.000000
0.823529 0.427451 0.003922
0.847059 0.423529 0.000000
0.850980 0.427451 0.003922
0.870588 0.411765 0.000000
0.870588 0.407843 0.015686
0.866667 0.407843 0.003922
0.031373 0.447059 0.164706
0.031373 0.447059 0.152941
0.035294 0.450980 0.160784
0.050980 0.447059 0.141176
0.086275 0.454902 0.149020
0.113725 0.458824 0.129412
0.152941 0.458824 0.121569
0.211765 0.466667 0.105882
0.278431 0.478431 0.082353
0.356863 0.478431 0.070588
0.419608 0.486275 0.039216
0.486275 0.482353 0.019608
0.560784 0.486275 0.023529
0.607843 0.490196 0.011765
0.662745 0.490196 0.007843
0.705882 0.494118 0.000000
0.745098 0.494118 0.000000
0.772549 0.501961 0.000000
0.796078 0.501961 0.000000
0.823529 0.501961 0.000000
0.850980 0.490196 0.000000
0.862745 0.486275 0.003922
0.874510 0.482353 0.003922
0.882353 0.478431 0.015686
0.878431 0.470588 0.019608
0.031373 0.490196 0.172549
0.035294 0.498039 0.168627
0.043137 0.498039 0.164706
0.054902 0.501961 0.160784
0.078431 0.505882 0.156863
0.117647 0.505882 0.149020
0.156863 0.509804 0.125490
0.219608 0.521569 0.113725
0.282353 0.525490 0.090196
0.345098 0.529412 0.074510
0.435294 0.537255 0.054902
0.494118 0.545098 0.031373
0.560784 0.545098 0.023529
0.607843 0.545098 0.000000
0.662745 0.549020 0.000000
0.705882 0.552941 0.003922
0.741176 0.556863 0.000000
0.776471 0.560784 0.003922
0.800000 0.552941 0.000000
0.823529 0.552941 0.003922
0.850980 0.552941 0.011765
0.862745 0.541176 0.000000
0.878431 0.541176 0.003922
0.886275 0.541176 0.015686
0.890196 0.533333 0.023529
0.035294 0.545098 0.192157
0.050980 0.541176 0.184314
0.043137 0.541176 0.184314
0.062745 0.552941 0.192157
0.086275 0.556863 0.172549
0.121569 0.560784 0.160784
0.176471 0.556863 0.152941
0.215686 0.568627 0.125490
0.274510 0.568627 0.101961
0.356863 0.576471 0.086275
0.423529 0.580392 0.062745
0.498039 0.584314 0.047059
0.560784 0.596078 0.035294
0.615686 0.596078 0.023529
0.658824 0.603922 0.011765
0.705882 0.607843 0.003922
0.741176 0.611765 0.003922
0.768627 0.611765 0.000000
0.803922 0.611765 0.003922
0.831373 0.611765 0.003922
0.862745 0.607843 0.011765
0.874510 0.596078 0.007843
0.878431 0.588235 0.003922
0.886275 0.588235 0.015686
0.905882 0.584314 0.043137
0.043137 0.584314 0.207843
0.043137 0.588235 0.200000
0.058824 0.584314 0.203922
0.070588 0.588235 0.188235
0.094118 0.592157 0.180392
0.129412 0.600000 0.176471
0.172549 0.603922 0.164706
0.223529 0.607843 0.141176
0.290196 0.611765 0.117647
0.345098 0.619608 0.101961
0.419608 0.627451 0.070588
0.494118 0.635294 0.054902
0.552941 0.643137 0.043137
0.596078 0.650980 0.031373
0.662745 0.647059 0.015686
0.698039 0.650980 0.007843
0.741176 0.658824 0.003922
0.772549 0.662745 0.000000
0.803922 0.658824 0.003922
0.831373 0.658824 0.003922
0.854902 0.654902 0.000000
0.866667 0.650980 0.011765
0.878431 0.635294 0.011765
0.894118 0.635294 0.023529
0.905882 0.623529 0.047059
0.047059 0.615686 0.219608
0.062745 0.607843 0.219608
0.070588 0.619608 0.207843
0.086275 0.623529 0.215686
0.101961 0.619608 0.192157
0.133333 0.619608 0.188235
0.180392 0.627451 0.180392
0.235294 0.631373 0.152941
0.286275 0.635294 0.125490
0.364706 0.647059 0.113725
0.431373 0.658824 0.086275
0.486275 0.662745 0.062745
0.545098 0.666667 0.054902
0.596078 0.678431 0.039216
0.650980 0.678431 0.031373
0.705882 0.678431 0.019608
0.741176 0.686275 0.015686
0.776471 0.690196 0.015686
0.800000 0.694118 0.007843
0.823529 0.694118 0.007843
0.850980 0.686275 0.003922
0.874510 0.686275 0.011765
0.898039 0.686275 0.019608
0.894118 0.666667 0.039216
0.913725 0.666667 0.058824
0.054902 0.631373 0.215686
0.066667 0.635294 0.223529
0.062745 0.639216 0.219608
0.090196 0.647059 0.215686
0.117647 0.643137 0.192157
0.149020 0.647059 0.188235
0.180392 0.650980 0.168627
0.239216 0.658824 0.152941
0.298039 0.666667 0.133333
0.364706 0.674510 0.113725
0.431373 0.682353 0.098039
0.498039 0.698039 0.082353
0.541176 0.701961 0.058824
0.596078 0.709804 0.050980
0.647059 0.713725 0.031373
0.698039 0.713725 0.027451
0.741176 0.713725 0.019608
0.768627 0.721569 0.015686
0.803922 0.721569 0.011765
0.835294 0.721569 0.015686
0.858824 0.725490 0.007843
0.882353 0.721569 0.023529
0.901961 0.717647 0.035294
0.905882 0.705882 0.043137
0.909804 0.701961 0.050980
0.062745 0.650980 0.227451
0.070588 0.658824 0.227451
0.086275 0.658824 0.223529
0.101961 0.666667 0.223529
0.125490 0.670588 0.203922
0.160784 0.678431 0.200000
0.196078 0.678431 0.180392
0.250980 0.682353 0.160784
0.305882 0.694118 0.137255
0.368627 0.698039 0.121569
0.435294 0.705882 0.098039
0.498039 0.709804 0.082353
0.556863 0.725490 0.070588
0.615686 0.733333 0.050980
0.654902 0.737255 0.035294
0.698039 0.741176 0.027451
0.745098 0.745098 0.023529
0.776471 0.752941 0.023529
0.811765 0.756863 0.023529
0.839216 0.756863 0.023529
0.866667 0.756863 0.023529
0.886275 0.745098 0.023529
0.905882 0.745098 0.039216
0.909804 0.749020 0.050980
0.909804 0.745098 0.070588
0.074510 0.670588 0.243137
0.090196 0.670588 0.231373
0.090196 0.682353 0.231373
0.109804 0.674510 0.227451
0.137255 0.686275 0.196078
0.164706 0.701961 0.196078
0.211765 0.698039 0.180392
0.274510 0.698039 0.160784
0.321569 0.701961 0.145098
0.384314 0.713725 0.125490
0.435294 0.725490 0.101961
0.494118 0.733333 0.082353
0.552941 0.741176 0.074510
0.615686 0.749020 0.062745
0.658824 0.756863 0.050980
0.698039 0.760784 0.039216
0.729412 0.764706 0.031373
0.768627 0.772549 0.027451
0.803922 0.776471 0.015686
0.831373 0.776471 0.019608
0.866667 0.776471 0.031373
0.886275 0.772549 0.035294
0.898039 0.776471 0.047059
0.913725 0.772549 0.058824
0.905882 0.768627 0.062745
0.090196 0.690196 0.243137
0.090196 0.698039 0.235294
0.101961 0.698039 0.231373
0.109804 0.698039 0.215686
0.152941 0.701961 0.211765
0.176471 0.709804 0.192157
0.219608 0.713725 0.184314
0.274510 0.725490 0.164706
0.329412 0.729412 0.149020
0.384314 0.737255 0.121569
0.447059 0.741176 0.101961
0.505882 0.749020 0.078431
0.560784 0.756863 0.070588
0.603922 0.764706 0.066667
0.658824 0.776471 0.054902
0.698039 0.776471 0.047059
0.737255 0.788235 0.039216
0.768627 0.788235 0.039216
0.807843 0.792157 0.035294
0.843137 0.792157 0.035294
0.866667 0.796078 0.035294
0.882353 0.792157 0.039216
0.913725 0.800000 0.062745
0.905882 0.792157 0.054902
0.913725 0.792157 0.090196
0.101961 0.701961 0.243137
0.109804 0.709804 0.250980
0.121569 0.709804 0.215686
0.141176 0.713725 0.223529
0.156863 0.717647 0.223529
0.196078 0.721569 0.207843
0.239216 0.729412 0.196078
0.290196 0.733333 0.168627
0.341176 0.745098 0.152941
0.411765 0.752941 0.137255
0.462745 0.764706 0.113725
0.509804 0.768627 0.094118
0.564706 0.776471 0.086275
0.607843 0.788235 0.066667
0.654902 0.788235 0.062745
0.698039 0.796078 0.050980
0.733333 0.800000 0.039216
0.768627 0.807843 0.043137
0.800000 0.815686 0.039216
0.843137 0.819608 0.043137
0.870588 0.815686 0.050980
0.886275 0.823529 0.043137
0.905882 0.815686 0.054902
0.917647 0.819608 0.078431
0.929412 0.811765 0.082353
0.117647 0.721569 0.250980
0.125490 0.713725 0.231373
0.137255 0.725490 0.235294
0.152941 0.725490 0.227451
0.176471 0.729412 0.215686
0.207843 0.733333 0.203922
0.250980 0.741176 0.192157
0.309804 0.749020 0.176471
0.356863 0.760784 0.156863
0.411765 0.764706 0.137255
0.458824 0.776471 0.121569
0.517647 0.784314 0.105882
0.568627 0.792157 0.098039
0.611765 0.800000 0.086275
0.650980 0.803922 0.070588
0.690196 0.811765 0.066667
0.725490 0.815686 0.054902
0.760784 0.823529 0.058824
0.796078 0.827451 0.054902
0.831373 0.831373 0.062745
0.858824 0.827451 0.054902
0.882353 0.835294 0.058824
0.905882 0.835294 0.074510
0.925490 0.831373 0.094118
0.929412 0.835294 0.105882
0.137255 0.737255 0.250980
0.141176 0.741176 0.243137
0.152941 0.737255 0.227451
0.168627 0.741176 0.219608
0.192157 0.745098 0.203922
0.231373 0.752941 0.200000
0.274510 0.760784 0.188235
0.337255 0.760784 0.180392
0.380392 0.768627 0.160784
0.431373 0.776471 0.141176
0.486275 0.784314 0.125490
0.517647 0.803922 0.109804
0.572549 0.803922 0.098039
0.603922 0.815686 0.086275
0.662745 0.823529 0.078431
0.698039 0.819608 0.074510
0.729412 0.831373 0.066667
0.756863 0.835294 0.066667
0.803922 0.847059 0.070588
0.831373 0.847059 0.066667
0.858824 0.847059 0.066667
0.882353 0.843137 0.074510
0.901961 0.847059 0.082353
0.917647 0.850980 0.098039
0.921569 0.854902 0.105882
0.160784 0.745098 0.243137
0.180392 0.749020 0.235294
0.176471 0.749020 0.227451
0.207843 0.756863 0.227451
0.243137 0.764706 0.211765
0.262745 0.760784 0.200000
0.309804 0.772549 0.200000
0.349020 0.776471 0.168627
0.400000 0.780392 0.156863
0.450980 0.792157 0.145098
0.498039 0.803922 0.129412
0.545098 0.815686 0.113725
0.588235 0.823529 0.105882
0.627451 0.823529 0.098039
0.666667 0.835294 0.086275
0.713725 0.835294 0.094118
0.741176 0.839216 0.094118
0.776471 0.843137 0.082353
0.807843 0.854902 0.086275
0.831373 0.854902 0.078431
0.866667 0.858824 0.086275
0.886275 0.862745 0.094118
0.901961 0.870588 0.105882
0.921569 0.862745 0.113725
0.929412 0.870588 0.121569
0.188235 0.752941 0.235294
0.211765 0.760784 0.239216
0.227451 0.760784 0.227451
0.239216 0.768627 0.227451
0.270588 0.768627 0.207843
0.298039 0.784314 0.203922
0.337255 0.792157 0.200000
0.376471 0.792157 0.172549
0.427451 0.800000 0.164706
0.474510 0.807843 0.156863
0.521569 0.811765 0.141176
0.564706 0.815686 0.129412
0.603922 0.827451 0.133333
0.635294 0.827451 0.121569
0.674510 0.839216 0.109804
0.705882 0.843137 0.098039
0.741176 0.847059 0.098039
0.768627 0.850980 0.094118
0.803922 0.866667 0.101961
0.831373 0.870588 0.105882
0.850980 0.874510 0.098039
0.870588 0.878431 0.105882
0.905882 0.862745 0.125490
0.917647 0.882353 0.141176
0.933333 0.870588 0.149020
0.239216 0.772549 0.239216
0.235294 0.768627 0.235294
0.250980 0.784314 0.227451
0.266667 0.784314 0.215686
0.305882 0.784314 0.215686
0.341176 0.796078 0.211765
0.372549 0.800000 0.200000
0.407843 0.803922 0.184314
0.450980 0.811765 0.172549
0.498039 0.815686 0.160784
0.537255 0.827451 0.149020
0.584314 0.831373 0.137255
0.627451 0.835294 0.129412
0.643137 0.843137 0.137255
0.682353 0.843137 0.129412
0.717647 0.850980 0.125490
0.737255 0.854902 0.125490
0.772549 0.858824 0.125490
0.800000 0.866667 0.121569
0.831373 0.874510 0.129412
0.850980 0.870588 0.125490
0.878431 0.878431 0.149020
0.894118 0.890196 0.152941
0.913725 0.878431 0.176471
0.917647 0.890196 0.200000
0.278431 0.784314 0.219608
0.290196 0.796078 0.231373
0.294118 0.788235 0.227451
0.317647 0.796078 0.227451
0.349020 0.796078 0.219608
0.388235 0.803922 0.215686
0.411765 0.807843 0.196078
0.450980 0.811765 0.188235
0.486275 0.819608 0.176471
0.529412 0.831373 0.180392
0.572549 0.835294 0.176471
0.611765 0.839216 0.164706
0.635294 0.843137 0.152941
0.670588 0.847059 0.145098
0.701961 0.850980 0.141176
0.725490 0.858824 0.145098
0.749020 0.858824 0.149020
0.772549 0.866667 0.152941
0.800000 0.870588 0.149020
0.831373 0.866667 0.156863
0.854902 0.874510 0.164706
0.878431 0.882353 0.176471
0.894118 0.886275 0.184314
0.909804 0.886275 0.203922
0.921569 0.890196 0.219608
0.035294 0.015686 0.039216
0.035294 0.019608 0.023529
0.050980 0.015686 0.019608
0.062745 0.015686 0.015686
0.090196 0.019608 0.003922
0.133333 0.023529 0.011765
0.180392 0.035294 0.003922
0.239216 0.043137 0.000000
0.313725 0.050980 0.015686
0.396078 0.058824 0.007843
0.486275 0.074510 0.000000
0.564706 0.086275 0.003922
0.615686 0.098039 0.015686
0.662745 0.098039 0.003922
0.698039 0.109804 0.011765
0.737255 0.117647 0.019608
0.752941 0.117647 0.019608
0.768627 0.121569 0.011765
0.800000 0.129412 0.019608
0.811765 0.133333 0.015686
0.819608 0.133333 0.011765
0.839216 0.137255 0.011765
0.843137 0.141176 0.011765
0.850980 0.149020 0.023529
0.847059 0.145098 0.015686
0.043137 0.027451 0.031373
0.027451 0.019608 0.023529
0.043137 0.027451 0.023529
0.054902 0.035294 0.019608
0.082353 0.027451 0.015686
0.133333 0.035294 0.007843
0.188235 0.043137 0.011765
0.254902 0.050980 0.007843
0.329412 0.058824 0.000000
0.415686 0.066667 0.003922
0.490196 0.078431 0.000000
0.568627 0.098039 0.003922
0.631373 0.101961 0.015686
0.666667 0.113725 0.007843
0.701961 0.117647 0.000000
0.745098 0.129412 0.007843
0.756863 0.129412 0.003922
0.784314 0.129412 0.003922
0.803922 0.137255 0.007843
0.819608 0.141176 0.007843
0.831373 0.149020 0.011765
0.839216 0.149020 0.003922
0.843137 0.152941 0.000000
0.850980 0.152941 0.011765
0.854902 0.152941 0.023529
0.035294 0.047059 0.019608
0.039216 0.043137 0.011765
0.043137 0.047059 0.023529
0.062745 0.043137 0.019608
0.094118 0.054902 0.015686
0.125490 0.054902 0.007843
0.188235 0.054902 0.007843
0.250980 0.066667 0.000000
0.333333 0.078431 0.007843
0.407843 0.086275 0.003922
0.490196 0.098039 0.007843
0.560784 0.105882 0.007843
0.623529 0.117647 0.003922
0.666667 0.121569 0.000000
0.701961 0.125490 0.000000
0.737255 0.133333 0.000000
0.764706 0.137255 0.000000
0.784314 0.141176 0.000000
0.807843 0.149020 0.003922
0.823529 0.149020 0.000000
0.835294 0.156863 0.000000
0.850980 0.152941 0.003922
0.850980 0.160784 0.000000
0.854902 0.156863 0.007843
0.854902 0.164706 0.011765
0.027451 0.070588 0.007843
0.023529 0.070588 0.023529
0.054902 0.066667 0.031373
0.058824 0.066667 0.023529
0.101961 0.070588 0.019608
0.137255 0.078431 0.003922
0.184314 0.086275 0.000000
0.250980 0.094118 0.000000
0.321569 0.094118 0.000000
0.407843 0.105882 0.003922
0.482353 0.113725 0.011765
0.556863 0.121569 0.003922
0.619608 0.129412 0.011765
0.666667 0.141176 0.003922
0.701961 0.145098 0.003922
0.733333 0.149020 0.000000
0.764706 0.152941 0.000000
0.788235 0.152941 0.000000
0.811765 0.160784 0.003922
0.827451 0.172549 0.000000
0.831373 0.172549 0.000000
0.843137 0.164706 0.000000
0.847059 0.176471 0.000000
0.850980 0.180392 0.011765
0.858824 0.180392 0.015686
0.023529 0.105882 0.039216
0.035294 0.109804 0.031373
0.043137 0.109804 0.035294
0.054902 0.125490 0.039216
0.074510 0.125490 0.023529
0.121569 0.133333 0.019608
0.172549 0.137255 0.015686
0.239216 0.137255 0.007843
0.309804 0.137255 0.000000
0.396078 0.145098 0.003922
0.478431 0.156863 0.007843
0.549020 0.160784 0.000000
0.603922 0.176471 0.007843
0.654902 0.180392 0.003922
0.698039 0.184314 0.003922
0.733333 0.192157 0.007843
0.760784 0.192157 0.007843
0.776471 0.200000 0.000000
0.803922 0.200000 0.000000
0.823529 0.196078 0.000000
0.835294 0.200000 0.007843
0.847059 0.203922 0.003922
0.850980 0.200000 0.000000
0.850980 0.207843 0.000000
0.847059 0.215686 0.011765
0.027451 0.172549 0.050980
0.031373 0.176471 0.047059
0.047059 0.176471 0.054902
0.058824 0.180392 0.054902
0.078431 0.180392 0.043137
0.117647 0.180392 0.039216
0.156863 0.184314 0.023529
0.227451 0.192157 0.023529
0.317647 0.200000 0.003922
0.384314 0.203922 0.000000
0.462745 0.207843 0.000000
0.529412 0.211765 0.000000
0.596078 0.223529 0.003922
0.639216 0.227451 0.000000
0.690196 0.235294 0.000000
0.729412 0.243137 0.007843
0.756863 0.239216 0.000000
0.780392 0.239216 0.000000
0.803922 0.239216 0.000000
0.819608 0.239216 0.003922
0.831373 0.243137 0.003922
0.847059 0.250980 0.003922
0.850980 0.247059 0.003922
0.854902 0.250980 0.015686
0.862745 0.250980 0.011765
0.035294 0.231373 0.086275
0.027451 0.250980 0.090196
0.043137 0.250980 0.086275
0.050980 0.254902 0.066667
0.078431 0.243137 0.062745
0.121569 0.247059 0.050980
0.160784 0.250980 0.039216
0.231373 0.250980 0.031373
0.301961 0.262745 0.023529
0.380392 0.270588 0.015686
0.447059 0.270588 0.003922
0.521569 0.274510 0.000000
0.584314 0.282353 0.000000
0.639216 0.282353 0.003922
0.686275 0.294118 0.000000
0.721569 0.301961 0.000000
0.752941 0.298039 0.000000
0.780392 0.298039 0.000000
0.807843 0.298039 0.003922
0.815686 0.294118 0.000000
0.839216 0.290196 0.000000
0.854902 0.294118 0.000000
0.862745 0.290196 0.000000
0.854902 0.298039 0.007843
0.854902 0.294118 0.019608
0.035294 0.309804 0.105882
0.023529 0.309804 0.094118
0.031373 0.317647 0.101961
0.054902 0.321569 0.098039
0.086275 0.317647 0.090196
0.121569 0.317647 0.078431
0.156863 0.313725 0.066667
0.223529 0.329412 0.050980
0.294118 0.337255 0.031373
0.368627 0.341176 0.023529
0.450980 0.341176 0.011765
0.529412 0.349020 0.011765
0.588235 0.345098 0.003922
0.631373 0.352941 0.000000
0.674510 0.356863 0.000000
0.717647 0.360784 0.003922
0.752941 0.364706 0.000000
0.776471 0.364706 0.003922
0.807843 0.364706 0.003922
0.823529 0.356863 0.000000
0.839216 0.352941 0.000000
0.854902 0.352941 0.003922
0.858824 0.345098 0.000000
0.862745 0.352941 0.015686
0.847059 0.356863 0.003922
0.027451 0.380392 0.137255
0.035294 0.396078 0.141176
0.039216 0.388235 0.121569
0.050980 0.392157 0.125490
0.090196 0.384314 0.113725
0.117647 0.392157 0.109804
0.160784 0.400000 0.098039
0.223529 0.400000 0.082353
0.290196 0.400000 0.058824
0.364706 0.400000 0.035294
0.443137 0.411765 0.027451
0.509804 0.419608 0.011765
0.576471 0.427451 0.007843
0.627451 0.419608 0.003922
0.670588 0.427451 0.000000
0.709804 0.435294 0.000000
0.741176 0.435294 0.007843
0.768627 0.431373 0.003922
0.792157 0.431373 0.003922
0.823529 0.427451 0.003922
0.839216 0.419608 0.003922
0.854902 0.419608 0.007843
0.866667 0.407843 0.003922
0.866667 0.411765 0.015686
0.870588 0.407843 0.023529
0.035294 0.458824 0.164706
0.035294 0.450980 0.160784
0.043137 0.462745 0.156863
0.050980 0.454902 0.145098
0.094118 0.458824 0.141176
0.125490 0.458824 0.125490
0.164706 0.462745 0.109804
0.231373 0.470588 0.098039
0.290196 0.478431 0.078431
0.364706 0.478431 0.054902
0.431373 0.486275 0.039216
0.501961 0.494118 0.027451
0.560784 0.490196 0.003922
0.607843 0.494118 0.000000
0.666667 0.498039 0.000000
0.709804 0.501961 0.000000
0.745098 0.494118 0.000000
0.768627 0.498039 0.000000
0.800000 0.498039 0.000000
0.823529 0.494118 0.003922
0.850980 0.490196 0.007843
0.862745 0.486275 0.011765
0.874510 0.482353 0.011765
0.878431 0.470588 0.019608
0.878431 0.470588 0.035294
0.035294 0.494118 0.184314
0.039216 0.498039 0.180392
0.050980 0.505882 0.180392
0.062745 0.509804 0.176471
0.094118 0.509804 0.164706
0.125490 0.513725 0.149020
0.168627 0.513725 0.121569
0.223529 0.517647 0.105882
0.290196 0.521569 0.090196
