JustShoot/Resources/FujiC200.cube
#Generated with IWLTBAP LUT Generator
#Website: http://luts.iwltbap.com
TITLE "ф╚бл"
#LUT size
LUT_3D_SIZE 25
#LUT data points
0.007843 0.031373 0.015686
0.023529 0.031373 0.011765
0.035294 0.039216 0.019608
0.054902 0.039216 0.027451
0.090196 0.047059 0.031373
0.129412 0.050980 0.047059
0.164706 0.050980 0.058824
0.211765 0.062745 0.058824
0.262745 0.062745 0.050980
0.317647 0.066667 0.058824
0.372549 0.066667 0.050980
0.419608 0.070588 0.047059
0.474510 0.070588 0.035294
0.517647 0.086275 0.035294
0.541176 0.098039 0.027451
0.564706 0.109804 0.011765
0.588235 0.125490 0.007843
0.611765 0.141176 0.007843
0.639216 0.160784 0.015686
0.658824 0.176471 0.015686
0.682353 0.192157 0.019608
0.698039 0.203922 0.007843
0.725490 0.219608 0.003922
0.737255 0.223529 0.011765
0.752941 0.231373 0.007843
0.019608 0.039216 0.023529
0.011765 0.035294 0.019608
0.023529 0.043137 0.019608
0.058824 0.039216 0.023529
0.090196 0.047059 0.031373
0.125490 0.054902 0.047059
0.172549 0.054902 0.047059
0.211765 0.062745 0.058824
0.266667 0.074510 0.058824
0.325490 0.070588 0.062745
0.380392 0.070588 0.054902
0.443137 0.070588 0.047059
0.482353 0.074510 0.031373
0.521569 0.086275 0.019608
0.552941 0.101961 0.019608
0.588235 0.125490 0.023529
0.607843 0.141176 0.015686
0.631373 0.152941 0.007843
0.650980 0.172549 0.011765
0.670588 0.188235 0.023529
0.690196 0.200000 0.019608
0.709804 0.211765 0.011765
0.729412 0.219608 0.015686
0.741176 0.231373 0.003922
0.756863 0.235294 0.003922
0.019608 0.047059 0.015686
0.007843 0.047059 0.011765
0.031373 0.039216 0.019608
0.047059 0.043137 0.027451
0.082353 0.050980 0.039216
0.129412 0.050980 0.047059
0.160784 0.058824 0.054902
0.207843 0.070588 0.054902
0.262745 0.074510 0.058824
0.313725 0.074510 0.070588
0.380392 0.074510 0.066667
0.427451 0.078431 0.062745
0.482353 0.086275 0.047059
0.525490 0.094118 0.027451
0.549020 0.117647 0.027451
0.580392 0.133333 0.027451
0.611765 0.152941 0.015686
0.631373 0.168627 0.019608
0.650980 0.184314 0.015686
0.678431 0.200000 0.007843
0.701961 0.207843 0.007843
0.725490 0.215686 0.011765
0.749020 0.227451 0.007843
0.749020 0.235294 0.015686
0.760784 0.239216 0.007843
0.019608 0.062745 0.039216
0.015686 0.054902 0.023529
0.019608 0.058824 0.023529
0.043137 0.050980 0.031373
0.078431 0.058824 0.035294
0.113725 0.070588 0.047059
0.164706 0.082353 0.062745
0.211765 0.090196 0.078431
0.262745 0.090196 0.078431
0.329412 0.098039 0.074510
0.384314 0.098039 0.070588
0.435294 0.105882 0.062745
0.482353 0.117647 0.047059
0.521569 0.129412 0.035294
0.556863 0.145098 0.031373
0.592157 0.160784 0.015686
0.615686 0.180392 0.011765
0.643137 0.192157 0.015686
0.662745 0.200000 0.003922
0.686275 0.215686 0.007843
0.705882 0.219608 0.007843
0.721569 0.231373 0.003922
0.749020 0.243137 0.015686
0.764706 0.247059 0.003922
0.772549 0.247059 0.007843
0.023529 0.074510 0.047059
0.027451 0.078431 0.050980
0.031373 0.070588 0.039216
0.050980 0.070588 0.043137
0.062745 0.074510 0.039216
0.105882 0.090196 0.054902
0.152941 0.098039 0.062745
0.211765 0.105882 0.070588
0.278431 0.121569 0.074510
0.341176 0.133333 0.078431
0.400000 0.137255 0.074510
0.458824 0.141176 0.058824
0.498039 0.156863 0.050980
0.549020 0.168627 0.039216
0.584314 0.184314 0.027451
0.615686 0.203922 0.027451
0.643137 0.211765 0.019608
0.666667 0.219608 0.007843
0.686275 0.235294 0.011765
0.709804 0.247059 0.007843
0.729412 0.247059 0.011765
0.741176 0.254902 0.003922
0.760784 0.258824 0.003922
0.780392 0.262745 0.007843
0.784314 0.262745 0.007843
0.019608 0.109804 0.070588
0.031373 0.098039 0.058824
0.035294 0.098039 0.058824
0.054902 0.098039 0.066667
0.074510 0.105882 0.062745
0.101961 0.109804 0.066667
0.145098 0.121569 0.074510
0.203922 0.137255 0.074510
0.266667 0.152941 0.082353
0.345098 0.168627 0.086275
0.415686 0.180392 0.078431
0.470588 0.192157 0.066667
0.521569 0.200000 0.043137
0.560784 0.215686 0.027451
0.600000 0.231373 0.019608
0.639216 0.247059 0.011765
0.670588 0.254902 0.019608
0.690196 0.266667 0.015686
0.713725 0.278431 0.007843
0.729412 0.282353 0.003922
0.749020 0.286275 0.003922
0.764706 0.290196 0.003922
0.776471 0.290196 0.000000
0.788235 0.286275 0.007843
0.800000 0.286275 0.011765
0.035294 0.141176 0.105882
0.035294 0.125490 0.094118
0.027451 0.137255 0.082353
0.043137 0.137255 0.074510
0.070588 0.133333 0.090196
0.101961 0.133333 0.082353
0.133333 0.137255 0.066667
0.196078 0.152941 0.074510
0.258824 0.176471 0.070588
0.337255 0.196078 0.070588
0.407843 0.215686 0.058824
0.470588 0.231373 0.047059
0.513725 0.239216 0.035294
0.552941 0.250980 0.031373
0.600000 0.270588 0.027451
0.643137 0.278431 0.007843
0.662745 0.294118 0.011765
0.698039 0.305882 0.007843
0.721569 0.317647 0.007843
0.745098 0.325490 0.003922
0.760784 0.329412 0.000000
0.780392 0.325490 0.000000
0.792157 0.325490 0.000000
0.800000 0.317647 0.015686
0.819608 0.309804 0.003922
0.023529 0.188235 0.133333
0.031373 0.180392 0.129412
0.039216 0.172549 0.109804
0.047059 0.184314 0.105882
0.074510 0.172549 0.090196
0.101961 0.168627 0.094118
0.129412 0.176471 0.082353
0.184314 0.184314 0.074510
0.254902 0.203922 0.070588
0.321569 0.223529 0.062745
0.392157 0.243137 0.050980
0.454902 0.262745 0.035294
0.509804 0.274510 0.031373
0.556863 0.286275 0.023529
0.603922 0.298039 0.007843
0.635294 0.309804 0.003922
0.674510 0.325490 0.003922
0.701961 0.329412 0.000000
0.733333 0.349020 0.007843
0.749020 0.360784 0.003922
0.768627 0.364706 0.000000
0.788235 0.364706 0.007843
0.792157 0.364706 0.000000
0.823529 0.360784 0.007843
0.827451 0.360784 0.000000
0.019608 0.227451 0.149020
0.027451 0.231373 0.141176
0.035294 0.219608 0.149020
0.035294 0.231373 0.125490
0.070588 0.223529 0.117647
0.101961 0.203922 0.098039
0.141176 0.215686 0.090196
0.184314 0.223529 0.086275
0.239216 0.231373 0.070588
0.309804 0.243137 0.062745
0.384314 0.266667 0.062745
0.443137 0.286275 0.047059
0.498039 0.305882 0.035294
0.549020 0.317647 0.011765
0.592157 0.329412 0.011765
0.631373 0.341176 0.007843
0.662745 0.349020 0.007843
0.694118 0.360784 0.007843
0.721569 0.364706 0.000000
0.752941 0.384314 0.007843
0.772549 0.388235 0.000000
0.792157 0.403922 0.003922
0.803922 0.400000 0.000000
0.819608 0.396078 0.007843
0.823529 0.392157 0.011765
0.023529 0.282353 0.172549
0.023529 0.286275 0.164706
0.023529 0.278431 0.160784
0.023529 0.274510 0.141176
0.070588 0.266667 0.129412
0.098039 0.262745 0.113725
0.137255 0.258824 0.098039
0.188235 0.258824 0.094118
0.239216 0.270588 0.078431
0.301961 0.282353 0.066667
0.372549 0.294118 0.054902
0.443137 0.313725 0.035294
0.501961 0.341176 0.031373
0.545098 0.349020 0.015686
0.584314 0.360784 0.007843
0.623529 0.376471 0.011765
0.658824 0.384314 0.007843
0.686275 0.392157 0.000000
0.721569 0.400000 0.000000
0.749020 0.415686 0.000000
0.776471 0.419608 0.000000
0.792157 0.431373 0.003922
0.811765 0.431373 0.011765
0.827451 0.431373 0.007843
0.831373 0.427451 0.015686
0.023529 0.337255 0.184314
0.019608 0.333333 0.180392
0.023529 0.337255 0.184314
0.027451 0.333333 0.176471
0.054902 0.325490 0.141176
0.094118 0.313725 0.121569
0.141176 0.305882 0.109804
0.196078 0.309804 0.098039
0.243137 0.313725 0.086275
0.301961 0.329412 0.066667
0.368627 0.337255 0.050980
0.431373 0.349020 0.039216
0.501961 0.368627 0.027451
0.556863 0.380392 0.023529
0.600000 0.392157 0.015686
0.639216 0.407843 0.007843
0.670588 0.423529 0.007843
0.698039 0.439216 0.000000
0.725490 0.447059 0.000000
0.752941 0.450980 0.000000
0.776471 0.458824 0.000000
0.800000 0.466667 0.007843
0.819608 0.470588 0.007843
0.827451 0.470588 0.011765
0.835294 0.458824 0.015686
0.019608 0.384314 0.211765
0.019608 0.384314 0.207843
0.015686 0.392157 0.211765
0.031373 0.380392 0.192157
0.058824 0.372549 0.164706
0.098039 0.364706 0.125490
0.156863 0.360784 0.117647
0.200000 0.352941 0.098039
0.254902 0.360784 0.082353
0.313725 0.368627 0.066667
0.372549 0.388235 0.058824
0.435294 0.400000 0.043137
0.498039 0.407843 0.031373
0.556863 0.419608 0.011765
0.615686 0.435294 0.000000
0.658824 0.458824 0.007843
0.686275 0.470588 0.011765
0.717647 0.482353 0.003922
0.745098 0.486275 0.003922
0.772549 0.494118 0.000000
0.792157 0.505882 0.003922
0.811765 0.505882 0.011765
0.819608 0.505882 0.015686
0.843137 0.509804 0.019608
0.850980 0.501961 0.047059
0.011765 0.427451 0.239216
0.023529 0.435294 0.215686
0.015686 0.435294 0.215686
0.031373 0.435294 0.215686
0.066667 0.427451 0.180392
0.086275 0.419608 0.156863
0.164706 0.407843 0.113725
0.215686 0.407843 0.098039
0.274510 0.411765 0.090196
0.329412 0.419608 0.074510
0.392157 0.431373 0.050980
0.450980 0.447059 0.031373
0.513725 0.462745 0.023529
0.576471 0.478431 0.023529
0.619608 0.498039 0.007843
0.666667 0.513725 0.007843
0.713725 0.529412 0.011765
0.749020 0.537255 0.011765
0.776471 0.545098 0.011765
0.800000 0.549020 0.015686
0.811765 0.552941 0.011765
0.823529 0.560784 0.011765
0.823529 0.560784 0.011765
0.847059 0.545098 0.035294
0.858824 0.545098 0.054902
0.023529 0.474510 0.258824
0.035294 0.482353 0.247059
0.035294 0.478431 0.235294
0.050980 0.486275 0.227451
0.070588 0.474510 0.196078
0.113725 0.470588 0.160784
0.168627 0.462745 0.137255
0.239216 0.458824 0.109804
0.294118 0.454902 0.078431
0.356863 0.478431 0.074510
0.407843 0.486275 0.050980
0.470588 0.501961 0.035294
0.529412 0.517647 0.011765
0.592157 0.537255 0.023529
0.643137 0.549020 0.015686
0.690196 0.568627 0.011765
0.737255 0.588235 0.019608
0.780392 0.600000 0.019608
0.803922 0.607843 0.015686
0.823529 0.611765 0.015686
0.831373 0.607843 0.011765
0.850980 0.607843 0.031373
0.862745 0.600000 0.039216
0.866667 0.596078 0.050980
0.866667 0.596078 0.050980
0.047059 0.517647 0.278431
0.047059 0.517647 0.266667
0.058824 0.525490 0.258824
0.066667 0.525490 0.247059
0.098039 0.521569 0.223529
0.129412 0.513725 0.180392
0.188235 0.505882 0.141176
0.250980 0.505882 0.113725
0.313725 0.505882 0.078431
0.368627 0.521569 0.070588
0.427451 0.537255 0.054902
0.490196 0.560784 0.035294
0.552941 0.572549 0.015686
0.611765 0.596078 0.011765
0.666667 0.615686 0.011765
0.709804 0.627451 0.019608
0.756863 0.647059 0.015686
0.796078 0.658824 0.015686
0.827451 0.662745 0.027451
0.850980 0.662745 0.027451
0.858824 0.666667 0.019608
0.870588 0.666667 0.035294
0.874510 0.658824 0.050980
0.882353 0.647059 0.074510
0.886275 0.643137 0.074510
0.054902 0.560784 0.309804
0.070588 0.560784 0.294118
0.090196 0.568627 0.274510
0.098039 0.564706 0.250980
0.113725 0.560784 0.227451
0.141176 0.552941 0.192157
0.196078 0.549020 0.164706
0.254902 0.552941 0.129412
0.329412 0.552941 0.094118
0.388235 0.560784 0.074510
0.454902 0.580392 0.050980
0.505882 0.596078 0.039216
0.564706 0.623529 0.031373
0.619608 0.647059 0.027451
0.678431 0.666667 0.019608
0.729412 0.682353 0.007843
0.772549 0.690196 0.027451
0.807843 0.705882 0.027451
0.839216 0.717647 0.019608
0.870588 0.713725 0.027451
0.878431 0.713725 0.039216
0.882353 0.709804 0.054902
0.894118 0.705882 0.078431
0.898039 0.698039 0.094118
0.898039 0.698039 0.105882
0.082353 0.592157 0.317647
0.094118 0.596078 0.301961
0.113725 0.596078 0.282353
0.129412 0.588235 0.270588
0.137255 0.596078 0.239216
0.160784 0.592157 0.219608
0.203922 0.580392 0.188235
0.274510 0.580392 0.149020
0.333333 0.588235 0.117647
0.403922 0.600000 0.086275
0.466667 0.611765 0.062745
0.529412 0.631373 0.047059
0.576471 0.654902 0.031373
0.635294 0.686275 0.031373
0.678431 0.709804 0.027451
0.733333 0.725490 0.023529
0.772549 0.737255 0.027451
0.815686 0.745098 0.023529
0.850980 0.749020 0.023529
0.874510 0.756863 0.035294
0.882353 0.756863 0.047059
0.894118 0.756863 0.058824
0.898039 0.749020 0.070588
0.909804 0.741176 0.094118
0.909804 0.741176 0.137255
0.105882 0.615686 0.325490
0.125490 0.619608 0.329412
0.141176 0.627451 0.290196
0.156863 0.611765 0.278431
0.168627 0.615686 0.270588
0.184314 0.615686 0.243137
0.215686 0.619608 0.200000
0.266667 0.611765 0.168627
0.345098 0.619608 0.133333
0.411765 0.631373 0.109804
0.474510 0.647059 0.078431
0.533333 0.666667 0.054902
0.584314 0.690196 0.043137
0.639216 0.709804 0.027451
0.698039 0.741176 0.035294
0.733333 0.756863 0.027451
0.784314 0.772549 0.015686
0.819608 0.780392 0.019608
0.850980 0.784314 0.023529
0.874510 0.796078 0.039216
0.886275 0.796078 0.050980
0.901961 0.792157 0.058824
0.905882 0.788235 0.098039
0.913725 0.780392 0.121569
0.917647 0.776471 0.156863
0.141176 0.639216 0.360784
0.156863 0.635294 0.341176
0.156863 0.639216 0.325490
0.180392 0.643137 0.298039
0.188235 0.639216 0.282353
0.192157 0.639216 0.262745
0.243137 0.639216 0.239216
0.294118 0.631373 0.196078
0.364706 0.643137 0.172549
0.419608 0.654902 0.137255
0.482353 0.674510 0.109804
0.533333 0.690196 0.070588
0.588235 0.713725 0.050980
0.635294 0.745098 0.027451
0.690196 0.764706 0.027451
0.741176 0.788235 0.019608
0.784314 0.800000 0.019608
0.815686 0.807843 0.027451
0.847059 0.815686 0.035294
0.870588 0.823529 0.047059
0.890196 0.823529 0.062745
0.901961 0.827451 0.082353
0.905882 0.819608 0.109804
0.905882 0.811765 0.152941
0.921569 0.811765 0.188235
0.160784 0.654902 0.368627
0.176471 0.654902 0.368627
0.176471 0.650980 0.341176
0.196078 0.650980 0.325490
0.211765 0.654902 0.309804
0.227451 0.658824 0.286275
0.250980 0.662745 0.258824
0.298039 0.666667 0.235294
0.360784 0.666667 0.200000
0.431373 0.674510 0.176471
0.494118 0.694118 0.149020
0.549020 0.705882 0.113725
0.584314 0.733333 0.086275
0.635294 0.752941 0.062745
0.690196 0.776471 0.035294
0.733333 0.803922 0.027451
0.788235 0.823529 0.027451
0.823529 0.835294 0.031373
0.854902 0.843137 0.047059
0.878431 0.850980 0.058824
0.894118 0.843137 0.090196
0.901961 0.850980 0.105882
0.909804 0.847059 0.137255
0.921569 0.839216 0.176471
0.925490 0.831373 0.235294
0.176471 0.666667 0.407843
0.188235 0.662745 0.384314
0.203922 0.666667 0.368627
0.211765 0.662745 0.356863
0.227451 0.666667 0.337255
0.247059 0.670588 0.333333
0.274510 0.670588 0.294118
0.309804 0.674510 0.258824
0.372549 0.686275 0.243137
0.435294 0.694118 0.211765
0.501961 0.709804 0.192157
0.549020 0.725490 0.156863
0.588235 0.745098 0.121569
0.639216 0.772549 0.090196
0.682353 0.796078 0.066667
0.733333 0.819608 0.050980
0.788235 0.843137 0.031373
0.819608 0.858824 0.043137
0.850980 0.866667 0.050980
0.878431 0.874510 0.082353
0.890196 0.874510 0.109804
0.901961 0.870588 0.137255
0.913725 0.870588 0.172549
0.921569 0.866667 0.196078
0.929412 0.847059 0.278431
0.188235 0.674510 0.400000
0.207843 0.674510 0.407843
0.215686 0.678431 0.388235
0.223529 0.674510 0.380392
0.243137 0.682353 0.352941
0.266667 0.678431 0.349020
0.301961 0.682353 0.317647
0.337255 0.690196 0.305882
0.384314 0.705882 0.282353
0.443137 0.721569 0.258824
0.490196 0.733333 0.235294
0.549020 0.749020 0.211765
0.596078 0.760784 0.180392
0.643137 0.784314 0.149020
0.682353 0.807843 0.129412
0.745098 0.835294 0.082353
0.784314 0.854902 0.086275
0.819608 0.870588 0.078431
0.854902 0.882353 0.098039
0.878431 0.890196 0.125490
0.890196 0.894118 0.152941
0.901961 0.894118 0.184314
0.913725 0.890196 0.207843
0.925490 0.886275 0.258824
0.929412 0.878431 0.329412
0.200000 0.682353 0.427451
0.215686 0.682353 0.431373
0.231373 0.690196 0.423529
0.235294 0.682353 0.407843
0.250980 0.690196 0.392157
0.274510 0.694118 0.372549
0.325490 0.698039 0.368627
0.364706 0.701961 0.345098
0.411765 0.717647 0.321569
0.458824 0.729412 0.301961
0.505882 0.745098 0.278431
0.556863 0.760784 0.262745
0.596078 0.780392 0.239216
0.643137 0.800000 0.219608
0.690196 0.815686 0.184314
0.729412 0.839216 0.172549
0.776471 0.870588 0.149020
0.819608 0.886275 0.141176
0.850980 0.901961 0.152941
0.874510 0.909804 0.176471
0.901961 0.905882 0.203922
0.909804 0.901961 0.223529
0.905882 0.909804 0.270588
0.933333 0.901961 0.333333
0.929412 0.901961 0.384314
0.215686 0.694118 0.462745
0.227451 0.690196 0.450980
0.243137 0.698039 0.450980
0.250980 0.694118 0.435294
0.266667 0.698039 0.419608
0.301961 0.694118 0.411765
0.333333 0.701961 0.396078
0.380392 0.725490 0.384314
0.419608 0.733333 0.352941
0.478431 0.756863 0.341176
0.521569 0.764706 0.329412
0.560784 0.776471 0.317647
0.596078 0.788235 0.298039
0.635294 0.803922 0.282353
0.678431 0.823529 0.266667
0.729412 0.854902 0.231373
0.768627 0.878431 0.203922
0.815686 0.894118 0.207843
0.850980 0.909804 0.215686
0.874510 0.913725 0.231373
0.894118 0.905882 0.243137
0.905882 0.913725 0.282353
0.913725 0.913725 0.333333
0.909804 0.909804 0.400000
0.933333 0.905882 0.447059
0.223529 0.698039 0.490196
0.254902 0.698039 0.478431
0.254902 0.701961 0.466667
0.270588 0.701961 0.462745
0.274510 0.701961 0.447059
0.305882 0.709804 0.439216
0.341176 0.717647 0.435294
0.400000 0.729412 0.427451
0.454902 0.745098 0.411765
0.505882 0.760784 0.400000
0.541176 0.780392 0.376471
0.568627 0.792157 0.349020
0.600000 0.800000 0.325490
0.639216 0.811765 0.325490
0.682353 0.827451 0.321569
0.729412 0.850980 0.309804
0.776471 0.874510 0.270588
0.811765 0.894118 0.239216
0.843137 0.909804 0.250980
0.866667 0.917647 0.262745
0.878431 0.917647 0.301961
0.898039 0.917647 0.345098
0.909804 0.913725 0.403922
0.917647 0.909804 0.466667
0.925490 0.917647 0.490196
0.019608 0.027451 0.007843
0.023529 0.031373 0.011765
0.035294 0.043137 0.031373
0.054902 0.039216 0.035294
0.090196 0.035294 0.031373
0.125490 0.043137 0.039216
0.160784 0.050980 0.047059
0.192157 0.058824 0.050980
0.235294 0.062745 0.066667
0.290196 0.062745 0.054902
0.356863 0.066667 0.054902
0.407843 0.062745 0.047059
0.462745 0.062745 0.043137
0.498039 0.074510 0.035294
0.533333 0.090196 0.027451
0.560784 0.105882 0.015686
0.592157 0.125490 0.000000
0.611765 0.141176 0.003922
0.639216 0.160784 0.007843
0.662745 0.180392 0.015686
0.682353 0.192157 0.011765
0.701961 0.200000 0.007843
0.725490 0.211765 0.007843
0.749020 0.215686 0.011765
0.752941 0.231373 0.011765
0.019608 0.039216 0.015686
0.015686 0.035294 0.019608
0.019608 0.039216 0.023529
0.043137 0.039216 0.023529
0.082353 0.047059 0.027451
0.121569 0.050980 0.050980
0.156863 0.054902 0.050980
0.196078 0.062745 0.058824
0.250980 0.062745 0.054902
0.305882 0.066667 0.054902
0.360784 0.066667 0.047059
0.423529 0.066667 0.047059
0.474510 0.070588 0.043137
0.517647 0.086275 0.035294
0.549020 0.098039 0.023529
0.576471 0.109804 0.015686
0.603922 0.137255 0.019608
0.631373 0.152941 0.007843
0.650980 0.168627 0.007843
0.666667 0.184314 0.019608
0.690196 0.200000 0.011765
0.713725 0.215686 0.015686
0.733333 0.219608 0.007843
0.737255 0.223529 0.011765
0.756863 0.227451 0.000000
0.023529 0.047059 0.031373
0.019608 0.035294 0.039216
0.027451 0.047059 0.031373
0.039216 0.050980 0.023529
0.078431 0.047059 0.035294
0.109804 0.058824 0.035294
0.152941 0.058824 0.050980
0.196078 0.062745 0.054902
0.247059 0.066667 0.066667
0.309804 0.066667 0.070588
0.372549 0.066667 0.058824
0.427451 0.070588 0.050980
0.482353 0.078431 0.043137
0.525490 0.094118 0.035294
0.552941 0.101961 0.019608
0.588235 0.125490 0.023529
0.619608 0.149020 0.015686
0.643137 0.164706 0.011765
0.662745 0.180392 0.015686
0.678431 0.200000 0.007843
0.701961 0.207843 0.007843
0.717647 0.219608 0.011765
0.741176 0.227451 0.015686
0.756863 0.227451 0.007843
0.760784 0.231373 0.003922
0.015686 0.066667 0.027451
0.027451 0.047059 0.031373
0.027451 0.054902 0.023529
0.043137 0.054902 0.027451
0.074510 0.062745 0.035294
0.101961 0.066667 0.039216
0.149020 0.074510 0.058824
0.192157 0.070588 0.062745
0.247059 0.074510 0.070588
0.301961 0.074510 0.066667
0.364706 0.086275 0.062745
0.419608 0.090196 0.050980
0.478431 0.098039 0.035294
0.521569 0.109804 0.035294
0.560784 0.121569 0.027451
0.592157 0.141176 0.019608
0.619608 0.164706 0.019608
0.643137 0.176471 0.011765
0.666667 0.192157 0.007843
0.690196 0.211765 0.011765
0.713725 0.219608 0.019608
0.733333 0.227451 0.003922
0.752941 0.231373 0.000000
0.752941 0.243137 0.000000
0.768627 0.243137 0.003922
0.019608 0.082353 0.043137
0.027451 0.070588 0.047059
0.019608 0.070588 0.035294
0.035294 0.074510 0.039216
0.062745 0.074510 0.039216
0.094118 0.078431 0.043137
0.137255 0.086275 0.062745
0.188235 0.090196 0.074510
0.250980 0.098039 0.070588
0.305882 0.109804 0.074510
0.376471 0.117647 0.070588
0.427451 0.117647 0.058824
0.486275 0.129412 0.054902
0.537255 0.149020 0.035294
0.572549 0.164706 0.027451
0.603922 0.180392 0.027451
0.631373 0.188235 0.015686
0.658824 0.211765 0.015686
0.678431 0.227451 0.011765
0.701961 0.235294 0.007843
0.729412 0.239216 0.011765
0.745098 0.254902 0.003922
0.760784 0.250980 0.007843
0.772549 0.254902 0.003922
0.780392 0.254902 0.015686
0.031373 0.113725 0.078431
0.023529 0.101961 0.058824
0.031373 0.098039 0.066667
0.039216 0.098039 0.070588
0.058824 0.098039 0.062745
0.086275 0.098039 0.062745
0.125490 0.109804 0.066667
0.180392 0.117647 0.066667
0.247059 0.133333 0.078431
0.321569 0.141176 0.078431
0.396078 0.152941 0.070588
0.454902 0.164706 0.066667
0.509804 0.180392 0.047059
0.549020 0.188235 0.027451
0.592157 0.207843 0.023529
0.631373 0.223529 0.015686
0.662745 0.235294 0.011765
0.682353 0.250980 0.011765
0.713725 0.266667 0.019608
0.725490 0.274510 0.011765
0.741176 0.278431 0.003922
0.756863 0.282353 0.003922
0.776471 0.278431 0.007843
0.784314 0.278431 0.011765
0.800000 0.278431 0.007843
0.031373 0.152941 0.094118
0.023529 0.141176 0.101961
0.039216 0.129412 0.090196
0.054902 0.121569 0.082353
0.058824 0.121569 0.082353
0.086275 0.129412 0.074510
0.121569 0.141176 0.062745
0.172549 0.145098 0.074510
0.239216 0.156863 0.074510
0.321569 0.176471 0.074510
0.400000 0.192157 0.070588
0.470588 0.203922 0.058824
0.525490 0.215686 0.047059
0.568627 0.231373 0.031373
0.603922 0.250980 0.015686
0.647059 0.262745 0.015686
0.670588 0.282353 0.015686
0.701961 0.298039 0.003922
0.725490 0.305882 0.000000
0.741176 0.309804 0.000000
0.756863 0.313725 0.000000
0.784314 0.313725 0.007843
0.800000 0.317647 0.015686
0.803922 0.309804 0.007843
0.807843 0.313725 0.015686
0.019608 0.196078 0.117647
0.019608 0.180392 0.109804
0.035294 0.168627 0.113725
0.039216 0.168627 0.101961
0.070588 0.160784 0.090196
0.082353 0.164706 0.090196
0.113725 0.160784 0.082353
0.172549 0.172549 0.078431
0.231373 0.188235 0.070588
0.305882 0.211765 0.070588
0.380392 0.231373 0.054902
0.454902 0.254902 0.047059
0.513725 0.258824 0.039216
0.564706 0.266667 0.023529
0.600000 0.286275 0.015686
0.639216 0.301961 0.007843
0.674510 0.317647 0.007843
0.705882 0.329412 0.000000
0.733333 0.341176 0.007843
0.756863 0.349020 0.007843
0.776471 0.352941 0.000000
0.792157 0.356863 0.007843
0.807843 0.360784 0.000000
0.811765 0.349020 0.007843
0.831373 0.341176 0.019608
0.015686 0.247059 0.160784
0.031373 0.223529 0.141176
0.015686 0.223529 0.152941
0.035294 0.211765 0.129412
0.058824 0.215686 0.113725
0.082353 0.200000 0.105882
0.113725 0.203922 0.094118
0.160784 0.215686 0.086275
0.215686 0.223529 0.078431
0.294118 0.235294 0.066667
0.372549 0.254902 0.058824
0.443137 0.278431 0.043137
0.498039 0.301961 0.031373
0.556863 0.305882 0.015686
0.596078 0.317647 0.011765
0.635294 0.329412 0.007843
0.666667 0.345098 0.007843
0.701961 0.356863 0.007843
0.725490 0.368627 0.003922
0.752941 0.384314 0.000000
0.772549 0.388235 0.000000
0.792157 0.392157 0.007843
0.811765 0.392157 0.007843
0.819608 0.388235 0.015686
0.831373 0.380392 0.023529
0.019608 0.298039 0.180392
0.015686 0.286275 0.176471
0.019608 0.270588 0.164706
0.027451 0.266667 0.145098
0.050980 0.262745 0.137255
0.082353 0.254902 0.117647
0.113725 0.247059 0.101961
0.164706 0.254902 0.090196
0.223529 0.258824 0.074510
0.282353 0.270588 0.062745
0.360784 0.286275 0.058824
0.439216 0.305882 0.054902
0.498039 0.325490 0.039216
0.545098 0.341176 0.015686
0.588235 0.356863 0.003922
0.631373 0.368627 0.011765
0.674510 0.376471 0.007843
0.705882 0.380392 0.003922
0.733333 0.396078 0.000000
0.756863 0.411765 0.000000
0.776471 0.419608 0.000000
0.800000 0.427451 0.003922
0.811765 0.427451 0.000000
0.823529 0.427451 0.011765
0.831373 0.427451 0.015686
0.007843 0.345098 0.200000
0.015686 0.329412 0.192157
0.023529 0.325490 0.192157
0.027451 0.325490 0.176471
0.050980 0.321569 0.149020
0.078431 0.309804 0.129412
0.121569 0.301961 0.117647
0.176471 0.294118 0.098039
0.227451 0.294118 0.078431
