JustShoot/Resources/HarmanPhoenix200.cube
#Generated with IWLTBAP LUT Generator
#Website: http://luts.iwltbap.com
TITLE "ORI"
#LUT size
LUT_3D_SIZE 9
#LUT data points
0.054902 0.011765 0.003922
0.090196 0.023529 0.000000
0.235294 0.039216 0.003922
0.521569 0.082353 0.000000
0.741176 0.117647 0.000000
0.831373 0.129412 0.003922
0.843137 0.137255 0.000000
0.858824 0.145098 0.000000
0.854902 0.137255 0.003922
0.050980 0.031373 0.007843
0.090196 0.035294 0.000000
0.254902 0.070588 0.000000
0.537255 0.105882 0.000000
0.741176 0.137255 0.000000
0.815686 0.141176 0.000000
0.843137 0.145098 0.003922
0.850980 0.145098 0.000000
0.858824 0.141176 0.007843
0.058824 0.176471 0.043137
0.098039 0.176471 0.039216
0.239216 0.207843 0.027451
0.521569 0.219608 0.000000
0.737255 0.231373 0.003922
0.823529 0.215686 0.000000
0.854902 0.211765 0.003922
0.858824 0.211765 0.000000
0.870588 0.203922 0.003922
0.101961 0.509804 0.176471
0.145098 0.521569 0.168627
0.286275 0.545098 0.129412
0.549020 0.552941 0.054902
0.764706 0.545098 0.007843
0.835294 0.501961 0.000000
0.862745 0.450980 0.000000
0.874510 0.423529 0.003922
0.874510 0.407843 0.000000
0.152941 0.698039 0.247059
0.203922 0.709804 0.215686
0.325490 0.721569 0.172549
0.584314 0.772549 0.098039
0.796078 0.796078 0.035294
0.882353 0.792157 0.007843
0.917647 0.776471 0.007843
0.917647 0.741176 0.000000
0.925490 0.701961 0.007843
0.196078 0.741176 0.243137
0.239216 0.752941 0.235294
0.376471 0.768627 0.180392
0.603922 0.819608 0.109804
0.800000 0.870588 0.054902
0.898039 0.890196 0.019608
0.945098 0.886275 0.011765
0.952941 0.874510 0.015686
0.960784 0.866667 0.035294
0.266667 0.752941 0.235294
0.305882 0.772549 0.215686
0.427451 0.796078 0.172549
0.619608 0.839216 0.105882
0.796078 0.882353 0.062745
0.901961 0.909804 0.035294
0.945098 0.913725 0.039216
0.968627 0.917647 0.062745
0.976471 0.917647 0.105882
0.349020 0.788235 0.247059
0.388235 0.803922 0.223529
0.501961 0.823529 0.184314
0.658824 0.850980 0.156863
0.803922 0.894118 0.133333
0.898039 0.913725 0.133333
0.937255 0.925490 0.137255
0.964706 0.933333 0.168627
0.980392 0.925490 0.203922
0.454902 0.811765 0.305882
0.482353 0.819608 0.290196
0.572549 0.843137 0.282353
0.698039 0.870588 0.254902
0.803922 0.901961 0.250980
0.890196 0.917647 0.258824
0.937255 0.925490 0.278431
0.960784 0.925490 0.309804
0.960784 0.933333 0.345098
0.070588 0.019608 0.047059
0.101961 0.023529 0.031373
0.250980 0.043137 0.019608
0.513725 0.086275 0.007843
0.729412 0.109804 0.003922
0.815686 0.133333 0.000000
0.843137 0.137255 0.000000
0.854902 0.141176 0.000000
0.858824 0.145098 0.000000
0.070588 0.035294 0.047059
0.105882 0.043137 0.043137
0.250980 0.066667 0.027451
0.525490 0.101961 0.000000
0.721569 0.133333 0.000000
0.815686 0.141176 0.000000
0.835294 0.137255 0.000000
0.850980 0.145098 0.000000
0.858824 0.141176 0.007843
0.062745 0.149020 0.066667
0.113725 0.168627 0.070588
0.243137 0.180392 0.047059
0.525490 0.211765 0.011765
0.729412 0.215686 0.000000
0.815686 0.203922 0.003922
0.843137 0.196078 0.007843
0.862745 0.196078 0.000000
0.858824 0.200000 0.015686
0.098039 0.466667 0.168627
0.129412 0.490196 0.156863
0.254902 0.490196 0.113725
0.521569 0.509804 0.050980
0.725490 0.498039 0.003922
0.831373 0.466667 0.000000
0.854902 0.431373 0.003922
0.866667 0.411765 0.007843
0.874510 0.400000 0.035294
0.149020 0.674510 0.223529
0.168627 0.686275 0.215686
0.313725 0.705882 0.176471
0.564706 0.752941 0.109804
0.768627 0.776471 0.035294
0.874510 0.760784 0.015686
0.901961 0.741176 0.011765
0.909804 0.717647 0.019608
0.913725 0.705882 0.054902
0.188235 0.733333 0.243137
0.231373 0.745098 0.235294
0.356863 0.772549 0.184314
0.568627 0.815686 0.113725
0.784314 0.858824 0.058824
0.905882 0.870588 0.027451
0.937255 0.878431 0.035294
0.952941 0.874510 0.054902
0.964706 0.862745 0.086275
0.247059 0.764706 0.235294
0.301961 0.760784 0.239216
0.407843 0.796078 0.196078
0.607843 0.839216 0.133333
0.788235 0.886275 0.090196
0.890196 0.901961 0.074510
0.941176 0.921569 0.086275
0.960784 0.917647 0.117647
0.976471 0.909804 0.156863
0.349020 0.784314 0.270588
0.396078 0.803922 0.266667
0.486275 0.815686 0.227451
0.662745 0.854902 0.192157
0.800000 0.886275 0.156863
0.890196 0.909804 0.164706
0.937255 0.921569 0.188235
0.968627 0.925490 0.219608
0.968627 0.925490 0.258824
0.447059 0.815686 0.337255
0.486275 0.823529 0.333333
0.568627 0.843137 0.321569
0.698039 0.874510 0.305882
0.800000 0.898039 0.298039
0.890196 0.917647 0.298039
0.929412 0.933333 0.329412
0.952941 0.929412 0.356863
0.960784 0.929412 0.400000
0.105882 0.011765 0.200000
0.129412 0.027451 0.211765
0.270588 0.031373 0.152941
0.501961 0.062745 0.117647
0.717647 0.094118 0.078431
0.803922 0.109804 0.070588
0.839216 0.117647 0.070588
0.843137 0.121569 0.082353
0.866667 0.121569 0.129412
0.101961 0.043137 0.196078
0.145098 0.047059 0.200000
0.266667 0.058824 0.168627
0.509804 0.090196 0.121569
0.701961 0.105882 0.086275
0.807843 0.117647 0.066667
0.839216 0.117647 0.070588
0.847059 0.125490 0.086275
0.862745 0.129412 0.101961
0.090196 0.160784 0.200000
0.105882 0.172549 0.203922
0.247059 0.184314 0.184314
0.509804 0.188235 0.145098
0.709804 0.192157 0.101961
0.811765 0.184314 0.098039
0.839216 0.180392 0.078431
0.847059 0.176471 0.098039
0.854902 0.176471 0.113725
0.101961 0.447059 0.250980
0.117647 0.447059 0.250980
0.258824 0.470588 0.227451
0.509804 0.462745 0.164706
0.721569 0.462745 0.125490
0.819608 0.431373 0.105882
0.854902 0.400000 0.113725
0.866667 0.384314 0.121569
0.870588 0.364706 0.141176
0.133333 0.666667 0.274510
0.172549 0.678431 0.286275
0.294118 0.694118 0.262745
0.529412 0.737255 0.188235
0.749020 0.749020 0.137255
0.843137 0.741176 0.125490
0.894118 0.717647 0.125490
0.909804 0.690196 0.152941
0.909804 0.670588 0.180392
0.180392 0.729412 0.301961
0.215686 0.741176 0.298039
0.349020 0.768627 0.258824
0.560784 0.807843 0.207843
0.772549 0.850980 0.156863
0.870588 0.870588 0.149020
0.917647 0.870588 0.156863
0.945098 0.858824 0.184314
0.949020 0.850980 0.243137
0.247059 0.760784 0.313725
0.290196 0.772549 0.313725
0.396078 0.796078 0.294118
0.592157 0.839216 0.239216
0.768627 0.878431 0.211765
0.882353 0.901961 0.203922
0.929412 0.909804 0.211765
0.949020 0.917647 0.254902
0.964706 0.909804 0.290196
0.337255 0.792157 0.372549
0.368627 0.807843 0.368627
0.482353 0.827451 0.349020
0.643137 0.862745 0.333333
0.788235 0.890196 0.298039
0.886275 0.909804 0.321569
0.925490 0.921569 0.325490
0.960784 0.917647 0.360784
0.960784 0.921569 0.396078
0.443137 0.823529 0.450980
0.462745 0.839216 0.458824
0.564706 0.850980 0.439216
0.686275 0.874510 0.435294
0.784314 0.901961 0.415686
0.882353 0.909804 0.454902
0.929412 0.925490 0.462745
0.952941 0.929412 0.482353
0.964706 0.929412 0.517647
0.156863 0.043137 0.474510
0.192157 0.043137 0.478431
0.301961 0.039216 0.443137
0.505882 0.050980 0.384314
0.701961 0.062745 0.325490
0.796078 0.074510 0.317647
0.831373 0.082353 0.286275
0.850980 0.090196 0.294118
0.847059 0.090196 0.305882
0.156863 0.054902 0.474510
0.180392 0.070588 0.462745
0.298039 0.062745 0.447059
0.509804 0.066667 0.388235
0.698039 0.070588 0.345098
0.796078 0.066667 0.305882
0.839216 0.082353 0.298039
0.854902 0.082353 0.301961
0.850980 0.090196 0.298039
0.133333 0.184314 0.494118
0.160784 0.168627 0.462745
0.266667 0.180392 0.466667
0.482353 0.168627 0.415686
0.698039 0.160784 0.364706
0.792157 0.141176 0.321569
0.835294 0.141176 0.305882
0.850980 0.137255 0.325490
0.847059 0.141176 0.329412
0.090196 0.439216 0.509804
0.125490 0.447059 0.501961
0.247059 0.443137 0.486275
0.478431 0.435294 0.450980
0.698039 0.407843 0.411765
0.796078 0.384314 0.372549
0.839216 0.352941 0.360784
0.858824 0.337255 0.356863
0.862745 0.329412 0.368627
0.098039 0.670588 0.529412
0.145098 0.674510 0.517647
0.250980 0.690196 0.509804
0.505882 0.709804 0.466667
0.705882 0.705882 0.423529
0.831373 0.698039 0.415686
0.874510 0.658824 0.396078
0.882353 0.647059 0.403922
0.894118 0.639216 0.427451
0.145098 0.752941 0.525490
0.188235 0.760784 0.513725
0.309804 0.780392 0.501961
0.517647 0.807843 0.474510
0.733333 0.831373 0.423529
0.854902 0.850980 0.427451
0.917647 0.843137 0.431373
0.925490 0.839216 0.443137
0.929412 0.823529 0.466667
0.215686 0.788235 0.533333
0.266667 0.796078 0.533333
0.376471 0.811765 0.513725
0.564706 0.843137 0.482353
0.752941 0.882353 0.474510
0.862745 0.894118 0.458824
0.917647 0.901961 0.482353
0.945098 0.898039 0.505882
0.952941 0.905882 0.513725
0.305882 0.815686 0.572549
0.360784 0.815686 0.560784
0.466667 0.850980 0.564706
0.615686 0.862745 0.545098
0.764706 0.894118 0.545098
0.866667 0.909804 0.541176
0.921569 0.917647 0.552941
0.949020 0.929412 0.572549
0.952941 0.929412 0.600000
0.423529 0.850980 0.623529
0.462745 0.850980 0.635294
0.549020 0.866667 0.635294
0.670588 0.886275 0.619608
0.784314 0.898039 0.635294
0.874510 0.921569 0.623529
0.921569 0.933333 0.631373
0.949020 0.933333 0.654902
0.960784 0.929412 0.674510
0.203922 0.082353 0.631373
0.227451 0.082353 0.639216
0.317647 0.074510 0.603922
0.501961 0.058824 0.584314
0.690196 0.050980 0.556863
0.803922 0.050980 0.529412
0.839216 0.058824 0.517647
0.858824 0.062745 0.513725
0.858824 0.062745 0.513725
0.203922 0.113725 0.639216
0.231373 0.105882 0.635294
0.313725 0.101961 0.639216
0.501961 0.082353 0.588235
0.698039 0.066667 0.572549
0.792157 0.054902 0.529412
0.835294 0.062745 0.517647
0.858824 0.062745 0.521569
0.874510 0.062745 0.525490
0.164706 0.211765 0.674510
0.207843 0.211765 0.666667
0.301961 0.207843 0.647059
0.490196 0.176471 0.619608
0.694118 0.160784 0.584314
0.796078 0.129412 0.556863
0.835294 0.125490 0.545098
0.862745 0.117647 0.533333
0.874510 0.125490 0.541176
0.129412 0.439216 0.733333
0.149020 0.450980 0.717647
0.254902 0.439216 0.705882
0.466667 0.423529 0.682353
0.670588 0.388235 0.647059
0.792157 0.364706 0.619608
0.850980 0.325490 0.603922
0.862745 0.317647 0.584314
0.862745 0.309804 0.580392
0.082353 0.686275 0.788235
0.129412 0.686275 0.764706
0.247059 0.682353 0.749020
0.462745 0.690196 0.733333
0.686275 0.690196 0.705882
0.811765 0.654902 0.686275
0.870588 0.635294 0.666667
0.890196 0.615686 0.658824
0.901961 0.603922 0.654902
0.133333 0.784314 0.784314
0.168627 0.792157 0.776471
0.286275 0.796078 0.756863
0.486275 0.811765 0.741176
0.701961 0.831373 0.717647
0.831373 0.827451 0.717647
0.894118 0.827451 0.709804
0.917647 0.811765 0.698039
0.929412 0.807843 0.725490
0.203922 0.823529 0.764706
0.247059 0.827451 0.772549
0.356863 0.839216 0.756863
0.549020 0.866667 0.741176
0.737255 0.886275 0.741176
0.847059 0.898039 0.725490
0.913725 0.901961 0.733333
0.949020 0.901961 0.752941
0.945098 0.890196 0.745098
0.298039 0.850980 0.776471
0.345098 0.850980 0.764706
0.462745 0.862745 0.768627
0.615686 0.886275 0.764706
0.760784 0.901961 0.752941
0.854902 0.913725 0.752941
0.913725 0.925490 0.756863
0.945098 0.933333 0.772549
0.956863 0.925490 0.772549
0.419608 0.862745 0.784314
0.458824 0.874510 0.788235
0.549020 0.886275 0.788235
0.678431 0.901961 0.776471
0.776471 0.913725 0.784314
0.862745 0.925490 0.780392
0.917647 0.933333 0.796078
0.949020 0.937255 0.800000
0.952941 0.941176 0.803922
0.219608 0.133333 0.701961
0.239216 0.129412 0.705882
0.317647 0.121569 0.698039
0.490196 0.101961 0.670588
0.666667 0.078431 0.654902
0.780392 0.058824 0.631373
0.843137 0.050980 0.631373
0.858824 0.062745 0.627451
0.874510 0.062745 0.627451
0.223529 0.152941 0.717647
0.243137 0.156863 0.717647
0.317647 0.149020 0.705882
0.494118 0.129412 0.678431
0.666667 0.105882 0.658824
0.788235 0.086275 0.647059
0.835294 0.078431 0.639216
0.862745 0.082353 0.639216
0.882353 0.078431 0.631373
0.176471 0.262745 0.741176
0.215686 0.258824 0.745098
0.301961 0.243137 0.733333
0.466667 0.231373 0.717647
0.666667 0.203922 0.686275
0.792157 0.168627 0.674510
0.839216 0.160784 0.662745
0.854902 0.164706 0.662745
0.874510 0.168627 0.650980
0.137255 0.454902 0.803922
0.168627 0.458824 0.800000
0.270588 0.450980 0.788235
0.462745 0.431373 0.764706
0.654902 0.411765 0.749020
0.772549 0.360784 0.721569
0.850980 0.341176 0.717647
0.866667 0.337255 0.709804
0.878431 0.329412 0.705882
0.109804 0.694118 0.862745
0.152941 0.682353 0.866667
0.254902 0.682353 0.850980
0.443137 0.678431 0.823529
0.662745 0.670588 0.819608
0.788235 0.643137 0.803922
0.854902 0.623529 0.796078
0.890196 0.603922 0.784314
0.898039 0.592157 0.788235
0.137255 0.800000 0.890196
0.180392 0.792157 0.882353
0.294118 0.807843 0.878431
0.486275 0.811765 0.866667
0.686275 0.819608 0.854902
0.815686 0.815686 0.847059
0.890196 0.811765 0.847059
0.925490 0.800000 0.843137
0.921569 0.792157 0.827451
0.211765 0.850980 0.878431
0.266667 0.847059 0.886275
0.368627 0.854902 0.886275
0.552941 0.870588 0.874510
0.709804 0.886275 0.874510
0.847059 0.898039 0.870588
0.898039 0.898039 0.858824
0.925490 0.882353 0.866667
0.941176 0.886275 0.874510
0.325490 0.862745 0.886275
0.356863 0.874510 0.890196
0.462745 0.886275 0.886275
0.603922 0.898039 0.878431
0.749020 0.913725 0.874510
0.843137 0.921569 0.874510
0.909804 0.925490 0.870588
0.941176 0.933333 0.882353
0.960784 0.929412 0.878431
0.435294 0.882353 0.886275
0.466667 0.894118 0.882353
0.560784 0.898039 0.886275
0.674510 0.913725 0.882353
0.780392 0.925490 0.894118
0.862745 0.925490 0.882353
0.921569 0.937255 0.882353
0.949020 0.941176 0.890196
0.964706 0.941176 0.894118
0.223529 0.196078 0.752941
0.243137 0.200000 0.752941
0.313725 0.184314 0.737255
0.462745 0.176471 0.729412
0.639216 0.137255 0.705882
0.768627 0.125490 0.705882
0.839216 0.105882 0.690196
0.862745 0.109804 0.690196
0.870588 0.117647 0.686275
0.211765 0.223529 0.776471
0.250980 0.227451 0.760784
0.313725 0.223529 0.749020
0.470588 0.207843 0.725490
0.639216 0.184314 0.713725
0.776471 0.160784 0.705882
0.831373 0.145098 0.698039
0.858824 0.141176 0.705882
0.862745 0.145098 0.694118
0.188235 0.329412 0.800000
0.227451 0.325490 0.792157
0.298039 0.317647 0.776471
0.458824 0.298039 0.768627
0.647059 0.274510 0.745098
0.764706 0.243137 0.733333
0.835294 0.227451 0.729412
0.862745 0.223529 0.729412
0.878431 0.227451 0.721569
0.156863 0.494118 0.835294
0.184314 0.498039 0.839216
0.274510 0.490196 0.843137
0.447059 0.478431 0.811765
0.631373 0.458824 0.800000
0.764706 0.427451 0.784314
0.835294 0.403922 0.776471
0.870588 0.396078 0.776471
0.882353 0.388235 0.768627
0.145098 0.674510 0.890196
0.172549 0.678431 0.894118
0.274510 0.686275 0.874510
0.466667 0.674510 0.870588
0.654902 0.670588 0.854902
0.784314 0.658824 0.854902
0.854902 0.623529 0.843137
0.886275 0.615686 0.831373
0.901961 0.607843 0.839216
0.180392 0.784314 0.925490
0.211765 0.796078 0.925490
0.313725 0.796078 0.917647
0.486275 0.803922 0.909804
0.670588 0.811765 0.898039
0.807843 0.815686 0.898039
0.878431 0.807843 0.901961
0.913725 0.796078 0.890196
0.933333 0.792157 0.894118
0.258824 0.843137 0.937255
0.278431 0.854902 0.925490
0.380392 0.854902 0.921569
0.549020 0.870588 0.917647
0.709804 0.886275 0.909804
0.827451 0.886275 0.913725
0.894118 0.890196 0.913725
0.925490 0.886275 0.921569
0.945098 0.886275 0.913725
0.356863 0.874510 0.933333
0.396078 0.882353 0.929412
0.482353 0.886275 0.913725
0.615686 0.901961 0.925490
0.752941 0.913725 0.921569
0.843137 0.921569 0.925490
0.913725 0.917647 0.925490
0.929412 0.921569 0.925490
0.960784 0.921569 0.913725
0.454902 0.890196 0.925490
0.490196 0.894118 0.929412
0.576471 0.901961 0.925490
0.678431 0.917647 0.929412
0.776471 0.925490 0.929412
0.850980 0.937255 0.925490
0.917647 0.941176 0.933333
0.941176 0.941176 0.933333
0.956863 0.941176 0.929412
0.215686 0.298039 0.796078
0.243137 0.298039 0.788235
0.313725 0.290196 0.776471
0.458824 0.278431 0.768627
0.627451 0.247059 0.752941
0.752941 0.227451 0.741176
0.827451 0.223529 0.749020
0.850980 0.215686 0.745098
0.874510 0.215686 0.745098
0.211765 0.329412 0.807843
0.231373 0.337255 0.796078
0.313725 0.321569 0.796078
0.447059 0.309804 0.772549
0.619608 0.290196 0.764706
0.752941 0.262745 0.756863
0.827451 0.254902 0.752941
0.850980 0.243137 0.752941
0.870588 0.247059 0.749020
0.192157 0.415686 0.827451
0.215686 0.419608 0.819608
0.290196 0.415686 0.811765
0.447059 0.396078 0.807843
0.635294 0.376471 0.792157
0.745098 0.356863 0.784314
0.823529 0.337255 0.776471
0.866667 0.329412 0.776471
0.882353 0.325490 0.788235
0.172549 0.552941 0.854902
0.196078 0.556863 0.858824
0.290196 0.545098 0.858824
0.458824 0.533333 0.835294
0.623529 0.529412 0.835294
0.760784 0.505882 0.827451
0.831373 0.486275 0.823529
0.862745 0.474510 0.827451
0.882353 0.474510 0.823529
0.180392 0.686275 0.901961
0.207843 0.690196 0.913725
0.301961 0.694118 0.898039
0.458824 0.698039 0.882353
0.635294 0.690196 0.882353
0.772549 0.682353 0.886275
0.854902 0.662745 0.882353
0.890196 0.658824 0.878431
0.901961 0.654902 0.878431
0.215686 0.792157 0.925490
0.247059 0.788235 0.929412
0.349020 0.796078 0.929412
0.505882 0.807843 0.925490
0.674510 0.815686 0.917647
0.792157 0.807843 0.921569
0.866667 0.807843 0.921569
0.901961 0.800000 0.913725
0.925490 0.792157 0.929412
0.294118 0.843137 0.933333
0.333333 0.843137 0.937255
0.415686 0.854902 0.941176
0.560784 0.862745 0.933333
0.701961 0.882353 0.941176
0.815686 0.886275 0.933333
0.882353 0.882353 0.929412
0.921569 0.878431 0.933333
0.941176 0.874510 0.937255
0.403922 0.878431 0.945098
0.427451 0.886275 0.952941
0.498039 0.890196 0.949020
0.627451 0.894118 0.937255
0.749020 0.905882 0.937255
0.831373 0.921569 0.952941
0.890196 0.917647 0.949020
0.933333 0.921569 0.949020
0.956863 0.917647 0.949020
0.501961 0.894118 0.952941
0.521569 0.898039 0.952941
0.600000 0.905882 0.952941
0.682353 0.921569 0.941176
0.784314 0.921569 0.945098
0.854902 0.929412 0.945098
0.901961 0.933333 0.945098
0.933333 0.937255 0.952941
0.956863 0.937255 0.952941
0.211765 0.411765 0.831373
0.239216 0.411765 0.823529
0.317647 0.407843 0.823529
0.450980 0.400000 0.811765
0.607843 0.376471 0.792157
0.741176 0.356863 0.784314
0.819608 0.345098 0.796078
0.854902 0.333333 0.784314
0.862745 0.352941 0.780392
0.207843 0.439216 0.831373
0.239216 0.443137 0.839216
0.313725 0.439216 0.835294
0.458824 0.427451 0.815686
0.607843 0.403922 0.800000
0.741176 0.396078 0.803922
0.815686 0.380392 0.792157
0.854902 0.372549 0.788235
0.862745 0.368627 0.788235
0.207843 0.509804 0.862745
0.239216 0.501961 0.850980
0.317647 0.505882 0.839216
0.462745 0.490196 0.843137
0.623529 0.482353 0.827451
0.752941 0.466667 0.819608
0.823529 0.450980 0.819608
0.858824 0.439216 0.815686
0.882353 0.447059 0.819608
0.207843 0.615686 0.901961
0.231373 0.611765 0.878431
0.317647 0.611765 0.878431
0.466667 0.603922 0.870588
0.635294 0.600000 0.862745
0.752941 0.584314 0.854902
0.831373 0.572549 0.854902
0.866667 0.560784 0.854902
0.886275 0.564706 0.854902
0.215686 0.717647 0.909804
0.262745 0.709804 0.921569
0.345098 0.717647 0.905882
0.494118 0.713725 0.898039
0.654902 0.709804 0.894118
0.772549 0.709804 0.894118
0.847059 0.701961 0.901961
0.886275 0.698039 0.894118
0.909804 0.686275 0.886275
0.270588 0.796078 0.941176
0.294118 0.796078 0.933333
0.384314 0.803922 0.929412
0.529412 0.807843 0.925490
0.678431 0.807843 0.929412
0.788235 0.807843 0.921569
0.858824 0.807843 0.917647
0.905882 0.807843 0.925490
0.913725 0.796078 0.929412
0.352941 0.843137 0.952941
0.380392 0.850980 0.949020
0.466667 0.850980 0.949020
0.584314 0.862745 0.949020
0.709804 0.870588 0.941176
0.815686 0.878431 0.941176
0.878431 0.882353 0.952941
0.913725 0.878431 0.945098
0.937255 0.882353 0.949020
0.435294 0.874510 0.952941
0.454902 0.886275 0.952941
0.545098 0.886275 0.960784
0.635294 0.894118 0.949020
0.752941 0.909804 0.949020
0.835294 0.913725 0.956863
0.898039 0.913725 0.960784
0.937255 0.913725 0.960784
0.949020 0.921569 0.949020
0.537255 0.898039 0.956863
0.549020 0.901961 0.945098
0.619608 0.909804 0.952941
0.694118 0.917647 0.952941
0.776471 0.921569 0.956863
0.850980 0.925490 0.952941
0.901961 0.929412 0.960784
0.933333 0.933333 0.964706
0.952941 0.933333 0.960784
