JustShoot/Resources/HarmanPhoenix200.cube
#Generated with IWLTBAP LUT Generator
#Website: http://luts.iwltbap.com
TITLE "ORI"
#LUT size
LUT_3D_SIZE 25
#LUT data points
0.054902 0.011765 0.003922
0.062745 0.019608 0.003922
0.078431 0.019608 0.000000
0.090196 0.023529 0.000000
0.121569 0.031373 0.000000
0.172549 0.039216 0.003922
0.235294 0.039216 0.003922
0.321569 0.047059 0.000000
0.427451 0.070588 0.000000
0.521569 0.082353 0.000000
0.607843 0.098039 0.000000
0.686275 0.105882 0.000000
0.741176 0.117647 0.000000
0.776471 0.121569 0.000000
0.807843 0.121569 0.000000
0.831373 0.129412 0.003922
0.831373 0.141176 0.000000
0.843137 0.145098 0.003922
0.843137 0.137255 0.000000
0.847059 0.141176 0.000000
0.850980 0.145098 0.000000
0.858824 0.145098 0.000000
0.862745 0.149020 0.003922
0.858824 0.145098 0.000000
0.854902 0.137255 0.003922
0.050980 0.023529 0.000000
0.058824 0.019608 0.011765
0.078431 0.023529 0.011765
0.094118 0.027451 0.000000
0.129412 0.031373 0.003922
0.172549 0.047059 0.003922
0.247059 0.043137 0.000000
0.317647 0.058824 0.000000
0.415686 0.074510 0.000000
0.521569 0.090196 0.000000
0.611765 0.101961 0.000000
0.690196 0.109804 0.000000
0.737255 0.121569 0.000000
0.768627 0.121569 0.003922
0.800000 0.133333 0.003922
0.819608 0.137255 0.003922
0.831373 0.137255 0.003922
0.843137 0.145098 0.003922
0.854902 0.137255 0.003922
0.854902 0.141176 0.000000
0.858824 0.145098 0.000000
0.862745 0.149020 0.003922
0.858824 0.145098 0.000000
0.858824 0.145098 0.000000
0.858824 0.137255 0.003922
0.050980 0.035294 0.000000
0.066667 0.023529 0.007843
0.070588 0.031373 0.000000
0.090196 0.031373 0.011765
0.137255 0.043137 0.003922
0.180392 0.047059 0.000000
0.243137 0.054902 0.000000
0.329412 0.066667 0.000000
0.423529 0.086275 0.000000
0.529412 0.098039 0.000000
0.611765 0.109804 0.000000
0.682353 0.121569 0.003922
0.745098 0.129412 0.007843
0.772549 0.125490 0.000000
0.796078 0.133333 0.003922
0.815686 0.137255 0.003922
0.831373 0.137255 0.003922
0.835294 0.137255 0.000000
0.847059 0.141176 0.000000
0.854902 0.141176 0.000000
0.858824 0.145098 0.000000
0.862745 0.141176 0.000000
0.862745 0.141176 0.000000
0.862745 0.149020 0.003922
0.858824 0.137255 0.000000
0.050980 0.031373 0.007843
0.062745 0.035294 0.003922
0.070588 0.039216 0.000000
0.090196 0.035294 0.000000
0.129412 0.050980 0.007843
0.184314 0.058824 0.000000
0.254902 0.070588 0.000000
0.341176 0.082353 0.000000
0.439216 0.094118 0.007843
0.537255 0.105882 0.000000
0.615686 0.113725 0.000000
0.686275 0.125490 0.000000
0.741176 0.137255 0.000000
0.764706 0.137255 0.000000
0.796078 0.141176 0.000000
0.815686 0.141176 0.000000
0.823529 0.141176 0.003922
0.839216 0.137255 0.007843
0.843137 0.145098 0.003922
0.843137 0.145098 0.003922
0.850980 0.145098 0.007843
0.850980 0.145098 0.000000
0.858824 0.145098 0.000000
0.866667 0.145098 0.003922
0.858824 0.141176 0.007843
0.058824 0.062745 0.007843
0.062745 0.066667 0.011765
0.082353 0.066667 0.019608
0.098039 0.070588 0.007843
0.137255 0.078431 0.003922
0.184314 0.086275 0.000000
0.250980 0.094118 0.000000
0.341176 0.105882 0.003922
0.435294 0.117647 0.000000
0.533333 0.129412 0.000000
0.619608 0.137255 0.003922
0.682353 0.141176 0.000000
0.733333 0.160784 0.000000
0.772549 0.160784 0.000000
0.800000 0.160784 0.000000
0.815686 0.156863 0.003922
0.827451 0.152941 0.003922
0.835294 0.156863 0.000000
0.847059 0.156863 0.000000
0.854902 0.160784 0.000000
0.854902 0.160784 0.000000
0.854902 0.160784 0.000000
0.858824 0.156863 0.000000
0.858824 0.156863 0.000000
0.858824 0.156863 0.000000
0.058824 0.101961 0.035294
0.070588 0.105882 0.031373
0.086275 0.105882 0.019608
0.098039 0.113725 0.023529
0.133333 0.117647 0.011765
0.184314 0.125490 0.003922
0.250980 0.137255 0.003922
0.341176 0.152941 0.000000
0.427451 0.156863 0.003922
0.529412 0.172549 0.000000
0.615686 0.180392 0.000000
0.694118 0.180392 0.007843
0.745098 0.188235 0.007843
0.772549 0.192157 0.003922
0.800000 0.188235 0.000000
0.807843 0.188235 0.000000
0.835294 0.188235 0.007843
0.843137 0.184314 0.007843
0.847059 0.176471 0.003922
0.854902 0.180392 0.000000
0.858824 0.184314 0.003922
0.866667 0.180392 0.003922
0.862745 0.176471 0.000000
0.858824 0.172549 0.003922
0.862745 0.176471 0.000000
0.058824 0.176471 0.043137
0.070588 0.168627 0.043137
0.082353 0.176471 0.050980
0.098039 0.176471 0.039216
0.133333 0.180392 0.031373
0.180392 0.188235 0.031373
0.239216 0.207843 0.027451
0.341176 0.207843 0.019608
0.431373 0.215686 0.003922
0.521569 0.219608 0.000000
0.603922 0.227451 0.000000
0.682353 0.235294 0.000000
0.737255 0.231373 0.003922
0.772549 0.227451 0.003922
0.800000 0.227451 0.000000
0.823529 0.215686 0.000000
0.831373 0.215686 0.000000
0.843137 0.211765 0.000000
0.854902 0.211765 0.003922
0.858824 0.207843 0.003922
0.858824 0.207843 0.003922
0.858824 0.211765 0.000000
0.858824 0.207843 0.003922
0.858824 0.203922 0.000000
0.870588 0.203922 0.003922
0.066667 0.270588 0.082353
0.074510 0.282353 0.078431
0.090196 0.278431 0.090196
0.101961 0.286275 0.074510
0.133333 0.278431 0.074510
0.188235 0.286275 0.058824
0.250980 0.298039 0.047059
0.345098 0.309804 0.039216
0.431373 0.325490 0.023529
0.541176 0.321569 0.019608
0.615686 0.321569 0.000000
0.690196 0.317647 0.000000
0.745098 0.313725 0.003922
0.776471 0.309804 0.000000
0.815686 0.298039 0.003922
0.827451 0.294118 0.003922
0.839216 0.282353 0.000000
0.843137 0.278431 0.000000
0.850980 0.274510 0.003922
0.854902 0.270588 0.003922
0.862745 0.262745 0.000000
0.866667 0.266667 0.003922
0.862745 0.266667 0.003922
0.862745 0.262745 0.000000
0.858824 0.254902 0.011765
0.090196 0.388235 0.137255
0.086275 0.388235 0.121569
0.113725 0.392157 0.125490
0.117647 0.396078 0.121569
0.160784 0.403922 0.101961
0.203922 0.403922 0.094118
0.274510 0.411765 0.082353
0.352941 0.419608 0.058824
0.447059 0.423529 0.039216
0.545098 0.431373 0.023529
0.631373 0.431373 0.011765
0.694118 0.427451 0.007843
0.752941 0.419608 0.000000
0.784314 0.400000 0.003922
0.819608 0.396078 0.007843
0.835294 0.388235 0.000000
0.843137 0.380392 0.003922
0.850980 0.360784 0.000000
0.858824 0.352941 0.000000
0.858824 0.345098 0.000000
0.866667 0.341176 0.000000
0.866667 0.341176 0.007843
0.878431 0.337255 0.000000
0.874510 0.329412 0.011765
0.870588 0.325490 0.000000
0.101961 0.509804 0.176471
0.101961 0.513725 0.152941
0.109804 0.513725 0.164706
0.145098 0.521569 0.168627
0.168627 0.521569 0.145098
0.231373 0.537255 0.141176
0.286275 0.545098 0.129412
0.356863 0.541176 0.101961
0.450980 0.533333 0.066667
0.549020 0.552941 0.054902
0.643137 0.552941 0.043137
0.698039 0.549020 0.011765
0.764706 0.545098 0.007843
0.796078 0.529412 0.000000
0.819608 0.513725 0.000000
0.835294 0.501961 0.000000
0.858824 0.490196 0.003922
0.862745 0.470588 0.000000
0.862745 0.450980 0.000000
0.866667 0.443137 0.007843
0.870588 0.431373 0.007843
0.874510 0.423529 0.003922
0.874510 0.415686 0.003922
0.874510 0.415686 0.003922
0.874510 0.407843 0.000000
0.121569 0.592157 0.207843
0.121569 0.592157 0.200000
0.141176 0.600000 0.192157
0.152941 0.603922 0.196078
0.188235 0.611765 0.176471
0.243137 0.615686 0.152941
0.305882 0.627451 0.141176
0.376471 0.639216 0.121569
0.466667 0.643137 0.086275
0.556863 0.650980 0.070588
0.639216 0.658824 0.050980
0.709804 0.654902 0.031373
0.768627 0.654902 0.019608
0.807843 0.643137 0.007843
0.839216 0.627451 0.007843
0.854902 0.619608 0.000000
0.866667 0.607843 0.000000
0.870588 0.592157 0.000000
0.878431 0.568627 0.000000
0.882353 0.556863 0.000000
0.890196 0.549020 0.003922
0.894118 0.533333 0.003922
0.894118 0.525490 0.000000
0.890196 0.521569 0.000000
0.898039 0.517647 0.007843
0.141176 0.650980 0.227451
0.145098 0.658824 0.219608
0.160784 0.654902 0.223529
0.160784 0.678431 0.211765
0.215686 0.666667 0.192157
0.250980 0.678431 0.188235
0.321569 0.678431 0.164706
0.392157 0.705882 0.129412
0.478431 0.717647 0.109804
0.572549 0.721569 0.082353
0.650980 0.737255 0.066667
0.725490 0.737255 0.035294
0.788235 0.741176 0.027451
0.823529 0.725490 0.015686
0.850980 0.725490 0.015686
0.874510 0.717647 0.000000
0.874510 0.709804 0.000000
0.890196 0.698039 0.000000
0.890196 0.682353 0.000000
0.901961 0.662745 0.000000
0.901961 0.647059 0.000000
0.905882 0.639216 0.000000
0.905882 0.631373 0.003922
0.909804 0.619608 0.000000
0.894118 0.607843 0.003922
0.152941 0.698039 0.247059
0.149020 0.694118 0.235294
0.188235 0.694118 0.227451
0.203922 0.709804 0.215686
0.227451 0.713725 0.203922
0.274510 0.717647 0.200000
0.325490 0.721569 0.172549
0.407843 0.737255 0.149020
0.494118 0.760784 0.121569
0.584314 0.772549 0.098039
0.662745 0.788235 0.062745
0.733333 0.792157 0.043137
0.796078 0.796078 0.035294
0.831373 0.792157 0.023529
0.866667 0.800000 0.011765
0.882353 0.792157 0.007843
0.901961 0.788235 0.011765
0.901961 0.776471 0.003922
0.917647 0.776471 0.007843
0.913725 0.756863 0.000000
0.917647 0.749020 0.000000
0.917647 0.741176 0.000000
0.913725 0.725490 0.000000
0.921569 0.717647 0.011765
0.925490 0.701961 0.007843
0.156863 0.717647 0.231373
0.188235 0.717647 0.243137
0.184314 0.721569 0.215686
0.203922 0.725490 0.227451
0.243137 0.729412 0.203922
0.294118 0.741176 0.196078
0.345098 0.749020 0.184314
0.423529 0.764706 0.152941
0.494118 0.780392 0.125490
0.584314 0.800000 0.098039
0.670588 0.811765 0.074510
0.737255 0.823529 0.050980
0.792157 0.827451 0.031373
0.847059 0.839216 0.031373
0.866667 0.835294 0.023529
0.886275 0.831373 0.007843
0.901961 0.835294 0.011765
0.921569 0.823529 0.011765
0.933333 0.823529 0.015686
0.937255 0.815686 0.011765
0.929412 0.800000 0.003922
0.941176 0.792157 0.011765
0.937255 0.780392 0.011765
0.929412 0.780392 0.007843
0.937255 0.780392 0.023529
0.172549 0.733333 0.247059
0.188235 0.729412 0.250980
0.192157 0.737255 0.231373
0.215686 0.749020 0.231373
0.270588 0.749020 0.223529
0.305882 0.756863 0.196078
0.356863 0.768627 0.172549
0.431373 0.784314 0.164706
0.509804 0.800000 0.129412
0.588235 0.815686 0.101961
0.666667 0.827451 0.074510
0.737255 0.850980 0.058824
0.800000 0.854902 0.043137
0.847059 0.862745 0.043137
0.878431 0.862745 0.027451
0.890196 0.866667 0.019608
0.909804 0.870588 0.011765
0.925490 0.862745 0.007843
0.933333 0.858824 0.007843
0.937255 0.854902 0.011765
0.949020 0.850980 0.007843
0.949020 0.843137 0.007843
0.945098 0.839216 0.011765
0.952941 0.835294 0.019608
0.952941 0.831373 0.027451
0.196078 0.741176 0.243137
0.200000 0.745098 0.239216
0.219608 0.752941 0.235294
0.239216 0.752941 0.235294
0.274510 0.752941 0.215686
0.321569 0.760784 0.196078
0.376471 0.768627 0.180392
0.447059 0.792157 0.164706
0.517647 0.807843 0.129412
0.603922 0.819608 0.109804
0.678431 0.839216 0.086275
0.749020 0.854902 0.074510
0.800000 0.870588 0.054902
0.839216 0.882353 0.035294
0.874510 0.878431 0.023529
0.898039 0.890196 0.019608
0.921569 0.890196 0.023529
0.937255 0.890196 0.019608
0.945098 0.886275 0.011765
0.945098 0.886275 0.011765
0.952941 0.882353 0.011765
0.952941 0.874510 0.015686
0.952941 0.870588 0.027451
0.952941 0.870588 0.035294
0.960784 0.866667 0.035294
0.215686 0.745098 0.239216
0.219608 0.749020 0.247059
0.239216 0.768627 0.223529
0.254902 0.749020 0.215686
0.290196 0.772549 0.211765
0.341176 0.768627 0.200000
0.392157 0.780392 0.180392
0.443137 0.800000 0.152941
0.521569 0.811765 0.133333
0.603922 0.831373 0.113725
0.666667 0.847059 0.086275
0.737255 0.866667 0.070588
0.788235 0.878431 0.047059
0.843137 0.886275 0.039216
0.874510 0.890196 0.031373
0.909804 0.894118 0.027451
0.917647 0.898039 0.027451
0.929412 0.898039 0.023529
0.945098 0.898039 0.019608
0.949020 0.894118 0.019608
0.956863 0.898039 0.023529
0.964706 0.894118 0.031373
0.964706 0.890196 0.039216
0.964706 0.882353 0.047059
0.956863 0.890196 0.050980
0.239216 0.745098 0.239216
0.243137 0.760784 0.231373
0.262745 0.756863 0.223529
0.282353 0.764706 0.215686
0.313725 0.776471 0.203922
0.360784 0.776471 0.180392
0.403922 0.792157 0.184314
0.470588 0.803922 0.160784
0.529412 0.819608 0.133333
0.607843 0.835294 0.117647
0.666667 0.854902 0.086275
0.737255 0.866667 0.070588
0.792157 0.878431 0.058824
0.835294 0.886275 0.047059
0.874510 0.898039 0.027451
0.898039 0.905882 0.031373
0.917647 0.905882 0.023529
0.929412 0.909804 0.023529
0.937255 0.909804 0.023529
0.960784 0.913725 0.043137
0.960784 0.905882 0.039216
0.964706 0.909804 0.050980
0.976471 0.901961 0.054902
0.960784 0.901961 0.066667
0.976471 0.905882 0.098039
0.266667 0.752941 0.235294
0.266667 0.768627 0.223529
0.290196 0.764706 0.227451
0.305882 0.772549 0.215686
0.321569 0.772549 0.211765
0.376471 0.788235 0.184314
0.427451 0.796078 0.172549
0.486275 0.811765 0.152941
0.549020 0.823529 0.133333
0.619608 0.839216 0.105882
0.686275 0.858824 0.086275
0.745098 0.866667 0.074510
0.796078 0.882353 0.062745
0.831373 0.890196 0.047059
0.874510 0.901961 0.047059
0.901961 0.909804 0.035294
0.913725 0.917647 0.039216
0.925490 0.913725 0.031373
0.945098 0.913725 0.039216
0.952941 0.921569 0.054902
0.964706 0.913725 0.066667
0.968627 0.917647 0.062745
0.968627 0.913725 0.078431
0.960784 0.913725 0.090196
0.976471 0.917647 0.105882
0.286275 0.764706 0.235294
0.305882 0.768627 0.227451
0.305882 0.772549 0.215686
0.329412 0.780392 0.211765
0.356863 0.788235 0.203922
0.400000 0.796078 0.192157
0.443137 0.803922 0.172549
0.509804 0.819608 0.164706
0.564706 0.827451 0.141176
0.631373 0.850980 0.125490
0.694118 0.862745 0.105882
0.741176 0.874510 0.090196
0.796078 0.890196 0.074510
0.839216 0.894118 0.074510
0.874510 0.898039 0.066667
0.890196 0.909804 0.062745
0.913725 0.917647 0.070588
0.933333 0.921569 0.070588
0.941176 0.921569 0.074510
0.956863 0.921569 0.078431
0.956863 0.917647 0.086275
0.968627 0.921569 0.098039
0.968627 0.921569 0.105882
0.972549 0.921569 0.125490
0.972549 0.921569 0.125490
0.317647 0.784314 0.227451
0.321569 0.780392 0.227451
0.337255 0.780392 0.215686
0.356863 0.784314 0.215686
0.388235 0.796078 0.211765
0.427451 0.807843 0.200000
0.458824 0.811765 0.192157
0.521569 0.823529 0.172549
0.568627 0.835294 0.149020
0.647059 0.847059 0.137255
0.705882 0.866667 0.121569
0.752941 0.878431 0.113725
0.796078 0.890196 0.105882
0.827451 0.898039 0.090196
0.866667 0.905882 0.090196
0.898039 0.913725 0.094118
0.909804 0.917647 0.101961
0.925490 0.917647 0.098039
0.945098 0.921569 0.105882
0.949020 0.925490 0.109804
0.956863 0.925490 0.113725
0.960784 0.925490 0.129412
0.968627 0.921569 0.145098
0.968627 0.929412 0.160784
0.964706 0.925490 0.156863
0.349020 0.788235 0.247059
0.345098 0.792157 0.243137
0.364706 0.792157 0.231373
0.388235 0.803922 0.223529
0.423529 0.800000 0.207843
0.454902 0.807843 0.219608
0.501961 0.823529 0.184314
0.537255 0.831373 0.184314
0.600000 0.843137 0.172549
0.658824 0.850980 0.156863
0.713725 0.870588 0.149020
0.752941 0.882353 0.133333
0.803922 0.894118 0.133333
0.835294 0.898039 0.125490
0.862745 0.905882 0.121569
0.898039 0.913725 0.133333
0.909804 0.921569 0.133333
0.921569 0.925490 0.133333
0.937255 0.925490 0.137255
0.952941 0.929412 0.145098
0.956863 0.933333 0.156863
0.964706 0.933333 0.168627
0.964706 0.929412 0.180392
0.964706 0.925490 0.196078
0.980392 0.925490 0.203922
0.376471 0.796078 0.254902
0.400000 0.800000 0.266667
0.403922 0.807843 0.243137
0.423529 0.811765 0.250980
0.443137 0.807843 0.247059
0.494118 0.815686 0.239216
0.517647 0.835294 0.219608
0.576471 0.835294 0.207843
0.619608 0.850980 0.192157
0.678431 0.858824 0.196078
0.717647 0.870588 0.176471
0.768627 0.886275 0.172549
0.811765 0.898039 0.168627
0.839216 0.905882 0.160784
0.870588 0.905882 0.164706
0.894118 0.913725 0.168627
0.917647 0.921569 0.176471
0.921569 0.921569 0.168627
0.941176 0.929412 0.188235
0.945098 0.921569 0.192157
0.952941 0.929412 0.215686
0.964706 0.929412 0.219608
0.964706 0.925490 0.239216
0.960784 0.933333 0.243137
0.968627 0.925490 0.266667
0.419608 0.803922 0.274510
0.419608 0.811765 0.282353
0.435294 0.815686 0.270588
0.454902 0.819608 0.270588
0.490196 0.823529 0.254902
0.509804 0.831373 0.258824
0.552941 0.839216 0.247059
0.596078 0.843137 0.243137
0.639216 0.858824 0.235294
0.686275 0.870588 0.227451
0.725490 0.878431 0.215686
0.760784 0.886275 0.207843
0.811765 0.901961 0.211765
0.843137 0.901961 0.207843
0.874510 0.909804 0.215686
0.894118 0.913725 0.207843
0.905882 0.917647 0.215686
0.925490 0.921569 0.223529
0.937255 0.925490 0.231373
0.941176 0.929412 0.243137
0.949020 0.925490 0.250980
0.956863 0.929412 0.266667
0.964706 0.933333 0.270588
0.964706 0.925490 0.298039
0.960784 0.929412 0.301961
0.454902 0.811765 0.305882
0.454902 0.819608 0.298039
0.462745 0.811765 0.301961
0.482353 0.819608 0.290196
0.505882 0.835294 0.294118
0.533333 0.835294 0.278431
0.572549 0.843137 0.282353
0.611765 0.854902 0.278431
0.650980 0.858824 0.262745
0.698039 0.870588 0.254902
0.737255 0.878431 0.258824
0.784314 0.886275 0.254902
0.803922 0.901961 0.250980
0.839216 0.901961 0.243137
0.870588 0.905882 0.250980
0.890196 0.917647 0.258824
0.909804 0.921569 0.266667
0.929412 0.925490 0.274510
0.937255 0.925490 0.278431
0.949020 0.929412 0.286275
0.952941 0.921569 0.294118
0.960784 0.925490 0.309804
0.964706 0.929412 0.321569
0.964706 0.925490 0.337255
0.960784 0.933333 0.345098
0.054902 0.007843 0.007843
0.062745 0.019608 0.011765
0.078431 0.019608 0.000000
0.094118 0.019608 0.003922
0.129412 0.019608 0.003922
0.184314 0.035294 0.000000
0.247059 0.043137 0.000000
0.325490 0.062745 0.000000
0.427451 0.070588 0.000000
0.521569 0.082353 0.000000
0.607843 0.098039 0.000000
0.686275 0.105882 0.000000
0.737255 0.113725 0.000000
0.768627 0.121569 0.000000
0.800000 0.121569 0.000000
0.819608 0.125490 0.000000
0.831373 0.141176 0.000000
0.839216 0.141176 0.000000
0.854902 0.137255 0.003922
0.858824 0.141176 0.015686
0.858824 0.141176 0.007843
0.858824 0.141176 0.007843
0.858824 0.145098 0.000000
0.850980 0.145098 0.000000
0.847059 0.141176 0.011765
0.062745 0.019608 0.003922
0.066667 0.023529 0.007843
0.078431 0.027451 0.003922
0.098039 0.031373 0.003922
0.125490 0.027451 0.007843
0.172549 0.047059 0.003922
0.239216 0.050980 0.003922
0.333333 0.062745 0.003922
0.419608 0.074510 0.000000
0.525490 0.086275 0.000000
0.607843 0.098039 0.000000
0.682353 0.113725 0.000000
0.733333 0.117647 0.000000
0.772549 0.125490 0.007843
0.803922 0.125490 0.000000
0.815686 0.133333 0.000000
0.831373 0.141176 0.000000
0.839216 0.141176 0.000000
0.847059 0.141176 0.003922
0.847059 0.141176 0.003922
0.854902 0.141176 0.000000
0.854902 0.141176 0.000000
0.858824 0.141176 0.007843
0.854902 0.137255 0.003922
0.847059 0.141176 0.011765
0.062745 0.015686 0.015686
0.070588 0.035294 0.015686
0.078431 0.035294 0.027451
0.090196 0.031373 0.011765
0.129412 0.043137 0.000000
0.188235 0.047059 0.000000
0.247059 0.050980 0.007843
0.337255 0.066667 0.007843
0.423529 0.082353 0.003922
0.525490 0.094118 0.003922
0.603922 0.101961 0.000000
0.678431 0.117647 0.000000
0.733333 0.125490 0.003922
0.768627 0.129412 0.000000
0.792157 0.129412 0.000000
0.815686 0.137255 0.003922
0.827451 0.133333 0.000000
0.843137 0.145098 0.003922
0.839216 0.141176 0.000000
0.850980 0.145098 0.000000
0.854902 0.141176 0.000000
0.858824 0.145098 0.000000
0.862745 0.141176 0.000000
0.854902 0.149020 0.003922
0.858824 0.137255 0.003922
0.050980 0.039216 0.011765
0.058824 0.039216 0.027451
0.078431 0.043137 0.007843
0.090196 0.050980 0.015686
0.125490 0.047059 0.003922
0.184314 0.050980 0.003922
0.250980 0.066667 0.003922
0.333333 0.078431 0.000000
0.427451 0.090196 0.000000
0.529412 0.105882 0.000000
0.607843 0.117647 0.000000
0.678431 0.129412 0.000000
0.737255 0.133333 0.000000
0.764706 0.137255 0.000000
0.796078 0.137255 0.000000
0.811765 0.137255 0.000000
0.823529 0.141176 0.003922
0.835294 0.145098 0.000000
0.839216 0.141176 0.000000
0.843137 0.145098 0.000000
0.847059 0.145098 0.000000
0.850980 0.145098 0.007843
0.858824 0.145098 0.000000
0.854902 0.149020 0.003922
0.858824 0.145098 0.000000
0.054902 0.058824 0.027451
0.070588 0.062745 0.015686
0.074510 0.066667 0.019608
0.094118 0.070588 0.015686
0.133333 0.070588 0.007843
0.184314 0.086275 0.007843
0.243137 0.094118 0.003922
0.329412 0.105882 0.000000
0.431373 0.113725 0.000000
0.525490 0.133333 0.000000
0.611765 0.141176 0.003922
0.678431 0.141176 0.000000
0.733333 0.152941 0.000000
0.772549 0.152941 0.000000
0.803922 0.152941 0.000000
0.815686 0.156863 0.003922
0.827451 0.152941 0.003922
0.835294 0.156863 0.000000
0.847059 0.156863 0.003922
0.847059 0.149020 0.000000
0.850980 0.156863 0.000000
0.850980 0.156863 0.000000
0.850980 0.156863 0.000000
0.858824 0.152941 0.007843
0.858824 0.152941 0.007843
0.062745 0.098039 0.031373
0.066667 0.101961 0.035294
0.078431 0.109804 0.027451
0.094118 0.113725 0.027451
0.125490 0.117647 0.019608
0.184314 0.125490 0.011765
0.250980 0.129412 0.007843
0.337255 0.141176 0.000000
0.427451 0.152941 0.011765
0.525490 0.164706 0.003922
0.607843 0.172549 0.000000
0.678431 0.172549 0.007843
0.733333 0.180392 0.000000
0.772549 0.180392 0.000000
0.800000 0.180392 0.003922
0.819608 0.184314 0.003922
0.819608 0.184314 0.000000
0.831373 0.176471 0.000000
0.847059 0.176471 0.003922
0.850980 0.176471 0.000000
0.854902 0.180392 0.000000
0.862745 0.176471 0.000000
0.862745 0.176471 0.000000
0.862745 0.176471 0.000000
0.858824 0.180392 0.011765
0.062745 0.160784 0.047059
0.066667 0.172549 0.050980
0.090196 0.164706 0.047059
0.101961 0.168627 0.043137
0.137255 0.176471 0.043137
0.180392 0.184314 0.027451
0.262745 0.196078 0.027451
0.321569 0.203922 0.000000
0.415686 0.215686 0.000000
0.517647 0.215686 0.000000
0.611765 0.223529 0.007843
0.686275 0.219608 0.000000
0.741176 0.219608 0.000000
0.768627 0.215686 0.000000
0.803922 0.219608 0.000000
0.823529 0.215686 0.003922
0.831373 0.215686 0.007843
0.839216 0.211765 0.007843
0.850980 0.207843 0.007843
0.854902 0.203922 0.007843
0.858824 0.203922 0.000000
0.858824 0.203922 0.000000
0.858824 0.203922 0.000000
0.862745 0.207843 0.000000
0.858824 0.207843 0.003922
0.062745 0.266667 0.086275
0.070588 0.274510 0.086275
0.094118 0.278431 0.074510
0.105882 0.274510 0.066667
0.141176 0.274510 0.074510
0.188235 0.286275 0.058824
0.243137 0.290196 0.047059
0.333333 0.298039 0.027451
0.419608 0.309804 0.019608
0.521569 0.313725 0.015686
0.603922 0.309804 0.000000
0.678431 0.313725 0.000000
0.741176 0.309804 0.000000
0.776471 0.309804 0.000000
0.807843 0.290196 0.000000
0.819608 0.286275 0.000000
0.839216 0.282353 0.000000
0.839216 0.274510 0.000000
0.850980 0.274510 0.003922
0.854902 0.258824 0.000000
0.858824 0.258824 0.000000
0.862745 0.262745 0.000000
0.862745 0.262745 0.000000
0.866667 0.258824 0.007843
0.862745 0.258824 0.015686
0.066667 0.380392 0.133333
0.090196 0.384314 0.129412
0.098039 0.396078 0.113725
0.117647 0.380392 0.117647
0.149020 0.400000 0.101961
0.196078 0.384314 0.086275
0.262745 0.400000 0.078431
0.345098 0.407843 0.058824
0.435294 0.419608 0.039216
0.533333 0.423529 0.031373
0.611765 0.419608 0.015686
0.686275 0.415686 0.011765
0.737255 0.411765 0.003922
0.784314 0.396078 0.000000
0.811765 0.388235 0.000000
0.827451 0.380392 0.000000
0.843137 0.368627 0.003922
0.850980 0.349020 0.000000
0.850980 0.341176 0.003922
0.854902 0.337255 0.003922
0.866667 0.329412 0.011765
0.858824 0.333333 0.000000
0.866667 0.333333 0.000000
0.862745 0.325490 0.007843
0.870588 0.325490 0.007843
0.094118 0.501961 0.160784
0.109804 0.501961 0.164706
0.113725 0.498039 0.164706
0.137255 0.505882 0.160784
0.172549 0.513725 0.141176
0.215686 0.513725 0.121569
0.274510 0.521569 0.109804
0.364706 0.529412 0.098039
0.454902 0.529412 0.074510
0.541176 0.533333 0.050980
0.627451 0.537255 0.035294
0.690196 0.541176 0.019608
0.756863 0.529412 0.007843
0.788235 0.513725 0.003922
0.811765 0.501961 0.000000
0.831373 0.498039 0.000000
0.847059 0.478431 0.000000
0.854902 0.458824 0.000000
0.858824 0.447059 0.000000
0.858824 0.439216 0.000000
0.874510 0.423529 0.000000
0.870588 0.419608 0.000000
0.870588 0.411765 0.000000
0.870588 0.411765 0.007843
0.870588 0.411765 0.007843
0.109804 0.588235 0.192157
0.117647 0.588235 0.196078
0.137255 0.588235 0.184314
0.160784 0.596078 0.192157
0.188235 0.603922 0.172549
0.231373 0.611765 0.156863
0.294118 0.623529 0.145098
0.376471 0.631373 0.121569
0.458824 0.623529 0.082353
