JustShoot/Resources/HarmanPhoenix200.cube
#Generated with IWLTBAP LUT Generator
#Website: http://luts.iwltbap.com
TITLE "ORI"
#LUT size
LUT_3D_SIZE 5
#LUT data points
0.054902 0.011765 0.003922
0.235294 0.039216 0.003922
0.741176 0.117647 0.000000
0.843137 0.137255 0.000000
0.854902 0.137255 0.003922
0.058824 0.176471 0.043137
0.239216 0.207843 0.027451
0.737255 0.231373 0.003922
0.854902 0.211765 0.003922
0.870588 0.203922 0.003922
0.152941 0.698039 0.247059
0.325490 0.721569 0.172549
0.796078 0.796078 0.035294
0.917647 0.776471 0.007843
0.925490 0.701961 0.007843
0.266667 0.752941 0.235294
0.427451 0.796078 0.172549
0.796078 0.882353 0.062745
0.945098 0.913725 0.039216
0.976471 0.917647 0.105882
0.454902 0.811765 0.305882
0.572549 0.843137 0.282353
0.803922 0.901961 0.250980
0.937255 0.925490 0.278431
0.960784 0.933333 0.345098
0.105882 0.011765 0.200000
0.270588 0.031373 0.152941
0.717647 0.094118 0.078431
0.839216 0.117647 0.070588
0.866667 0.121569 0.129412
0.090196 0.160784 0.200000
0.247059 0.184314 0.184314
0.709804 0.192157 0.101961
0.839216 0.180392 0.078431
0.854902 0.176471 0.113725
0.133333 0.666667 0.274510
0.294118 0.694118 0.262745
0.749020 0.749020 0.137255
0.894118 0.717647 0.125490
0.909804 0.670588 0.180392
0.247059 0.760784 0.313725
0.396078 0.796078 0.294118
0.768627 0.878431 0.211765
0.929412 0.909804 0.211765
0.964706 0.909804 0.290196
0.443137 0.823529 0.450980
0.564706 0.850980 0.439216
0.784314 0.901961 0.415686
0.929412 0.925490 0.462745
0.964706 0.929412 0.517647
0.203922 0.082353 0.631373
0.317647 0.074510 0.603922
0.690196 0.050980 0.556863
0.839216 0.058824 0.517647
0.858824 0.062745 0.513725
0.164706 0.211765 0.674510
0.301961 0.207843 0.647059
0.694118 0.160784 0.584314
0.835294 0.125490 0.545098
0.874510 0.125490 0.541176
0.082353 0.686275 0.788235
0.247059 0.682353 0.749020
0.686275 0.690196 0.705882
0.870588 0.635294 0.666667
0.901961 0.603922 0.654902
0.203922 0.823529 0.764706
0.356863 0.839216 0.756863
0.737255 0.886275 0.741176
0.913725 0.901961 0.733333
0.945098 0.890196 0.745098
0.419608 0.862745 0.784314
0.549020 0.886275 0.788235
0.776471 0.913725 0.784314
0.917647 0.933333 0.796078
0.952941 0.941176 0.803922
0.223529 0.196078 0.752941
0.313725 0.184314 0.737255
0.639216 0.137255 0.705882
0.839216 0.105882 0.690196
0.870588 0.117647 0.686275
0.188235 0.329412 0.800000
0.298039 0.317647 0.776471
0.647059 0.274510 0.745098
0.835294 0.227451 0.729412
0.878431 0.227451 0.721569
0.145098 0.674510 0.890196
0.274510 0.686275 0.874510
0.654902 0.670588 0.854902
0.854902 0.623529 0.843137
0.901961 0.607843 0.839216
0.258824 0.843137 0.937255
0.380392 0.854902 0.921569
0.709804 0.886275 0.909804
0.894118 0.890196 0.913725
0.945098 0.886275 0.913725
0.454902 0.890196 0.925490
0.576471 0.901961 0.925490
0.776471 0.925490 0.929412
0.917647 0.941176 0.933333
0.956863 0.941176 0.929412
0.211765 0.411765 0.831373
0.317647 0.407843 0.823529
0.607843 0.376471 0.792157
0.819608 0.345098 0.796078
0.862745 0.352941 0.780392
0.207843 0.509804 0.862745
0.317647 0.505882 0.839216
0.623529 0.482353 0.827451
0.823529 0.450980 0.819608
0.882353 0.447059 0.819608
0.215686 0.717647 0.909804
0.345098 0.717647 0.905882
0.654902 0.709804 0.894118
0.847059 0.701961 0.901961
0.909804 0.686275 0.886275
0.352941 0.843137 0.952941
0.466667 0.850980 0.949020
0.709804 0.870588 0.941176
0.878431 0.882353 0.952941
0.937255 0.882353 0.949020
0.537255 0.898039 0.956863
0.619608 0.909804 0.952941
0.776471 0.921569 0.956863
0.901961 0.929412 0.960784
0.952941 0.933333 0.960784
