JustShoot/Resources/KodakVision5219.cube
#Generated with IWLTBAP LUT Generator
#Website: http://luts.iwltbap.com
TITLE "5219"
#LUT size
LUT_3D_SIZE 5
#LUT data points
0.015686 0.015686 0.023529
0.235294 0.015686 0.019608
0.615686 0.058824 0.019608
0.835294 0.082353 0.039216
0.949020 0.090196 0.074510
0.015686 0.219608 0.070588
0.207843 0.254902 0.066667
0.658824 0.403922 0.090196
0.870588 0.466667 0.105882
0.964706 0.505882 0.133333
0.062745 0.572549 0.180392
0.200000 0.615686 0.192157
0.627451 0.647059 0.184314
0.850980 0.721569 0.176471
0.952941 0.760784 0.223529
0.152941 0.800000 0.254902
0.262745 0.803922 0.258824
0.611765 0.819608 0.254902
0.850980 0.847059 0.250980
0.960784 0.874510 0.301961
0.247059 0.952941 0.337255
0.349020 0.941176 0.341176
0.647059 0.945098 0.364706
0.854902 0.956863 0.372549
0.956863 0.968627 0.384314
0.031373 0.062745 0.254902
0.266667 0.070588 0.270588
0.611765 0.066667 0.227451
0.811765 0.086275 0.250980
0.933333 0.149020 0.301961
0.011765 0.200000 0.290196
0.152941 0.243137 0.313725
0.670588 0.384314 0.215686
0.847059 0.462745 0.317647
0.960784 0.517647 0.400000
0.054902 0.529412 0.392157
0.152941 0.584314 0.400000
0.600000 0.639216 0.360784
0.862745 0.733333 0.360784
0.949020 0.772549 0.407843
0.192157 0.803922 0.486275
0.274510 0.807843 0.486275
0.596078 0.839216 0.419608
0.843137 0.858824 0.427451
0.960784 0.890196 0.458824
0.294118 0.949020 0.537255
0.388235 0.945098 0.505882
0.639216 0.949020 0.490196
0.854902 0.960784 0.509804
0.960784 0.964706 0.498039
0.058824 0.109804 0.521569
0.219608 0.113725 0.564706
0.592157 0.129412 0.600000
0.788235 0.082353 0.576471
0.933333 0.172549 0.552941
0.050980 0.243137 0.603922
0.133333 0.235294 0.607843
0.615686 0.380392 0.662745
0.819608 0.380392 0.607843
0.945098 0.478431 0.627451
0.094118 0.525490 0.670588
0.176471 0.545098 0.686275
0.556863 0.643137 0.694118
0.870588 0.717647 0.603922
0.972549 0.760784 0.658824
0.196078 0.764706 0.713725
0.282353 0.788235 0.717647
0.580392 0.835294 0.741176
0.839216 0.866667 0.737255
0.968627 0.894118 0.725490
0.352941 0.949020 0.764706
0.427451 0.949020 0.772549
0.678431 0.972549 0.752941
0.854902 0.968627 0.741176
0.972549 0.976471 0.752941
0.098039 0.149020 0.701961
0.282353 0.164706 0.784314
0.592157 0.219608 0.792157
0.807843 0.223529 0.827451
0.941176 0.231373 0.835294
0.125490 0.278431 0.784314
0.192157 0.290196 0.796078
0.596078 0.407843 0.839216
0.827451 0.447059 0.858824
0.960784 0.447059 0.854902
0.203922 0.560784 0.870588
0.274510 0.572549 0.866667
0.537255 0.615686 0.886275
0.835294 0.737255 0.894118
0.952941 0.752941 0.882353
0.274510 0.784314 0.886275
0.356863 0.792157 0.898039
0.545098 0.823529 0.901961
0.843137 0.874510 0.917647
0.968627 0.894118 0.866667
0.372549 0.952941 0.905882
0.419608 0.952941 0.905882
0.603922 0.964706 0.913725
0.866667 0.976471 0.917647
0.972549 0.976471 0.921569
0.172549 0.219608 0.862745
0.321569 0.207843 0.905882
0.576471 0.235294 0.882353
0.807843 0.262745 0.894118
0.941176 0.286275 0.937255
0.192157 0.317647 0.886275
0.250980 0.313725 0.890196
0.537255 0.376471 0.929412
0.831373 0.447059 0.929412
0.956863 0.470588 0.941176
0.227451 0.568627 0.941176
0.301961 0.572549 0.937255
0.486275 0.576471 0.945098
0.835294 0.721569 0.949020
0.960784 0.733333 0.960784
0.290196 0.772549 0.945098
0.356863 0.784314 0.945098
0.501961 0.796078 0.952941
0.839216 0.862745 0.956863
0.960784 0.894118 0.968627
0.368627 0.952941 0.968627
0.427451 0.952941 0.956863
0.549020 0.956863 0.960784
0.839216 0.972549 0.968627
0.960784 0.976471 0.972549
