JustShoot/Resources/Kodak5207.cube
#Generated with IWLTBAP LUT Generator
#Website: http://luts.iwltbap.com
TITLE "ORI"
#LUT size
LUT_3D_SIZE 25
#LUT data points
0.043137 0.019608 0.035294
0.054902 0.011765 0.035294
0.066667 0.019608 0.035294
0.078431 0.023529 0.023529
0.101961 0.027451 0.035294
0.137255 0.039216 0.050980
0.176471 0.043137 0.047059
0.215686 0.039216 0.050980
0.262745 0.047059 0.058824
0.309804 0.050980 0.054902
0.380392 0.050980 0.043137
0.435294 0.050980 0.039216
0.501961 0.050980 0.039216
0.564706 0.058824 0.039216
0.623529 0.054902 0.035294
0.666667 0.047059 0.035294
0.717647 0.054902 0.027451
0.760784 0.058824 0.031373
0.796078 0.074510 0.027451
0.827451 0.098039 0.039216
0.847059 0.117647 0.035294
0.866667 0.137255 0.039216
0.874510 0.149020 0.039216
0.878431 0.152941 0.043137
0.874510 0.152941 0.043137
0.058824 0.015686 0.031373
0.058824 0.015686 0.039216
0.070588 0.023529 0.031373
0.078431 0.031373 0.031373
0.113725 0.031373 0.050980
0.141176 0.039216 0.050980
0.180392 0.047059 0.043137
0.219608 0.047059 0.043137
0.270588 0.050980 0.047059
0.321569 0.054902 0.050980
0.376471 0.058824 0.047059
0.443137 0.050980 0.043137
0.501961 0.047059 0.047059
0.568627 0.050980 0.043137
0.615686 0.054902 0.039216
0.670588 0.054902 0.027451
0.717647 0.054902 0.027451
0.752941 0.058824 0.027451
0.792157 0.078431 0.035294
0.823529 0.094118 0.043137
0.843137 0.117647 0.039216
0.866667 0.137255 0.047059
0.866667 0.145098 0.043137
0.870588 0.149020 0.039216
0.874510 0.149020 0.066667
0.058824 0.035294 0.043137
0.066667 0.027451 0.058824
0.066667 0.047059 0.035294
0.090196 0.043137 0.043137
0.098039 0.054902 0.039216
0.141176 0.058824 0.047059
0.176471 0.054902 0.043137
0.219608 0.054902 0.058824
0.274510 0.054902 0.058824
0.325490 0.058824 0.062745
0.380392 0.050980 0.050980
0.439216 0.054902 0.043137
0.498039 0.054902 0.039216
0.556863 0.047059 0.039216
0.611765 0.050980 0.035294
0.654902 0.047059 0.031373
0.705882 0.050980 0.027451
0.752941 0.058824 0.035294
0.792157 0.070588 0.039216
0.819608 0.086275 0.027451
0.843137 0.113725 0.031373
0.874510 0.133333 0.047059
0.878431 0.141176 0.043137
0.882353 0.152941 0.062745
0.866667 0.156863 0.050980
0.070588 0.050980 0.066667
0.070588 0.054902 0.050980
0.082353 0.062745 0.050980
0.101961 0.070588 0.058824
0.113725 0.078431 0.058824
0.145098 0.090196 0.054902
0.184314 0.086275 0.066667
0.231373 0.078431 0.058824
0.270588 0.070588 0.054902
0.325490 0.070588 0.054902
0.372549 0.066667 0.050980
0.431373 0.058824 0.050980
0.498039 0.050980 0.047059
0.552941 0.050980 0.039216
0.607843 0.050980 0.043137
0.654902 0.054902 0.035294
0.698039 0.050980 0.035294
0.749020 0.054902 0.031373
0.788235 0.074510 0.031373
0.811765 0.094118 0.039216
0.839216 0.105882 0.039216
0.858824 0.129412 0.039216
0.870588 0.145098 0.035294
0.870588 0.160784 0.054902
0.874510 0.152941 0.050980
0.078431 0.082353 0.062745
0.094118 0.078431 0.066667
0.090196 0.086275 0.078431
0.094118 0.098039 0.066667
0.125490 0.109804 0.074510
0.160784 0.121569 0.082353
0.192157 0.121569 0.066667
0.231373 0.117647 0.062745
0.278431 0.105882 0.054902
0.333333 0.098039 0.054902
0.392157 0.090196 0.058824
0.431373 0.074510 0.054902
0.494118 0.074510 0.050980
0.545098 0.062745 0.043137
0.596078 0.058824 0.035294
0.650980 0.054902 0.035294
0.694118 0.054902 0.035294
0.737255 0.058824 0.031373
0.772549 0.074510 0.035294
0.803922 0.082353 0.035294
0.831373 0.105882 0.027451
0.858824 0.129412 0.047059
0.870588 0.141176 0.050980
0.874510 0.152941 0.050980
0.870588 0.160784 0.054902
0.094118 0.125490 0.082353
0.090196 0.121569 0.078431
0.098039 0.129412 0.086275
0.105882 0.137255 0.086275
0.133333 0.149020 0.090196
0.164706 0.160784 0.090196
0.203922 0.160784 0.082353
0.254902 0.168627 0.078431
0.286275 0.160784 0.062745
0.337255 0.156863 0.066667
0.403922 0.141176 0.074510
0.450980 0.125490 0.062745
0.501961 0.105882 0.058824
0.552941 0.094118 0.054902
0.600000 0.078431 0.043137
0.650980 0.066667 0.039216
0.690196 0.070588 0.035294
0.733333 0.062745 0.035294
0.764706 0.066667 0.027451
0.803922 0.082353 0.043137
0.835294 0.101961 0.043137
0.862745 0.121569 0.047059
0.862745 0.141176 0.047059
0.874510 0.152941 0.058824
0.874510 0.164706 0.058824
0.094118 0.164706 0.101961
0.094118 0.156863 0.105882
0.098039 0.164706 0.090196
0.113725 0.176471 0.074510
0.133333 0.196078 0.094118
0.172549 0.207843 0.101961
0.211765 0.215686 0.090196
0.258824 0.219608 0.082353
0.305882 0.215686 0.082353
0.360784 0.211765 0.070588
0.407843 0.200000 0.066667
0.466667 0.188235 0.062745
0.509804 0.168627 0.058824
0.564706 0.149020 0.047059
0.611765 0.133333 0.043137
0.643137 0.105882 0.043137
0.694118 0.098039 0.047059
0.729412 0.086275 0.039216
0.776471 0.082353 0.043137
0.803922 0.090196 0.039216
0.831373 0.105882 0.035294
0.858824 0.129412 0.039216
0.866667 0.145098 0.043137
0.870588 0.160784 0.047059
0.874510 0.176471 0.058824
0.082353 0.211765 0.098039
0.082353 0.215686 0.109804
0.094118 0.211765 0.101961
0.117647 0.231373 0.109804
0.141176 0.231373 0.121569
0.168627 0.247059 0.101961
0.211765 0.258824 0.101961
0.250980 0.274510 0.094118
0.301961 0.278431 0.082353
0.356863 0.278431 0.078431
0.411765 0.262745 0.070588
0.466667 0.254902 0.070588
0.529412 0.239216 0.062745
0.580392 0.223529 0.047059
0.627451 0.196078 0.050980
0.666667 0.180392 0.047059
0.701961 0.156863 0.043137
0.737255 0.133333 0.039216
0.764706 0.117647 0.039216
0.792157 0.117647 0.031373
0.823529 0.121569 0.031373
0.850980 0.137255 0.043137
0.858824 0.160784 0.050980
0.870588 0.176471 0.047059
0.866667 0.207843 0.062745
0.094118 0.258824 0.109804
0.094118 0.247059 0.133333
0.098039 0.262745 0.121569
0.113725 0.270588 0.125490
0.137255 0.278431 0.129412
0.168627 0.290196 0.117647
0.203922 0.305882 0.121569
0.250980 0.317647 0.105882
0.309804 0.325490 0.094118
0.372549 0.333333 0.094118
0.423529 0.329412 0.078431
0.474510 0.321569 0.066667
0.529412 0.313725 0.058824
0.592157 0.301961 0.062745
0.631373 0.282353 0.054902
0.670588 0.262745 0.047059
0.709804 0.239216 0.035294
0.745098 0.207843 0.035294
0.772549 0.176471 0.031373
0.800000 0.152941 0.035294
0.831373 0.145098 0.031373
0.854902 0.156863 0.039216
0.874510 0.180392 0.050980
0.870588 0.196078 0.054902
0.870588 0.219608 0.062745
0.109804 0.298039 0.133333
0.105882 0.305882 0.137255
0.098039 0.301961 0.121569
0.121569 0.313725 0.137255
0.133333 0.329412 0.121569
0.168627 0.337255 0.125490
0.207843 0.345098 0.117647
0.254902 0.356863 0.109804
0.309804 0.368627 0.105882
0.364706 0.376471 0.098039
0.431373 0.384314 0.086275
0.486275 0.384314 0.082353
0.541176 0.380392 0.066667
0.592157 0.376471 0.062745
0.647059 0.360784 0.058824
0.682353 0.345098 0.050980
0.717647 0.321569 0.039216
0.749020 0.286275 0.035294
0.780392 0.250980 0.035294
0.803922 0.223529 0.035294
0.831373 0.196078 0.043137
0.847059 0.207843 0.039216
0.866667 0.219608 0.043137
0.870588 0.235294 0.054902
0.870588 0.250980 0.062745
0.113725 0.349020 0.145098
0.113725 0.341176 0.141176
0.117647 0.352941 0.141176
0.125490 0.364706 0.141176
0.141176 0.368627 0.137255
0.168627 0.372549 0.129412
0.203922 0.388235 0.121569
0.247059 0.403922 0.125490
0.309804 0.423529 0.109804
0.364706 0.423529 0.105882
0.423529 0.435294 0.094118
0.486275 0.443137 0.082353
0.545098 0.443137 0.070588
0.600000 0.443137 0.066667
0.647059 0.435294 0.050980
0.686275 0.427451 0.050980
0.725490 0.407843 0.047059
0.756863 0.380392 0.039216
0.784314 0.341176 0.035294
0.807843 0.301961 0.035294
0.835294 0.270588 0.035294
0.850980 0.258824 0.035294
0.866667 0.274510 0.050980
0.874510 0.290196 0.062745
0.878431 0.305882 0.070588
0.125490 0.407843 0.149020
0.125490 0.400000 0.152941
0.125490 0.392157 0.160784
0.125490 0.407843 0.156863
0.149020 0.407843 0.164706
0.176471 0.407843 0.141176
0.203922 0.431373 0.133333
0.247059 0.450980 0.129412
0.309804 0.466667 0.129412
0.364706 0.478431 0.117647
0.427451 0.490196 0.101961
0.494118 0.498039 0.090196
0.556863 0.509804 0.086275
0.611765 0.509804 0.074510
0.658824 0.509804 0.074510
0.694118 0.509804 0.054902
0.733333 0.490196 0.047059
0.756863 0.470588 0.035294
0.788235 0.439216 0.031373
0.815686 0.407843 0.035294
0.835294 0.372549 0.031373
0.862745 0.349020 0.043137
0.874510 0.341176 0.050980
0.886275 0.352941 0.054902
0.882353 0.364706 0.070588
0.160784 0.458824 0.168627
0.149020 0.443137 0.172549
0.137255 0.443137 0.149020
0.149020 0.450980 0.176471
0.156863 0.443137 0.156863
0.172549 0.462745 0.168627
0.200000 0.470588 0.156863
0.250980 0.482353 0.152941
0.309804 0.509804 0.137255
0.368627 0.529412 0.121569
0.431373 0.541176 0.109804
0.498039 0.552941 0.105882
0.564706 0.564706 0.094118
0.619608 0.564706 0.086275
0.654902 0.580392 0.078431
0.698039 0.580392 0.070588
0.745098 0.580392 0.054902
0.768627 0.560784 0.043137
0.800000 0.533333 0.043137
0.823529 0.505882 0.043137
0.847059 0.474510 0.043137
0.870588 0.447059 0.050980
0.870588 0.439216 0.058824
0.890196 0.450980 0.066667
0.898039 0.447059 0.082353
0.180392 0.505882 0.184314
0.176471 0.501961 0.188235
0.168627 0.490196 0.168627
0.168627 0.486275 0.176471
0.168627 0.494118 0.180392
0.180392 0.501961 0.172549
0.203922 0.509804 0.172549
0.247059 0.525490 0.164706
0.294118 0.549020 0.156863
0.364706 0.572549 0.149020
0.435294 0.592157 0.141176
0.501961 0.603922 0.121569
0.564706 0.611765 0.109804
0.623529 0.623529 0.098039
0.670588 0.623529 0.090196
0.713725 0.627451 0.086275
0.745098 0.639216 0.078431
0.772549 0.635294 0.070588
0.803922 0.627451 0.066667
0.823529 0.603922 0.058824
0.847059 0.588235 0.047059
0.866667 0.556863 0.058824
0.874510 0.545098 0.066667
0.890196 0.541176 0.078431
0.901961 0.552941 0.098039
0.215686 0.564706 0.203922
0.207843 0.556863 0.203922
0.203922 0.552941 0.200000
0.203922 0.537255 0.203922
0.196078 0.541176 0.200000
0.207843 0.545098 0.196078
0.219608 0.552941 0.196078
0.250980 0.568627 0.196078
0.301961 0.584314 0.192157
0.360784 0.603922 0.168627
0.435294 0.623529 0.152941
0.505882 0.643137 0.149020
0.568627 0.662745 0.129412
0.619608 0.666667 0.125490
0.666667 0.674510 0.113725
0.713725 0.682353 0.113725
0.749020 0.686275 0.109804
0.776471 0.694118 0.101961
0.807843 0.686275 0.090196
0.843137 0.670588 0.078431
0.858824 0.658824 0.090196
0.874510 0.650980 0.090196
0.890196 0.631373 0.082353
0.898039 0.631373 0.101961
0.894118 0.631373 0.117647
0.258824 0.607843 0.239216
0.262745 0.603922 0.235294
0.250980 0.600000 0.231373
0.247059 0.596078 0.227451
0.247059 0.588235 0.219608
0.239216 0.588235 0.219608
0.247059 0.600000 0.223529
0.274510 0.611765 0.231373
0.309804 0.631373 0.207843
0.356863 0.639216 0.207843
0.419608 0.658824 0.192157
0.498039 0.678431 0.188235
0.568627 0.694118 0.172549
0.631373 0.705882 0.152941
0.682353 0.713725 0.145098
0.717647 0.717647 0.137255
0.749020 0.729412 0.133333
0.788235 0.737255 0.133333
0.819608 0.741176 0.125490
0.839216 0.745098 0.125490
0.862745 0.725490 0.113725
0.886275 0.713725 0.121569
0.898039 0.713725 0.133333
0.901961 0.701961 0.133333
0.909804 0.701961 0.160784
0.325490 0.666667 0.286275
0.305882 0.650980 0.250980
0.309804 0.650980 0.270588
0.305882 0.647059 0.266667
0.301961 0.647059 0.247059
0.290196 0.650980 0.262745
0.294118 0.650980 0.274510
0.313725 0.650980 0.254902
0.333333 0.658824 0.250980
0.368627 0.678431 0.250980
0.403922 0.690196 0.231373
0.482353 0.709804 0.227451
0.560784 0.721569 0.203922
0.631373 0.745098 0.188235
0.678431 0.749020 0.176471
0.721569 0.752941 0.172549
0.760784 0.764706 0.164706
0.792157 0.768627 0.156863
0.827451 0.776471 0.164706
0.843137 0.780392 0.160784
0.866667 0.776471 0.156863
0.886275 0.772549 0.160784
0.894118 0.780392 0.168627
0.901961 0.768627 0.184314
0.894118 0.768627 0.192157
0.372549 0.709804 0.313725
0.380392 0.701961 0.309804
0.368627 0.705882 0.317647
0.364706 0.694118 0.309804
0.364706 0.694118 0.309804
0.352941 0.690196 0.294118
0.349020 0.694118 0.301961
0.360784 0.701961 0.294118
0.364706 0.705882 0.286275
0.388235 0.713725 0.298039
0.419608 0.717647 0.294118
0.470588 0.733333 0.290196
0.541176 0.752941 0.274510
0.603922 0.772549 0.258824
0.670588 0.784314 0.227451
0.717647 0.788235 0.223529
0.760784 0.792157 0.211765
0.792157 0.803922 0.203922
0.827451 0.807843 0.203922
0.854902 0.815686 0.200000
0.874510 0.815686 0.207843
0.894118 0.811765 0.203922
0.905882 0.815686 0.207843
0.898039 0.815686 0.223529
0.909804 0.803922 0.250980
0.450980 0.752941 0.384314
0.439216 0.752941 0.380392
0.439216 0.749020 0.388235
0.439216 0.752941 0.380392
0.431373 0.745098 0.356863
0.423529 0.745098 0.360784
0.427451 0.741176 0.360784
0.427451 0.741176 0.360784
0.431373 0.745098 0.356863
0.443137 0.749020 0.352941
0.447059 0.752941 0.352941
0.474510 0.760784 0.341176
0.521569 0.768627 0.349020
0.584314 0.800000 0.333333
0.647059 0.807843 0.329412
0.709804 0.815686 0.309804
0.752941 0.823529 0.282353
0.792157 0.827451 0.266667
0.827451 0.835294 0.266667
0.850980 0.843137 0.266667
0.870588 0.839216 0.270588
0.890196 0.850980 0.266667
0.905882 0.847059 0.286275
0.898039 0.847059 0.298039
0.898039 0.843137 0.313725
0.517647 0.784314 0.443137
0.513725 0.780392 0.439216
0.509804 0.784314 0.435294
0.505882 0.780392 0.431373
0.505882 0.772549 0.439216
0.501961 0.776471 0.427451
0.494118 0.780392 0.419608
0.498039 0.784314 0.423529
0.494118 0.780392 0.419608
0.494118 0.780392 0.419608
0.494118 0.788235 0.423529
0.509804 0.788235 0.419608
0.533333 0.800000 0.411765
0.568627 0.803922 0.411765
0.627451 0.819608 0.400000
0.686275 0.831373 0.388235
0.745098 0.839216 0.368627
0.784314 0.850980 0.349020
0.815686 0.862745 0.337255
0.854902 0.862745 0.333333
0.874510 0.862745 0.309804
0.894118 0.870588 0.329412
0.905882 0.866667 0.341176
0.901961 0.866667 0.360784
0.898039 0.866667 0.380392
0.568627 0.819608 0.490196
0.568627 0.819608 0.490196
0.564706 0.815686 0.478431
0.564706 0.815686 0.478431
0.564706 0.815686 0.486275
0.560784 0.815686 0.494118
0.560784 0.815686 0.486275
0.564706 0.815686 0.478431
0.556863 0.811765 0.490196
0.560784 0.811765 0.482353
0.556863 0.815686 0.474510
0.556863 0.815686 0.474510
0.568627 0.811765 0.474510
0.592157 0.823529 0.470588
0.619608 0.835294 0.470588
0.647059 0.843137 0.470588
0.713725 0.850980 0.443137
0.768627 0.858824 0.435294
0.815686 0.870588 0.423529
0.843137 0.882353 0.403922
0.862745 0.882353 0.388235
0.882353 0.886275 0.388235
0.894118 0.886275 0.403922
0.905882 0.886275 0.415686
0.901961 0.878431 0.439216
0.603922 0.831373 0.533333
0.611765 0.835294 0.533333
0.603922 0.831373 0.533333
0.615686 0.827451 0.529412
0.600000 0.839216 0.537255
0.607843 0.831373 0.513725
0.603922 0.827451 0.517647
0.603922 0.831373 0.529412
0.607843 0.831373 0.521569
0.603922 0.827451 0.517647
0.603922 0.831373 0.529412
0.600000 0.819608 0.525490
0.607843 0.831373 0.529412
0.611765 0.835294 0.525490
0.627451 0.843137 0.525490
0.654902 0.850980 0.509804
0.705882 0.858824 0.509804
0.752941 0.870588 0.494118
0.796078 0.878431 0.482353
0.835294 0.886275 0.470588
0.862745 0.890196 0.450980
0.894118 0.890196 0.435294
0.898039 0.894118 0.431373
0.901961 0.894118 0.466667
0.898039 0.901961 0.501961
0.615686 0.835294 0.556863
0.635294 0.843137 0.568627
0.631373 0.835294 0.576471
0.635294 0.843137 0.568627
0.631373 0.839216 0.564706
0.627451 0.847059 0.568627
0.631373 0.839216 0.556863
0.631373 0.839216 0.564706
0.623529 0.843137 0.564706
0.623529 0.843137 0.564706
0.631373 0.839216 0.564706
0.631373 0.839216 0.564706
0.619608 0.839216 0.552941
0.631373 0.839216 0.556863
0.623529 0.843137 0.556863
0.666667 0.847059 0.552941
0.705882 0.858824 0.549020
0.741176 0.866667 0.533333
0.788235 0.878431 0.525490
0.827451 0.890196 0.505882
0.862745 0.894118 0.490196
0.886275 0.898039 0.486275
0.882353 0.901961 0.509804
0.894118 0.894118 0.517647
0.890196 0.909804 0.549020
0.627451 0.843137 0.580392
0.643137 0.831373 0.588235
0.647059 0.839216 0.584314
0.635294 0.831373 0.584314
0.639216 0.839216 0.580392
0.643137 0.843137 0.584314
0.639216 0.839216 0.580392
0.639216 0.839216 0.580392
0.639216 0.839216 0.580392
0.647059 0.839216 0.584314
0.639216 0.843137 0.592157
0.635294 0.839216 0.580392
0.647059 0.847059 0.584314
0.627451 0.843137 0.576471
0.658824 0.843137 0.576471
0.670588 0.850980 0.564706
0.698039 0.862745 0.564706
0.741176 0.870588 0.560784
0.784314 0.878431 0.541176
0.823529 0.890196 0.529412
0.858824 0.898039 0.521569
0.874510 0.898039 0.513725
0.894118 0.898039 0.533333
0.894118 0.894118 0.556863
0.890196 0.894118 0.580392
0.639216 0.843137 0.592157
0.639216 0.843137 0.600000
0.643137 0.839216 0.600000
0.647059 0.835294 0.592157
0.643137 0.839216 0.592157
0.643137 0.843137 0.584314
0.639216 0.843137 0.584314
0.639216 0.843137 0.584314
0.643137 0.839216 0.592157
0.643137 0.839216 0.592157
0.639216 0.843137 0.592157
0.643137 0.843137 0.584314
0.654902 0.835294 0.592157
0.647059 0.839216 0.584314
0.650980 0.847059 0.576471
0.678431 0.858824 0.572549
0.713725 0.862745 0.560784
0.745098 0.874510 0.556863
0.780392 0.878431 0.549020
0.819608 0.878431 0.545098
0.854902 0.886275 0.549020
0.878431 0.894118 0.552941
0.886275 0.894118 0.564706
0.894118 0.890196 0.576471
0.901961 0.894118 0.592157
0.058824 0.015686 0.047059
0.058824 0.015686 0.047059
0.062745 0.019608 0.043137
0.078431 0.019608 0.039216
0.109804 0.027451 0.047059
0.152941 0.039216 0.054902
0.188235 0.047059 0.047059
0.231373 0.054902 0.043137
0.286275 0.050980 0.050980
0.341176 0.050980 0.054902
0.407843 0.054902 0.050980
0.466667 0.054902 0.043137
0.529412 0.050980 0.039216
0.580392 0.050980 0.035294
0.631373 0.050980 0.035294
0.674510 0.050980 0.035294
0.717647 0.062745 0.039216
0.760784 0.058824 0.031373
0.800000 0.070588 0.023529
0.827451 0.094118 0.035294
0.854902 0.113725 0.035294
0.866667 0.137255 0.047059
0.874510 0.145098 0.047059
0.878431 0.149020 0.050980
0.870588 0.160784 0.054902
0.062745 0.027451 0.047059
0.058824 0.023529 0.043137
0.082353 0.023529 0.043137
0.094118 0.027451 0.050980
0.117647 0.039216 0.047059
0.145098 0.043137 0.047059
0.196078 0.054902 0.062745
0.235294 0.054902 0.054902
0.286275 0.050980 0.050980
0.352941 0.058824 0.047059
0.407843 0.058824 0.043137
0.478431 0.054902 0.047059
0.529412 0.050980 0.039216
0.580392 0.054902 0.043137
0.623529 0.054902 0.043137
0.674510 0.050980 0.035294
0.717647 0.054902 0.035294
0.756863 0.062745 0.031373
0.788235 0.074510 0.031373
0.811765 0.094118 0.039216
0.839216 0.113725 0.035294
0.870588 0.129412 0.043137
0.870588 0.149020 0.047059
0.870588 0.149020 0.047059
0.878431 0.149020 0.058824
0.062745 0.035294 0.062745
0.070588 0.031373 0.062745
0.074510 0.039216 0.043137
0.094118 0.047059 0.047059
0.125490 0.054902 0.054902
0.160784 0.058824 0.062745
0.200000 0.066667 0.062745
0.243137 0.070588 0.066667
0.298039 0.070588 0.054902
0.356863 0.070588 0.047059
0.411765 0.054902 0.043137
0.466667 0.054902 0.043137
0.533333 0.054902 0.043137
0.584314 0.054902 0.043137
0.631373 0.047059 0.031373
0.670588 0.054902 0.035294
0.709804 0.054902 0.031373
0.745098 0.062745 0.035294
0.788235 0.070588 0.039216
0.815686 0.086275 0.035294
0.835294 0.109804 0.031373
0.862745 0.133333 0.050980
0.874510 0.145098 0.047059
0.874510 0.145098 0.054902
0.874510 0.145098 0.047059
0.070588 0.062745 0.066667
0.078431 0.054902 0.070588
0.082353 0.066667 0.070588
0.098039 0.074510 0.074510
0.129412 0.086275 0.078431
0.164706 0.090196 0.062745
0.203922 0.098039 0.070588
0.247059 0.101961 0.066667
0.305882 0.094118 0.054902
0.364706 0.078431 0.050980
0.419608 0.070588 0.054902
0.466667 0.062745 0.043137
0.517647 0.054902 0.039216
0.576471 0.050980 0.039216
0.619608 0.050980 0.039216
0.658824 0.050980 0.035294
0.701961 0.054902 0.039216
0.741176 0.058824 0.031373
0.780392 0.062745 0.031373
0.811765 0.082353 0.031373
0.839216 0.105882 0.039216
0.858824 0.129412 0.047059
0.870588 0.141176 0.043137
0.870588 0.149020 0.054902
0.878431 0.156863 0.054902
0.082353 0.090196 0.086275
0.090196 0.086275 0.070588
0.094118 0.090196 0.074510
0.105882 0.109804 0.078431
0.133333 0.117647 0.082353
0.168627 0.129412 0.082353
0.211765 0.145098 0.082353
0.258824 0.145098 0.074510
0.317647 0.141176 0.066667
0.376471 0.129412 0.070588
0.427451 0.105882 0.058824
0.474510 0.090196 0.054902
0.525490 0.074510 0.047059
0.556863 0.070588 0.039216
0.603922 0.058824 0.031373
0.654902 0.054902 0.031373
0.698039 0.050980 0.035294
0.733333 0.062745 0.035294
0.764706 0.070588 0.031373
0.800000 0.078431 0.031373
0.835294 0.101961 0.035294
0.854902 0.121569 0.047059
0.862745 0.141176 0.047059
0.866667 0.152941 0.058824
0.870588 0.160784 0.054902
0.101961 0.133333 0.090196
0.098039 0.125490 0.094118
0.094118 0.133333 0.098039
0.105882 0.145098 0.101961
0.129412 0.152941 0.098039
0.164706 0.168627 0.098039
0.211765 0.180392 0.090196
0.270588 0.192157 0.086275
0.325490 0.196078 0.074510
0.380392 0.184314 0.078431
0.435294 0.172549 0.066667
0.486275 0.149020 0.058824
0.529412 0.125490 0.050980
0.576471 0.105882 0.050980
0.611765 0.086275 0.043137
0.654902 0.070588 0.043137
0.690196 0.070588 0.035294
0.725490 0.066667 0.031373
0.768627 0.070588 0.031373
0.800000 0.086275 0.035294
0.827451 0.101961 0.031373
0.850980 0.121569 0.039216
0.862745 0.141176 0.047059
0.878431 0.156863 0.054902
0.866667 0.168627 0.066667
0.098039 0.168627 0.121569
0.105882 0.172549 0.109804
0.098039 0.172549 0.098039
0.121569 0.188235 0.113725
0.133333 0.184314 0.105882
0.180392 0.215686 0.109804
0.215686 0.227451 0.105882
0.262745 0.243137 0.094118
0.321569 0.247059 0.090196
0.376471 0.239216 0.074510
0.439216 0.239216 0.062745
0.490196 0.219608 0.054902
0.541176 0.196078 0.054902
0.588235 0.164706 0.050980
0.631373 0.145098 0.043137
0.666667 0.121569 0.047059
0.698039 0.105882 0.039216
0.733333 0.094118 0.035294
0.772549 0.082353 0.031373
0.796078 0.082353 0.031373
0.819608 0.101961 0.031373
0.854902 0.125490 0.043137
0.858824 0.145098 0.050980
0.866667 0.168627 0.058824
0.874510 0.176471 0.058824
0.109804 0.227451 0.125490
0.094118 0.207843 0.121569
0.105882 0.219608 0.101961
0.121569 0.223529 0.109804
0.145098 0.235294 0.121569
0.180392 0.266667 0.113725
0.219608 0.282353 0.098039
0.274510 0.286275 0.101961
0.337255 0.298039 0.098039
0.384314 0.301961 0.086275
0.435294 0.298039 0.078431
0.486275 0.294118 0.066667
0.541176 0.270588 0.054902
0.592157 0.247059 0.050980
0.639216 0.219608 0.047059
0.666667 0.200000 0.035294
0.705882 0.168627 0.035294
0.737255 0.145098 0.039216
0.772549 0.125490 0.039216
0.788235 0.113725 0.027451
0.819608 0.117647 0.027451
0.850980 0.137255 0.043137
0.862745 0.160784 0.043137
0.874510 0.180392 0.047059
0.866667 0.200000 0.070588
0.109804 0.270588 0.137255
0.117647 0.262745 0.129412
0.101961 0.262745 0.129412
0.125490 0.274510 0.129412
0.156863 0.282353 0.129412
0.188235 0.301961 0.121569
0.223529 0.317647 0.121569
0.278431 0.337255 0.113725
0.325490 0.352941 0.090196
0.384314 0.356863 0.082353
0.435294 0.356863 0.078431
0.494118 0.349020 0.070588
0.552941 0.341176 0.058824
0.600000 0.325490 0.054902
0.643137 0.309804 0.054902
0.686275 0.286275 0.043137
0.709804 0.250980 0.039216
0.745098 0.215686 0.039216
0.772549 0.184314 0.039216
0.800000 0.160784 0.039216
0.819608 0.149020 0.039216
0.847059 0.164706 0.031373
0.862745 0.180392 0.047059
0.878431 0.200000 0.066667
0.870588 0.219608 0.054902
0.125490 0.333333 0.160784
0.113725 0.325490 0.133333
0.109804 0.313725 0.133333
0.121569 0.313725 0.137255
0.149020 0.329412 0.137255
0.184314 0.341176 0.133333
0.227451 0.360784 0.125490
0.274510 0.380392 0.117647
0.329412 0.392157 0.105882
0.380392 0.407843 0.101961
0.439216 0.407843 0.090196
0.498039 0.411765 0.086275
0.564706 0.411765 0.054902
0.607843 0.396078 0.050980
0.647059 0.380392 0.047059
0.686275 0.364706 0.043137
0.721569 0.341176 0.039216
0.752941 0.301961 0.039216
0.788235 0.258824 0.039216
0.807843 0.231373 0.031373
0.831373 0.196078 0.043137
0.847059 0.207843 0.047059
0.862745 0.211765 0.047059
0.878431 0.231373 0.054902
0.882353 0.247059 0.066667
0.133333 0.388235 0.160784
0.121569 0.368627 0.152941
0.125490 0.360784 0.149020
0.125490 0.364706 0.141176
0.149020 0.376471 0.145098
0.180392 0.396078 0.141176
0.223529 0.407843 0.125490
0.278431 0.419608 0.129412
0.321569 0.435294 0.105882
