JustShoot/Resources/KodakPortra400.cube
#Generated with IWLTBAP LUT Generator
#Website: http://luts.iwltbap.com
TITLE "ORI"
#LUT size
LUT_3D_SIZE 25
#LUT data points
0.011765 0.019608 0.015686
0.015686 0.015686 0.015686
0.035294 0.015686 0.031373
0.058824 0.015686 0.031373
0.082353 0.019608 0.023529
0.109804 0.027451 0.015686
0.145098 0.023529 0.003922
0.211765 0.035294 0.015686
0.282353 0.047059 0.015686
0.349020 0.047059 0.007843
0.411765 0.031373 0.003922
0.474510 0.019608 0.019608
0.545098 0.019608 0.023529
0.603922 0.019608 0.027451
0.658824 0.031373 0.031373
0.701961 0.035294 0.035294
0.752941 0.039216 0.035294
0.796078 0.035294 0.035294
0.831373 0.039216 0.023529
0.862745 0.050980 0.011765
0.898039 0.074510 0.015686
0.925490 0.105882 0.027451
0.949020 0.137255 0.015686
0.980392 0.168627 0.003922
0.984314 0.168627 0.019608
0.003922 0.023529 0.007843
0.019608 0.019608 0.011765
0.031373 0.027451 0.019608
0.062745 0.031373 0.023529
0.094118 0.031373 0.031373
0.117647 0.035294 0.015686
0.160784 0.047059 0.023529
0.215686 0.047059 0.011765
0.282353 0.054902 0.011765
0.356863 0.054902 0.023529
0.415686 0.043137 0.019608
0.486275 0.035294 0.023529
0.545098 0.027451 0.011765
0.600000 0.031373 0.019608
0.658824 0.039216 0.035294
0.713725 0.050980 0.039216
0.756863 0.054902 0.035294
0.796078 0.058824 0.023529
0.835294 0.062745 0.027451
0.866667 0.082353 0.023529
0.890196 0.105882 0.015686
0.917647 0.133333 0.003922
0.949020 0.149020 0.019608
0.980392 0.164706 0.015686
0.972549 0.176471 0.007843
0.015686 0.015686 0.007843
0.019608 0.027451 0.007843
0.031373 0.039216 0.019608
0.066667 0.035294 0.027451
0.098039 0.047059 0.015686
0.133333 0.054902 0.019608
0.176471 0.066667 0.019608
0.227451 0.070588 0.023529
0.290196 0.082353 0.019608
0.360784 0.082353 0.011765
0.431373 0.082353 0.019608
0.498039 0.074510 0.023529
0.560784 0.078431 0.019608
0.603922 0.062745 0.019608
0.666667 0.050980 0.023529
0.713725 0.070588 0.031373
0.760784 0.090196 0.023529
0.800000 0.105882 0.027451
0.839216 0.117647 0.023529
0.866667 0.129412 0.015686
0.890196 0.152941 0.015686
0.921569 0.168627 0.023529
0.949020 0.184314 0.011765
0.972549 0.196078 0.019608
0.984314 0.196078 0.015686
0.011765 0.031373 0.015686
0.019608 0.039216 0.011765
0.043137 0.047059 0.015686
0.058824 0.066667 0.023529
0.090196 0.066667 0.019608
0.141176 0.090196 0.023529
0.188235 0.098039 0.027451
0.243137 0.105882 0.019608
0.298039 0.117647 0.015686
0.376471 0.125490 0.015686
0.447059 0.129412 0.023529
0.517647 0.125490 0.023529
0.576471 0.125490 0.011765
0.627451 0.117647 0.023529
0.678431 0.101961 0.023529
0.729412 0.105882 0.023529
0.768627 0.125490 0.019608
0.803922 0.149020 0.015686
0.843137 0.168627 0.011765
0.870588 0.184314 0.015686
0.890196 0.188235 0.019608
0.921569 0.207843 0.011765
0.949020 0.215686 0.015686
0.976471 0.227451 0.015686
0.972549 0.231373 0.011765
0.023529 0.078431 0.027451
0.019608 0.086275 0.023529
0.031373 0.090196 0.015686
0.058824 0.094118 0.019608
0.086275 0.105882 0.015686
0.137255 0.121569 0.023529
0.184314 0.129412 0.015686
0.239216 0.149020 0.015686
0.313725 0.164706 0.019608
0.380392 0.172549 0.015686
0.462745 0.168627 0.011765
0.533333 0.172549 0.019608
0.592157 0.176471 0.019608
0.639216 0.172549 0.015686
0.690196 0.164706 0.019608
0.729412 0.172549 0.023529
0.768627 0.184314 0.019608
0.807843 0.192157 0.015686
0.839216 0.203922 0.011765
0.870588 0.215686 0.007843
0.898039 0.235294 0.011765
0.925490 0.247059 0.019608
0.952941 0.254902 0.019608
0.972549 0.258824 0.011765
0.976471 0.254902 0.011765
0.011765 0.137255 0.043137
0.019608 0.137255 0.035294
0.019608 0.137255 0.027451
0.043137 0.141176 0.023529
0.082353 0.141176 0.019608
0.133333 0.156863 0.023529
0.188235 0.172549 0.023529
0.247059 0.196078 0.023529
0.321569 0.211765 0.023529
0.388235 0.219608 0.011765
0.474510 0.227451 0.015686
0.545098 0.235294 0.015686
0.607843 0.235294 0.023529
0.650980 0.231373 0.019608
0.701961 0.223529 0.023529
0.752941 0.227451 0.019608
0.788235 0.243137 0.027451
0.815686 0.243137 0.011765
0.847059 0.247059 0.011765
0.870588 0.262745 0.011765
0.898039 0.274510 0.015686
0.929412 0.282353 0.023529
0.945098 0.282353 0.019608
0.968627 0.282353 0.019608
0.972549 0.290196 0.011765
0.019608 0.192157 0.062745
0.011765 0.192157 0.047059
0.023529 0.184314 0.050980
0.039216 0.188235 0.035294
0.070588 0.196078 0.011765
0.149020 0.211765 0.035294
0.192157 0.227451 0.011765
0.250980 0.239216 0.023529
0.325490 0.262745 0.027451
0.411765 0.274510 0.015686
0.482353 0.286275 0.007843
0.556863 0.286275 0.015686
0.611765 0.286275 0.027451
0.670588 0.286275 0.031373
0.717647 0.278431 0.027451
0.756863 0.282353 0.011765
0.796078 0.294118 0.015686
0.827451 0.290196 0.007843
0.850980 0.294118 0.011765
0.882353 0.301961 0.019608
0.909804 0.313725 0.019608
0.929412 0.317647 0.023529
0.949020 0.317647 0.011765
0.964706 0.313725 0.015686
0.976471 0.321569 0.015686
0.011765 0.250980 0.078431
0.015686 0.247059 0.074510
0.019608 0.250980 0.078431
0.027451 0.247059 0.062745
0.074510 0.258824 0.047059
0.145098 0.266667 0.031373
0.200000 0.282353 0.011765
0.270588 0.301961 0.015686
0.333333 0.301961 0.007843
0.419608 0.317647 0.023529
0.501961 0.341176 0.019608
0.568627 0.349020 0.015686
0.623529 0.341176 0.011765
0.682353 0.341176 0.027451
0.721569 0.345098 0.015686
0.768627 0.341176 0.019608
0.796078 0.341176 0.015686
0.827451 0.337255 0.007843
0.858824 0.341176 0.015686
0.890196 0.345098 0.019608
0.913725 0.349020 0.011765
0.937255 0.349020 0.015686
0.956863 0.352941 0.015686
0.949020 0.364706 0.011765
0.956863 0.364706 0.015686
0.027451 0.309804 0.113725
0.023529 0.313725 0.121569
0.015686 0.317647 0.098039
0.023529 0.309804 0.101961
0.074510 0.325490 0.086275
0.149020 0.325490 0.054902
0.211765 0.349020 0.035294
0.290196 0.360784 0.023529
0.352941 0.368627 0.027451
0.415686 0.360784 0.011765
0.494118 0.380392 0.011765
0.572549 0.400000 0.027451
0.623529 0.396078 0.015686
0.670588 0.396078 0.011765
0.717647 0.392157 0.015686
0.768627 0.388235 0.015686
0.800000 0.392157 0.019608
0.831373 0.388235 0.019608
0.858824 0.392157 0.023529
0.878431 0.392157 0.015686
0.913725 0.396078 0.011765
0.941176 0.392157 0.011765
0.949020 0.388235 0.011765
0.956863 0.392157 0.015686
0.952941 0.403922 0.019608
0.031373 0.364706 0.133333
0.023529 0.376471 0.133333
0.019608 0.372549 0.121569
0.023529 0.372549 0.121569
0.066667 0.380392 0.101961
0.168627 0.396078 0.094118
0.239216 0.392157 0.066667
0.301961 0.403922 0.047059
0.364706 0.423529 0.027451
0.423529 0.427451 0.027451
0.466667 0.407843 0.003922
0.533333 0.427451 0.007843
0.600000 0.431373 0.019608
0.654902 0.431373 0.011765
0.701961 0.431373 0.023529
0.749020 0.431373 0.011765
0.792157 0.435294 0.023529
0.819608 0.435294 0.015686
0.854902 0.435294 0.027451
0.882353 0.439216 0.023529
0.913725 0.439216 0.027451
0.933333 0.435294 0.023529
0.949020 0.435294 0.019608
0.960784 0.431373 0.019608
0.972549 0.435294 0.027451
0.027451 0.431373 0.160784
0.027451 0.431373 0.160784
0.019608 0.435294 0.152941
0.035294 0.435294 0.145098
0.090196 0.427451 0.141176
0.188235 0.439216 0.141176
0.270588 0.447059 0.121569
0.321569 0.458824 0.098039
0.380392 0.470588 0.062745
0.423529 0.474510 0.027451
0.482353 0.478431 0.023529
0.517647 0.454902 0.011765
0.580392 0.462745 0.023529
0.631373 0.470588 0.023529
0.686275 0.470588 0.015686
0.725490 0.466667 0.023529
0.772549 0.478431 0.027451
0.815686 0.482353 0.015686
0.850980 0.486275 0.011765
0.878431 0.490196 0.031373
0.901961 0.486275 0.023529
0.933333 0.482353 0.015686
0.949020 0.474510 0.015686
0.968627 0.470588 0.027451
0.972549 0.474510 0.015686
0.027451 0.486275 0.180392
0.039216 0.478431 0.188235
0.031373 0.490196 0.184314
0.074510 0.482353 0.172549
0.149020 0.474510 0.168627
0.227451 0.490196 0.180392
0.290196 0.498039 0.176471
0.337255 0.494118 0.156863
0.380392 0.501961 0.133333
0.439216 0.513725 0.090196
0.486275 0.525490 0.047059
0.525490 0.521569 0.027451
0.556863 0.501961 0.019608
0.615686 0.505882 0.015686
0.662745 0.505882 0.019608
0.709804 0.509804 0.019608
0.752941 0.521569 0.027451
0.796078 0.525490 0.019608
0.839216 0.529412 0.015686
0.878431 0.529412 0.019608
0.905882 0.521569 0.023529
0.929412 0.517647 0.019608
0.956863 0.509804 0.019608
0.964706 0.513725 0.007843
0.972549 0.509804 0.023529
0.035294 0.537255 0.211765
0.062745 0.521569 0.211765
0.098039 0.517647 0.211765
0.145098 0.525490 0.207843
0.207843 0.517647 0.207843
0.270588 0.533333 0.219608
0.313725 0.541176 0.211765
0.352941 0.541176 0.211765
0.396078 0.549020 0.200000
0.431373 0.549020 0.172549
0.486275 0.560784 0.137255
0.533333 0.568627 0.078431
0.576471 0.560784 0.035294
0.600000 0.533333 0.015686
0.643137 0.537255 0.023529
0.694118 0.541176 0.027451
0.745098 0.549020 0.019608
0.788235 0.564706 0.019608
0.823529 0.564706 0.015686
0.862745 0.564706 0.023529
0.901961 0.564706 0.027451
0.925490 0.556863 0.023529
0.949020 0.556863 0.019608
0.980392 0.549020 0.011765
0.988235 0.549020 0.015686
0.094118 0.560784 0.239216
0.145098 0.545098 0.247059
0.176471 0.545098 0.247059
0.223529 0.545098 0.247059
0.266667 0.556863 0.254902
0.325490 0.580392 0.266667
0.360784 0.588235 0.258824
0.376471 0.580392 0.247059
0.400000 0.580392 0.235294
0.443137 0.584314 0.231373
0.486275 0.588235 0.207843
0.537255 0.592157 0.156863
0.588235 0.607843 0.113725
0.619608 0.596078 0.062745
0.631373 0.580392 0.031373
0.670588 0.580392 0.023529
0.725490 0.588235 0.023529
0.776471 0.596078 0.019608
0.819608 0.600000 0.023529
0.850980 0.600000 0.015686
0.886275 0.603922 0.027451
0.913725 0.600000 0.023529
0.952941 0.592157 0.015686
0.964706 0.588235 0.015686
0.988235 0.588235 0.011765
0.196078 0.580392 0.278431
0.219608 0.580392 0.278431
0.239216 0.576471 0.282353
0.290196 0.576471 0.290196
0.325490 0.603922 0.305882
0.364706 0.619608 0.298039
0.392157 0.623529 0.301961
0.411765 0.619608 0.298039
0.423529 0.611765 0.274510
0.450980 0.623529 0.274510
0.486275 0.615686 0.258824
0.541176 0.619608 0.231373
0.580392 0.635294 0.192157
0.623529 0.639216 0.168627
0.647059 0.631373 0.109804
0.670588 0.619608 0.070588
0.717647 0.623529 0.027451
0.768627 0.631373 0.035294
0.803922 0.635294 0.023529
0.835294 0.635294 0.031373
0.882353 0.635294 0.019608
0.909804 0.639216 0.027451
0.941176 0.635294 0.015686
0.976471 0.635294 0.019608
0.980392 0.627451 0.007843
0.290196 0.611765 0.329412
0.309804 0.611765 0.329412
0.317647 0.615686 0.321569
0.341176 0.627451 0.317647
0.372549 0.635294 0.325490
0.403922 0.647059 0.345098
0.419608 0.650980 0.337255
0.435294 0.650980 0.325490
0.454902 0.643137 0.345098
0.474510 0.643137 0.329412
0.501961 0.650980 0.317647
0.529412 0.647059 0.294118
0.576471 0.662745 0.270588
0.615686 0.666667 0.250980
0.647059 0.662745 0.219608
0.674510 0.666667 0.192157
0.701961 0.647059 0.125490
0.752941 0.658824 0.070588
0.796078 0.670588 0.031373
0.839216 0.674510 0.031373
0.878431 0.666667 0.035294
0.913725 0.674510 0.023529
0.941176 0.670588 0.019608
0.972549 0.678431 0.007843
0.996078 0.674510 0.007843
0.364706 0.639216 0.356863
0.368627 0.647059 0.372549
0.396078 0.658824 0.356863
0.384314 0.658824 0.376471
0.407843 0.666667 0.376471
0.431373 0.674510 0.380392
0.466667 0.670588 0.380392
0.470588 0.674510 0.380392
0.482353 0.670588 0.380392
0.490196 0.674510 0.368627
0.513725 0.678431 0.356863
0.549020 0.682353 0.345098
0.580392 0.682353 0.325490
0.615686 0.694118 0.305882
0.647059 0.694118 0.294118
0.686275 0.701961 0.258824
0.709804 0.690196 0.227451
0.733333 0.682353 0.168627
0.772549 0.686275 0.113725
0.823529 0.694118 0.078431
0.862745 0.698039 0.062745
0.909804 0.709804 0.054902
0.941176 0.713725 0.047059
0.968627 0.709804 0.035294
1.000000 0.705882 0.035294
0.411765 0.674510 0.396078
0.443137 0.682353 0.407843
0.443137 0.690196 0.415686
0.454902 0.686275 0.419608
0.454902 0.694118 0.431373
0.478431 0.694118 0.431373
0.494118 0.701961 0.427451
0.498039 0.701961 0.419608
0.501961 0.698039 0.419608
0.521569 0.698039 0.427451
0.537255 0.694118 0.407843
0.560784 0.705882 0.392157
0.580392 0.713725 0.376471
0.603922 0.721569 0.384314
0.643137 0.725490 0.352941
0.682353 0.729412 0.337255
0.717647 0.733333 0.301961
0.737255 0.729412 0.254902
0.772549 0.721569 0.207843
0.807843 0.725490 0.164706
0.854902 0.733333 0.137255
0.894118 0.737255 0.121569
0.933333 0.737255 0.105882
0.968627 0.733333 0.113725
0.980392 0.733333 0.094118
0.482353 0.721569 0.450980
0.482353 0.713725 0.454902
0.486275 0.717647 0.458824
0.494118 0.717647 0.450980
0.505882 0.721569 0.466667
0.505882 0.721569 0.458824
0.521569 0.725490 0.466667
0.529412 0.725490 0.478431
0.537255 0.729412 0.474510
0.556863 0.733333 0.462745
0.564706 0.733333 0.454902
0.568627 0.733333 0.450980
0.584314 0.733333 0.431373
0.607843 0.745098 0.431373
0.643137 0.741176 0.415686
0.682353 0.756863 0.403922
0.713725 0.756863 0.380392
0.749020 0.756863 0.360784
0.772549 0.760784 0.317647
0.800000 0.756863 0.262745
0.839216 0.760784 0.231373
0.890196 0.760784 0.215686
0.929412 0.768627 0.203922
0.956863 0.756863 0.188235
0.976471 0.764706 0.184314
0.513725 0.749020 0.498039
0.517647 0.749020 0.498039
0.521569 0.741176 0.501961
0.533333 0.749020 0.494118
0.537255 0.749020 0.505882
0.552941 0.756863 0.505882
0.556863 0.760784 0.501961
0.560784 0.756863 0.509804
0.588235 0.760784 0.529412
0.592157 0.752941 0.525490
0.588235 0.760784 0.513725
0.584314 0.760784 0.498039
0.603922 0.764706 0.490196
0.627451 0.768627 0.486275
0.647059 0.772549 0.486275
0.666667 0.772549 0.454902
0.701961 0.780392 0.447059
0.741176 0.784314 0.415686
0.768627 0.792157 0.407843
0.800000 0.796078 0.380392
0.843137 0.784314 0.325490
0.866667 0.788235 0.305882
0.917647 0.800000 0.282353
0.945098 0.796078 0.258824
0.976471 0.807843 0.254902
0.560784 0.780392 0.541176
0.564706 0.776471 0.541176
0.560784 0.772549 0.537255
0.564706 0.776471 0.541176
0.580392 0.780392 0.549020
0.576471 0.788235 0.560784
0.584314 0.784314 0.560784
0.603922 0.780392 0.556863
0.592157 0.788235 0.556863
0.607843 0.784314 0.560784
0.615686 0.784314 0.564706
0.623529 0.788235 0.541176
0.635294 0.788235 0.525490
0.647059 0.792157 0.529412
0.654902 0.796078 0.521569
0.678431 0.796078 0.505882
0.709804 0.803922 0.498039
0.741176 0.811765 0.482353
0.772549 0.811765 0.470588
0.800000 0.819608 0.458824
0.835294 0.819608 0.427451
0.866667 0.819608 0.388235
0.905882 0.823529 0.364706
0.945098 0.835294 0.352941
0.980392 0.835294 0.325490
0.592157 0.800000 0.580392
0.596078 0.811765 0.596078
0.592157 0.800000 0.580392
0.611765 0.811765 0.592157
0.615686 0.800000 0.596078
0.623529 0.807843 0.592157
0.631373 0.815686 0.600000
0.639216 0.811765 0.611765
0.643137 0.811765 0.603922
0.647059 0.823529 0.607843
0.639216 0.811765 0.603922
0.654902 0.811765 0.603922
0.658824 0.819608 0.600000
0.666667 0.823529 0.588235
0.682353 0.815686 0.580392
0.690196 0.827451 0.568627
0.717647 0.831373 0.572549
0.741176 0.831373 0.556863
0.768627 0.839216 0.541176
0.803922 0.850980 0.529412
0.839216 0.850980 0.509804
0.878431 0.854902 0.486275
0.905882 0.847059 0.450980
0.941176 0.854902 0.415686
0.964706 0.862745 0.427451
0.635294 0.831373 0.639216
0.643137 0.839216 0.639216
0.650980 0.839216 0.635294
0.647059 0.835294 0.647059
0.647059 0.835294 0.631373
0.658824 0.843137 0.639216
0.662745 0.843137 0.658824
0.670588 0.843137 0.650980
0.674510 0.847059 0.654902
0.670588 0.843137 0.650980
0.682353 0.847059 0.650980
0.686275 0.843137 0.647059
0.690196 0.847059 0.643137
0.698039 0.850980 0.643137
0.694118 0.854902 0.627451
0.717647 0.854902 0.627451
0.733333 0.854902 0.619608
0.752941 0.866667 0.615686
0.784314 0.866667 0.611765
0.811765 0.870588 0.600000
0.847059 0.878431 0.584314
0.870588 0.882353 0.580392
0.894118 0.886275 0.560784
0.921569 0.886275 0.513725
0.941176 0.894118 0.501961
0.682353 0.866667 0.694118
0.686275 0.862745 0.694118
0.690196 0.866667 0.705882
0.690196 0.874510 0.694118
0.686275 0.866667 0.686275
0.694118 0.870588 0.701961
0.705882 0.866667 0.694118
0.705882 0.874510 0.705882
0.709804 0.878431 0.709804
0.709804 0.870588 0.698039
0.713725 0.874510 0.709804
0.717647 0.878431 0.705882
0.725490 0.878431 0.694118
0.725490 0.878431 0.694118
0.737255 0.878431 0.690196
0.741176 0.886275 0.686275
0.749020 0.894118 0.682353
0.776471 0.898039 0.674510
0.796078 0.894118 0.666667
0.815686 0.901961 0.658824
0.831373 0.901961 0.658824
0.862745 0.913725 0.643137
0.878431 0.917647 0.631373
0.901961 0.917647 0.615686
0.909804 0.913725 0.600000
0.725490 0.890196 0.741176
0.725490 0.890196 0.741176
0.717647 0.894118 0.741176
0.721569 0.898039 0.745098
0.729412 0.894118 0.745098
0.737255 0.901961 0.745098
0.737255 0.905882 0.737255
0.725490 0.901961 0.741176
0.741176 0.901961 0.745098
0.745098 0.894118 0.741176
0.756863 0.905882 0.752941
0.760784 0.909804 0.749020
0.749020 0.917647 0.749020
0.760784 0.905882 0.737255
0.756863 0.905882 0.721569
0.764706 0.909804 0.737255
0.780392 0.925490 0.725490
0.796078 0.929412 0.733333
0.803922 0.933333 0.725490
0.819608 0.933333 0.721569
0.835294 0.933333 0.709804
0.854902 0.937255 0.705882
0.870588 0.933333 0.690196
0.886275 0.945098 0.690196
0.890196 0.937255 0.678431
0.015686 0.007843 0.019608
0.019608 0.011765 0.023529
0.035294 0.015686 0.031373
0.054902 0.019608 0.031373
0.082353 0.019608 0.023529
0.105882 0.023529 0.019608
0.152941 0.019608 0.015686
0.219608 0.023529 0.027451
0.282353 0.027451 0.011765
0.349020 0.031373 0.019608
0.419608 0.027451 0.027451
0.486275 0.019608 0.027451
0.545098 0.019608 0.023529
0.603922 0.023529 0.023529
0.666667 0.027451 0.039216
0.709804 0.027451 0.035294
0.756863 0.035294 0.027451
0.792157 0.031373 0.023529
0.827451 0.035294 0.019608
0.862745 0.050980 0.027451
0.894118 0.070588 0.019608
0.917647 0.098039 0.019608
0.941176 0.125490 0.015686
0.972549 0.156863 0.015686
0.976471 0.160784 0.011765
0.015686 0.015686 0.015686
0.011765 0.019608 0.000000
0.047059 0.023529 0.023529
0.058824 0.023529 0.027451
0.090196 0.035294 0.031373
0.121569 0.027451 0.027451
0.160784 0.039216 0.031373
0.227451 0.039216 0.031373
0.278431 0.039216 0.019608
0.356863 0.047059 0.019608
0.419608 0.039216 0.015686
0.490196 0.027451 0.027451
0.552941 0.027451 0.023529
0.607843 0.027451 0.019608
0.658824 0.031373 0.031373
0.713725 0.031373 0.027451
0.760784 0.039216 0.031373
0.800000 0.043137 0.023529
0.827451 0.050980 0.015686
0.862745 0.062745 0.019608
0.894118 0.090196 0.015686
0.925490 0.121569 0.015686
0.952941 0.141176 0.015686
0.972549 0.164706 0.019608
0.972549 0.176471 0.019608
0.019608 0.027451 0.015686
0.027451 0.027451 0.019608
0.039216 0.035294 0.019608
0.054902 0.039216 0.027451
0.086275 0.043137 0.027451
0.129412 0.050980 0.023529
0.188235 0.054902 0.015686
0.243137 0.070588 0.035294
0.298039 0.070588 0.023529
0.364706 0.078431 0.019608
0.427451 0.066667 0.015686
0.505882 0.070588 0.027451
0.564706 0.070588 0.023529
0.615686 0.062745 0.027451
0.666667 0.043137 0.027451
0.713725 0.050980 0.031373
0.764706 0.066667 0.027451
0.800000 0.082353 0.027451
0.839216 0.090196 0.015686
0.862745 0.113725 0.011765
0.886275 0.141176 0.007843
0.905882 0.164706 0.007843
0.956863 0.176471 0.011765
0.980392 0.188235 0.031373
0.988235 0.196078 0.015686
0.003922 0.039216 0.027451
0.023529 0.050980 0.023529
0.035294 0.062745 0.031373
0.058824 0.066667 0.015686
0.094118 0.066667 0.027451
0.145098 0.082353 0.031373
0.192157 0.090196 0.031373
0.247059 0.101961 0.031373
0.301961 0.113725 0.027451
0.376471 0.117647 0.015686
0.450980 0.121569 0.019608
0.517647 0.117647 0.027451
0.580392 0.113725 0.027451
0.623529 0.113725 0.027451
0.674510 0.098039 0.019608
0.725490 0.101961 0.015686
0.764706 0.121569 0.023529
0.800000 0.129412 0.027451
0.827451 0.141176 0.019608
0.862745 0.164706 0.015686
0.894118 0.184314 0.015686
0.921569 0.196078 0.011765
0.952941 0.207843 0.011765
0.972549 0.223529 0.019608
0.972549 0.231373 0.015686
0.011765 0.082353 0.027451
0.011765 0.094118 0.035294
0.035294 0.101961 0.039216
0.062745 0.105882 0.039216
0.098039 0.109804 0.035294
0.141176 0.125490 0.027451
0.196078 0.133333 0.035294
0.258824 0.152941 0.039216
0.317647 0.160784 0.019608
0.388235 0.172549 0.019608
0.462745 0.164706 0.023529
0.533333 0.164706 0.015686
0.600000 0.168627 0.023529
0.647059 0.168627 0.015686
0.686275 0.168627 0.019608
0.729412 0.172549 0.015686
0.768627 0.172549 0.011765
0.803922 0.184314 0.007843
0.843137 0.196078 0.019608
0.866667 0.207843 0.015686
0.894118 0.223529 0.011765
0.921569 0.235294 0.011765
0.949020 0.250980 0.015686
0.964706 0.247059 0.011765
0.976471 0.254902 0.019608
0.007843 0.141176 0.043137
0.011765 0.137255 0.043137
0.023529 0.152941 0.047059
0.050980 0.152941 0.039216
0.090196 0.156863 0.031373
0.141176 0.168627 0.035294
0.200000 0.180392 0.023529
0.262745 0.196078 0.027451
0.329412 0.207843 0.023529
0.396078 0.215686 0.019608
0.478431 0.219608 0.015686
0.541176 0.223529 0.015686
0.607843 0.227451 0.019608
0.654902 0.223529 0.023529
0.701961 0.223529 0.023529
0.752941 0.231373 0.011765
0.776471 0.231373 0.015686
0.807843 0.235294 0.011765
0.847059 0.239216 0.015686
0.874510 0.254902 0.015686
0.909804 0.270588 0.015686
0.933333 0.274510 0.019608
0.952941 0.278431 0.019608
0.972549 0.278431 0.011765
0.980392 0.286275 0.023529
0.007843 0.192157 0.058824
0.007843 0.192157 0.058824
0.023529 0.196078 0.058824
0.043137 0.203922 0.047059
0.082353 0.203922 0.031373
0.145098 0.223529 0.031373
0.219608 0.235294 0.035294
0.262745 0.243137 0.023529
0.333333 0.254902 0.023529
0.419608 0.270588 0.015686
0.490196 0.282353 0.015686
0.556863 0.286275 0.015686
0.615686 0.282353 0.019608
0.670588 0.282353 0.015686
0.721569 0.278431 0.011765
0.749020 0.290196 0.027451
0.784314 0.286275 0.015686
0.815686 0.290196 0.011765
0.847059 0.294118 0.015686
0.878431 0.298039 0.015686
0.901961 0.305882 0.011765
0.929412 0.317647 0.015686
0.952941 0.321569 0.007843
0.968627 0.317647 0.019608
0.976471 0.321569 0.011765
0.007843 0.247059 0.074510
0.011765 0.250980 0.086275
0.011765 0.250980 0.086275
0.035294 0.254902 0.078431
0.078431 0.258824 0.066667
0.156863 0.278431 0.047059
0.215686 0.294118 0.023529
0.278431 0.309804 0.023529
0.345098 0.309804 0.015686
0.411765 0.321569 0.015686
0.501961 0.341176 0.019608
0.560784 0.349020 0.011765
0.619608 0.341176 0.019608
0.678431 0.345098 0.027451
0.729412 0.333333 0.019608
0.764706 0.337255 0.015686
0.792157 0.333333 0.019608
0.819608 0.337255 0.023529
0.850980 0.337255 0.023529
0.878431 0.341176 0.023529
0.905882 0.349020 0.019608
0.937255 0.356863 0.019608
0.952941 0.360784 0.011765
0.964706 0.352941 0.019608
0.972549 0.360784 0.019608
0.015686 0.313725 0.129412
0.027451 0.313725 0.133333
0.027451 0.313725 0.105882
0.023529 0.305882 0.109804
0.086275 0.325490 0.094118
0.156863 0.333333 0.070588
0.223529 0.349020 0.050980
0.294118 0.364706 0.027451
0.352941 0.360784 0.031373
0.419608 0.364706 0.019608
0.498039 0.384314 0.023529
0.572549 0.400000 0.019608
0.615686 0.400000 0.007843
0.682353 0.392157 0.011765
0.717647 0.388235 0.011765
0.760784 0.392157 0.015686
0.796078 0.392157 0.019608
0.831373 0.388235 0.019608
0.858824 0.384314 0.019608
0.890196 0.392157 0.019608
0.917647 0.392157 0.019608
0.941176 0.400000 0.015686
0.952941 0.392157 0.015686
0.949020 0.400000 0.019608
0.972549 0.396078 0.023529
0.023529 0.380392 0.149020
0.031373 0.376471 0.141176
0.027451 0.380392 0.137255
0.031373 0.376471 0.137255
0.082353 0.384314 0.117647
0.176471 0.403922 0.113725
0.250980 0.396078 0.090196
0.313725 0.407843 0.070588
0.364706 0.419608 0.035294
0.427451 0.431373 0.031373
0.478431 0.419608 0.015686
0.545098 0.439216 0.019608
0.607843 0.443137 0.019608
0.650980 0.439216 0.015686
0.705882 0.439216 0.019608
0.752941 0.435294 0.023529
0.792157 0.435294 0.015686
0.819608 0.435294 0.015686
0.854902 0.435294 0.019608
0.882353 0.443137 0.019608
0.901961 0.439216 0.023529
0.933333 0.443137 0.027451
0.952941 0.435294 0.011765
0.972549 0.435294 0.019608
0.976471 0.431373 0.019608
0.035294 0.431373 0.172549
0.035294 0.431373 0.172549
0.043137 0.439216 0.172549
0.062745 0.439216 0.160784
0.117647 0.431373 0.152941
0.207843 0.443137 0.160784
0.278431 0.450980 0.149020
0.325490 0.458824 0.129412
0.384314 0.466667 0.101961
