JustShoot/Resources/KodakVision5203.cube
#Generated with IWLTBAP LUT Generator
#Website: http://luts.iwltbap.com
TITLE "5203"
#LUT size
LUT_3D_SIZE 5
#LUT data points
0.121569 0.109804 0.090196
0.317647 0.121569 0.117647
0.596078 0.200000 0.168627
0.800000 0.223529 0.262745
0.823529 0.215686 0.270588
0.090196 0.317647 0.121569
0.286275 0.301961 0.062745
0.666667 0.321569 0.125490
0.858824 0.270588 0.203922
0.862745 0.262745 0.207843
0.098039 0.521569 0.294118
0.086275 0.525490 0.243137
0.619608 0.564706 0.215686
0.890196 0.549020 0.137255
0.890196 0.529412 0.141176
0.090196 0.694118 0.407843
0.086275 0.705882 0.372549
0.372549 0.721569 0.392157
0.874510 0.752941 0.400000
0.917647 0.729412 0.337255
0.113725 0.756863 0.486275
0.117647 0.752941 0.466667
0.294118 0.764706 0.482353
0.811765 0.815686 0.541176
0.925490 0.803922 0.588235
0.109804 0.250980 0.345098
0.372549 0.200000 0.329412
0.607843 0.227451 0.294118
0.788235 0.250980 0.321569
0.796078 0.231373 0.368627
0.145098 0.329412 0.290196
0.333333 0.368627 0.301961
0.639216 0.380392 0.325490
0.823529 0.352941 0.356863
0.839216 0.376471 0.376471
0.137255 0.525490 0.345098
0.121569 0.545098 0.352941
0.615686 0.584314 0.337255
0.882353 0.576471 0.325490
0.882353 0.564706 0.349020
0.090196 0.709804 0.470588
0.094118 0.717647 0.458824
0.376471 0.737255 0.450980
0.870588 0.764706 0.494118
0.925490 0.749020 0.482353
0.137255 0.772549 0.588235
0.145098 0.776471 0.572549
0.360784 0.800000 0.568627
0.827451 0.839216 0.631373
0.933333 0.835294 0.674510
0.211765 0.427451 0.639216
0.400000 0.450980 0.654902
0.674510 0.380392 0.635294
0.827451 0.250980 0.556863
0.847059 0.266667 0.572549
0.243137 0.458824 0.619608
0.368627 0.494118 0.654902
0.666667 0.470588 0.678431
0.862745 0.439216 0.631373
0.874510 0.501961 0.619608
0.294118 0.611765 0.627451
0.376471 0.627451 0.662745
0.650980 0.674510 0.674510
0.843137 0.686275 0.686275
0.878431 0.690196 0.690196
0.129412 0.760784 0.701961
0.294118 0.772549 0.713725
0.545098 0.788235 0.698039
0.878431 0.819608 0.729412
0.937255 0.823529 0.752941
0.407843 0.815686 0.772549
0.498039 0.819608 0.764706
0.600000 0.831373 0.752941
0.839216 0.854902 0.788235
0.933333 0.862745 0.807843
0.427451 0.580392 0.811765
0.490196 0.596078 0.811765
0.650980 0.592157 0.823529
0.854902 0.537255 0.807843
0.905882 0.552941 0.835294
0.396078 0.600000 0.823529
0.462745 0.619608 0.823529
0.666667 0.631373 0.847059
0.874510 0.603922 0.850980
0.913725 0.627451 0.847059
0.368627 0.694118 0.811765
0.466667 0.701961 0.835294
0.654902 0.733333 0.839216
0.866667 0.733333 0.862745
0.905882 0.749020 0.854902
0.443137 0.792157 0.815686
0.509804 0.800000 0.835294
0.666667 0.827451 0.843137
0.858824 0.854902 0.878431
0.913725 0.862745 0.890196
0.564706 0.854902 0.858824
0.615686 0.854902 0.858824
0.721569 0.874510 0.870588
0.874510 0.890196 0.886275
0.925490 0.905882 0.894118
0.439216 0.592157 0.847059
0.509804 0.611765 0.835294
0.631373 0.600000 0.835294
0.815686 0.576471 0.847059
0.909804 0.576471 0.831373
0.388235 0.603922 0.827451
0.462745 0.615686 0.831373
0.635294 0.635294 0.847059
0.819608 0.627451 0.847059
0.901961 0.639216 0.850980
0.458824 0.698039 0.819608
0.509804 0.709804 0.831373
0.647059 0.725490 0.831373
0.827451 0.737255 0.850980
0.905882 0.749020 0.850980
0.533333 0.784314 0.831373
0.588235 0.796078 0.827451
0.701961 0.815686 0.847059
0.858824 0.854902 0.874510
0.913725 0.866667 0.882353
0.611765 0.847059 0.850980
0.658824 0.858824 0.862745
0.752941 0.870588 0.862745
0.901961 0.898039 0.882353
0.929412 0.894118 0.898039
