JustShoot/Resources/Kodak5207.cube
#Generated with IWLTBAP LUT Generator
#Website: http://luts.iwltbap.com
TITLE "ORI"
#LUT size
LUT_3D_SIZE 5
#LUT data points
0.043137 0.019608 0.035294
0.176471 0.043137 0.047059
0.501961 0.050980 0.039216
0.796078 0.074510 0.027451
0.874510 0.152941 0.043137
0.094118 0.164706 0.101961
0.211765 0.215686 0.090196
0.509804 0.168627 0.058824
0.776471 0.082353 0.043137
0.874510 0.176471 0.058824
0.160784 0.458824 0.168627
0.200000 0.470588 0.156863
0.564706 0.564706 0.094118
0.800000 0.533333 0.043137
0.898039 0.447059 0.082353
0.450980 0.752941 0.384314
0.427451 0.741176 0.360784
0.521569 0.768627 0.349020
0.827451 0.835294 0.266667
0.898039 0.843137 0.313725
0.639216 0.843137 0.592157
0.639216 0.843137 0.584314
0.654902 0.835294 0.592157
0.780392 0.878431 0.549020
0.901961 0.894118 0.592157
0.043137 0.015686 0.137255
0.192157 0.058824 0.164706
0.521569 0.078431 0.156863
0.752941 0.109804 0.152941
0.858824 0.184314 0.176471
0.094118 0.207843 0.262745
0.235294 0.239216 0.254902
0.552941 0.274510 0.203922
0.764706 0.219608 0.129412
0.870588 0.207843 0.133333
0.168627 0.470588 0.407843
0.235294 0.466667 0.380392
0.568627 0.552941 0.305882
0.807843 0.600000 0.223529
0.894118 0.505882 0.180392
0.376471 0.686275 0.564706
0.364706 0.670588 0.576471
0.513725 0.698039 0.517647
0.819608 0.800000 0.407843
0.905882 0.831373 0.360784
0.615686 0.811765 0.662745
0.619608 0.815686 0.666667
0.631373 0.823529 0.639216
0.792157 0.870588 0.592157
0.901961 0.894118 0.603922
0.023529 0.047059 0.376471
0.180392 0.086275 0.384314
0.529412 0.117647 0.388235
0.725490 0.164706 0.345098
0.835294 0.262745 0.407843
0.062745 0.168627 0.447059
0.223529 0.227451 0.447059
0.529412 0.286275 0.447059
0.756863 0.333333 0.423529
0.858824 0.380392 0.431373
0.172549 0.462745 0.600000
0.239216 0.462745 0.576471
0.568627 0.564706 0.584314
0.807843 0.619608 0.533333
0.894118 0.635294 0.541176
0.392157 0.682353 0.725490
0.356863 0.654902 0.705882
0.498039 0.690196 0.705882
0.811765 0.796078 0.658824
0.913725 0.835294 0.639216
0.592157 0.796078 0.780392
0.584314 0.800000 0.780392
0.592157 0.796078 0.788235
0.780392 0.843137 0.737255
0.898039 0.882353 0.733333
0.007843 0.133333 0.615686
0.058824 0.145098 0.623529
0.490196 0.207843 0.607843
0.756863 0.231373 0.564706
0.847059 0.380392 0.607843
0.007843 0.121569 0.615686
0.047059 0.145098 0.611765
0.466667 0.203922 0.607843
0.764706 0.317647 0.600000
0.866667 0.450980 0.639216
0.188235 0.478431 0.756863
0.309804 0.505882 0.752941
0.596078 0.576471 0.737255
0.788235 0.611765 0.725490
0.874510 0.643137 0.721569
0.388235 0.666667 0.831373
0.388235 0.670588 0.827451
0.564706 0.701961 0.811765
0.823529 0.800000 0.815686
0.894118 0.823529 0.815686
0.588235 0.796078 0.858824
0.611765 0.788235 0.862745
0.647059 0.800000 0.866667
0.819608 0.854902 0.874510
0.901961 0.882353 0.858824
0.015686 0.200000 0.741176
0.062745 0.211765 0.749020
0.435294 0.290196 0.733333
0.796078 0.349020 0.721569
0.847059 0.482353 0.756863
0.027451 0.196078 0.749020
0.109804 0.211765 0.749020
0.443137 0.298039 0.741176
0.800000 0.396078 0.752941
0.847059 0.498039 0.764706
0.133333 0.427451 0.827451
0.211765 0.439216 0.827451
0.533333 0.505882 0.811765
0.796078 0.580392 0.803922
0.850980 0.623529 0.811765
0.380392 0.682353 0.894118
0.396078 0.682353 0.898039
0.615686 0.725490 0.882353
0.831373 0.796078 0.878431
0.874510 0.811765 0.862745
0.603922 0.800000 0.929412
0.627451 0.803922 0.925490
0.678431 0.811765 0.917647
0.827451 0.862745 0.921569
0.913725 0.901961 0.937255
