JustShoot/Resources/KodakVision5219.cube
#Generated with IWLTBAP LUT Generator
#Website: http://luts.iwltbap.com
TITLE "5219"
#LUT size
LUT_3D_SIZE 25
#LUT data points
0.015686 0.015686 0.023529
0.023529 0.015686 0.027451
0.039216 0.015686 0.023529
0.050980 0.015686 0.019608
0.090196 0.019608 0.019608
0.145098 0.019608 0.023529
0.235294 0.015686 0.019608
0.325490 0.019608 0.019608
0.407843 0.023529 0.019608
0.482353 0.031373 0.019608
0.537255 0.039216 0.015686
0.572549 0.050980 0.015686
0.615686 0.058824 0.019608
0.658824 0.066667 0.023529
0.694118 0.074510 0.031373
0.733333 0.074510 0.031373
0.772549 0.074510 0.027451
0.800000 0.078431 0.031373
0.835294 0.082353 0.039216
0.854902 0.078431 0.035294
0.882353 0.082353 0.047059
0.913725 0.086275 0.050980
0.929412 0.090196 0.058824
0.941176 0.090196 0.062745
0.949020 0.090196 0.074510
0.023529 0.023529 0.023529
0.011765 0.027451 0.023529
0.035294 0.031373 0.023529
0.062745 0.031373 0.019608
0.086275 0.023529 0.023529
0.156863 0.035294 0.023529
0.258824 0.027451 0.011765
0.341176 0.039216 0.015686
0.415686 0.047059 0.015686
0.494118 0.058824 0.023529
0.545098 0.066667 0.015686
0.584314 0.074510 0.011765
0.619608 0.082353 0.011765
0.662745 0.090196 0.031373
0.698039 0.098039 0.035294
0.741176 0.101961 0.027451
0.768627 0.105882 0.031373
0.803922 0.109804 0.031373
0.831373 0.125490 0.035294
0.862745 0.133333 0.043137
0.890196 0.137255 0.054902
0.913725 0.141176 0.066667
0.925490 0.145098 0.070588
0.945098 0.152941 0.074510
0.949020 0.156863 0.078431
0.023529 0.043137 0.027451
0.019608 0.039216 0.015686
0.031373 0.039216 0.027451
0.050980 0.039216 0.011765
0.082353 0.047059 0.019608
0.160784 0.047059 0.023529
0.254902 0.047059 0.015686
0.341176 0.054902 0.019608
0.431373 0.070588 0.019608
0.498039 0.094118 0.027451
0.549020 0.109804 0.031373
0.596078 0.117647 0.027451
0.635294 0.125490 0.023529
0.678431 0.137255 0.027451
0.709804 0.149020 0.023529
0.745098 0.160784 0.031373
0.784314 0.168627 0.039216
0.811765 0.172549 0.043137
0.843137 0.188235 0.054902
0.870588 0.196078 0.054902
0.898039 0.207843 0.062745
0.917647 0.219608 0.070588
0.929412 0.223529 0.078431
0.952941 0.239216 0.082353
0.956863 0.243137 0.090196
0.027451 0.050980 0.035294
0.027451 0.054902 0.023529
0.031373 0.054902 0.015686
0.047059 0.058824 0.015686
0.070588 0.062745 0.015686
0.156863 0.070588 0.019608
0.250980 0.082353 0.015686
0.352941 0.098039 0.019608
0.427451 0.129412 0.027451
0.505882 0.156863 0.023529
0.564706 0.184314 0.019608
0.607843 0.192157 0.035294
0.647059 0.203922 0.039216
0.682353 0.219608 0.031373
0.725490 0.231373 0.043137
0.764706 0.239216 0.039216
0.800000 0.250980 0.050980
0.827451 0.258824 0.050980
0.854902 0.266667 0.058824
0.882353 0.278431 0.066667
0.898039 0.286275 0.062745
0.921569 0.290196 0.074510
0.941176 0.301961 0.078431
0.952941 0.305882 0.078431
0.960784 0.313725 0.094118
0.011765 0.086275 0.011765
0.023529 0.086275 0.035294
0.031373 0.086275 0.027451
0.039216 0.090196 0.023529
0.062745 0.098039 0.031373
0.141176 0.117647 0.031373
0.239216 0.141176 0.023529
0.333333 0.180392 0.027451
0.431373 0.207843 0.031373
0.505882 0.231373 0.031373
0.560784 0.247059 0.039216
0.607843 0.254902 0.047059
0.650980 0.274510 0.039216
0.694118 0.278431 0.043137
0.737255 0.298039 0.050980
0.772549 0.309804 0.058824
0.803922 0.317647 0.066667
0.835294 0.329412 0.070588
0.862745 0.341176 0.070588
0.886275 0.349020 0.074510
0.909804 0.356863 0.078431
0.921569 0.360784 0.086275
0.941176 0.364706 0.090196
0.952941 0.372549 0.098039
0.960784 0.380392 0.105882
0.019608 0.149020 0.043137
0.023529 0.141176 0.031373
0.031373 0.149020 0.039216
0.043137 0.160784 0.050980
0.066667 0.160784 0.058824
0.121569 0.172549 0.054902
0.215686 0.196078 0.031373
0.325490 0.235294 0.039216
0.423529 0.270588 0.039216
0.505882 0.294118 0.058824
0.568627 0.309804 0.070588
0.603922 0.325490 0.066667
0.650980 0.337255 0.066667
0.705882 0.349020 0.070588
0.741176 0.364706 0.074510
0.772549 0.376471 0.070588
0.803922 0.384314 0.070588
0.831373 0.396078 0.078431
0.862745 0.407843 0.082353
0.886275 0.411765 0.086275
0.909804 0.419608 0.090196
0.933333 0.427451 0.098039
0.945098 0.435294 0.105882
0.956863 0.439216 0.113725
0.956863 0.447059 0.109804
0.015686 0.219608 0.070588
0.015686 0.231373 0.078431
0.027451 0.235294 0.070588
0.035294 0.235294 0.074510
0.047059 0.247059 0.078431
0.117647 0.247059 0.078431
0.207843 0.254902 0.066667
0.305882 0.278431 0.062745
0.403922 0.309804 0.058824
0.498039 0.345098 0.074510
0.560784 0.364706 0.086275
0.619608 0.384314 0.098039
0.658824 0.403922 0.090196
0.694118 0.411765 0.078431
0.741176 0.427451 0.078431
0.776471 0.431373 0.082353
0.807843 0.439216 0.094118
0.843137 0.454902 0.098039
0.870588 0.466667 0.105882
0.894118 0.470588 0.113725
0.909804 0.474510 0.113725
0.929412 0.486275 0.109804
0.941176 0.494118 0.117647
0.945098 0.498039 0.121569
0.964706 0.505882 0.133333
0.011765 0.305882 0.086275
0.019608 0.305882 0.086275
0.031373 0.309804 0.090196
0.039216 0.317647 0.090196
0.054902 0.321569 0.098039
0.098039 0.325490 0.098039
0.207843 0.321569 0.094118
0.294118 0.333333 0.094118
0.396078 0.364706 0.082353
0.482353 0.400000 0.082353
0.549020 0.423529 0.090196
0.603922 0.439216 0.101961
0.654902 0.454902 0.098039
0.694118 0.474510 0.101961
0.741176 0.482353 0.105882
0.776471 0.494118 0.109804
0.811765 0.498039 0.109804
0.839216 0.513725 0.113725
0.862745 0.529412 0.113725
0.882353 0.537255 0.121569
0.905882 0.541176 0.125490
0.925490 0.552941 0.137255
0.937255 0.552941 0.133333
0.945098 0.556863 0.149020
0.956863 0.576471 0.156863
0.011765 0.368627 0.098039
0.023529 0.380392 0.109804
0.039216 0.376471 0.121569
0.043137 0.384314 0.117647
0.074510 0.396078 0.113725
0.098039 0.400000 0.125490
0.188235 0.411765 0.133333
0.294118 0.411765 0.129412
0.392157 0.419608 0.117647
0.474510 0.450980 0.113725
0.537255 0.470588 0.109804
0.600000 0.486275 0.117647
0.647059 0.509804 0.117647
0.701961 0.525490 0.121569
0.741176 0.533333 0.125490
0.776471 0.549020 0.125490
0.803922 0.560784 0.125490
0.835294 0.568627 0.133333
0.858824 0.576471 0.141176
0.878431 0.592157 0.149020
0.901961 0.600000 0.152941
0.921569 0.603922 0.152941
0.929412 0.611765 0.160784
0.949020 0.619608 0.180392
0.952941 0.623529 0.176471
0.035294 0.435294 0.137255
0.039216 0.443137 0.125490
0.047059 0.443137 0.137255
0.058824 0.447059 0.133333
0.082353 0.454902 0.137255
0.117647 0.466667 0.145098
0.188235 0.474510 0.152941
0.278431 0.482353 0.156863
0.376471 0.486275 0.152941
0.462745 0.505882 0.145098
0.529412 0.517647 0.137255
0.584314 0.533333 0.133333
0.639216 0.556863 0.137255
0.686275 0.568627 0.137255
0.725490 0.580392 0.129412
0.764706 0.600000 0.137255
0.803922 0.611765 0.145098
0.827451 0.623529 0.145098
0.850980 0.631373 0.149020
0.878431 0.643137 0.164706
0.901961 0.643137 0.160784
0.921569 0.654902 0.172549
0.937255 0.662745 0.184314
0.949020 0.666667 0.192157
0.949020 0.674510 0.196078
0.031373 0.490196 0.145098
0.035294 0.494118 0.149020
0.043137 0.501961 0.152941
0.062745 0.505882 0.152941
0.090196 0.505882 0.152941
0.125490 0.513725 0.156863
0.192157 0.525490 0.160784
0.270588 0.541176 0.176471
0.360784 0.545098 0.168627
0.450980 0.545098 0.160784
0.529412 0.556863 0.152941
0.580392 0.568627 0.149020
0.639216 0.588235 0.141176
0.682353 0.600000 0.141176
0.725490 0.611765 0.141176
0.772549 0.631373 0.152941
0.800000 0.650980 0.152941
0.823529 0.662745 0.160784
0.862745 0.670588 0.164706
0.886275 0.678431 0.176471
0.898039 0.682353 0.176471
0.921569 0.690196 0.180392
0.937255 0.701961 0.192157
0.956863 0.705882 0.211765
0.964706 0.717647 0.203922
0.043137 0.537255 0.156863
0.047059 0.541176 0.152941
0.054902 0.541176 0.164706
0.074510 0.549020 0.168627
0.094118 0.549020 0.160784
0.137255 0.556863 0.180392
0.200000 0.580392 0.176471
0.270588 0.576471 0.188235
0.360784 0.588235 0.184314
0.447059 0.592157 0.176471
0.517647 0.592157 0.180392
0.588235 0.603922 0.172549
0.635294 0.615686 0.156863
0.678431 0.631373 0.152941
0.721569 0.643137 0.152941
0.768627 0.662745 0.156863
0.800000 0.670588 0.164706
0.831373 0.678431 0.164706
0.858824 0.690196 0.176471
0.878431 0.705882 0.184314
0.901961 0.713725 0.188235
0.917647 0.721569 0.192157
0.929412 0.725490 0.196078
0.945098 0.733333 0.207843
0.952941 0.741176 0.211765
0.062745 0.572549 0.180392
0.066667 0.584314 0.184314
0.070588 0.584314 0.176471
0.086275 0.592157 0.188235
0.113725 0.580392 0.180392
0.149020 0.607843 0.188235
0.200000 0.615686 0.192157
0.274510 0.623529 0.207843
0.356863 0.627451 0.207843
0.443137 0.631373 0.192157
0.513725 0.623529 0.188235
0.568627 0.635294 0.188235
0.627451 0.647059 0.184314
0.674510 0.658824 0.164706
0.721569 0.670588 0.160784
0.752941 0.678431 0.164706
0.800000 0.698039 0.164706
0.823529 0.709804 0.168627
0.850980 0.721569 0.176471
0.878431 0.733333 0.184314
0.901961 0.737255 0.196078
0.913725 0.741176 0.211765
0.929412 0.749020 0.207843
0.949020 0.760784 0.227451
0.952941 0.760784 0.223529
0.082353 0.623529 0.196078
0.090196 0.623529 0.200000
0.105882 0.627451 0.207843
0.109804 0.631373 0.203922
0.133333 0.635294 0.207843
0.160784 0.639216 0.203922
0.227451 0.650980 0.215686
0.278431 0.658824 0.215686
0.352941 0.662745 0.211765
0.443137 0.666667 0.207843
0.509804 0.670588 0.207843
0.564706 0.662745 0.192157
0.631373 0.670588 0.188235
0.670588 0.694118 0.176471
0.713725 0.698039 0.176471
0.752941 0.705882 0.172549
0.788235 0.721569 0.172549
0.819608 0.729412 0.180392
0.850980 0.737255 0.188235
0.878431 0.749020 0.196078
0.901961 0.756863 0.203922
0.921569 0.772549 0.211765
0.937255 0.776471 0.227451
0.945098 0.776471 0.223529
0.956863 0.788235 0.243137
0.101961 0.666667 0.192157
0.109804 0.670588 0.207843
0.113725 0.670588 0.200000
0.125490 0.670588 0.203922
0.145098 0.674510 0.211765
0.188235 0.678431 0.219608
0.231373 0.682353 0.223529
0.282353 0.694118 0.227451
0.349020 0.694118 0.223529
0.439216 0.694118 0.223529
0.517647 0.698039 0.211765
0.564706 0.701961 0.207843
0.623529 0.705882 0.200000
0.670588 0.713725 0.200000
0.713725 0.721569 0.188235
0.756863 0.733333 0.184314
0.792157 0.741176 0.188235
0.823529 0.752941 0.188235
0.843137 0.760784 0.192157
0.870588 0.772549 0.207843
0.905882 0.780392 0.211765
0.925490 0.788235 0.223529
0.937255 0.792157 0.231373
0.949020 0.800000 0.239216
0.952941 0.803922 0.243137
0.137255 0.694118 0.223529
0.137255 0.701961 0.227451
0.133333 0.705882 0.219608
0.141176 0.705882 0.219608
0.160784 0.705882 0.215686
0.188235 0.709804 0.219608
0.235294 0.717647 0.231373
0.286275 0.725490 0.239216
0.356863 0.729412 0.235294
0.443137 0.725490 0.231373
0.505882 0.729412 0.223529
0.556863 0.737255 0.219608
0.619608 0.737255 0.219608
0.674510 0.745098 0.211765
0.705882 0.749020 0.203922
0.749020 0.760784 0.200000
0.796078 0.768627 0.207843
0.827451 0.780392 0.215686
0.854902 0.784314 0.211765
0.878431 0.792157 0.211765
0.894118 0.800000 0.211765
0.913725 0.807843 0.215686
0.933333 0.815686 0.227451
0.945098 0.823529 0.235294
0.949020 0.823529 0.262745
0.141176 0.733333 0.227451
0.149020 0.733333 0.231373
0.160784 0.733333 0.235294
0.168627 0.737255 0.223529
0.172549 0.741176 0.227451
0.207843 0.745098 0.235294
0.243137 0.749020 0.250980
0.298039 0.752941 0.254902
0.360784 0.756863 0.239216
0.443137 0.764706 0.239216
0.505882 0.764706 0.239216
0.560784 0.764706 0.231373
0.615686 0.764706 0.235294
0.666667 0.768627 0.235294
0.721569 0.780392 0.219608
0.752941 0.784314 0.215686
0.784314 0.792157 0.219608
0.823529 0.800000 0.219608
0.850980 0.807843 0.211765
0.874510 0.815686 0.215686
0.898039 0.819608 0.227451
0.921569 0.827451 0.231373
0.933333 0.835294 0.239216
0.952941 0.835294 0.247059
0.956863 0.831373 0.254902
0.149020 0.760784 0.231373
0.160784 0.764706 0.247059
0.176471 0.772549 0.243137
0.176471 0.772549 0.247059
0.200000 0.772549 0.243137
0.215686 0.772549 0.239216
0.258824 0.776471 0.247059
0.290196 0.784314 0.254902
0.352941 0.792157 0.258824
0.435294 0.792157 0.247059
0.513725 0.792157 0.243137
0.564706 0.796078 0.247059
0.607843 0.800000 0.247059
0.662745 0.796078 0.250980
0.713725 0.800000 0.239216
0.745098 0.803922 0.235294
0.792157 0.815686 0.235294
0.819608 0.819608 0.231373
0.847059 0.827451 0.231373
0.886275 0.831373 0.239216
0.905882 0.839216 0.243137
0.921569 0.839216 0.247059
0.937255 0.854902 0.247059
0.945098 0.854902 0.247059
0.952941 0.858824 0.278431
0.152941 0.800000 0.254902
0.160784 0.796078 0.254902
0.180392 0.800000 0.254902
0.188235 0.803922 0.250980
0.207843 0.800000 0.254902
0.239216 0.796078 0.254902
0.262745 0.803922 0.258824
0.305882 0.807843 0.262745
0.364706 0.811765 0.266667
0.439216 0.819608 0.266667
0.509804 0.815686 0.274510
0.568627 0.815686 0.266667
0.611765 0.819608 0.254902
0.674510 0.819608 0.262745
0.713725 0.819608 0.258824
0.749020 0.827451 0.250980
0.784314 0.835294 0.247059
0.819608 0.839216 0.243137
0.850980 0.847059 0.250980
0.878431 0.850980 0.250980
0.905882 0.862745 0.258824
0.917647 0.866667 0.254902
0.929412 0.870588 0.262745
0.945098 0.866667 0.274510
0.960784 0.874510 0.301961
0.160784 0.819608 0.250980
0.172549 0.823529 0.266667
0.184314 0.823529 0.270588
0.196078 0.819608 0.262745
0.223529 0.823529 0.258824
0.243137 0.827451 0.262745
0.262745 0.835294 0.266667
0.305882 0.839216 0.274510
0.364706 0.843137 0.274510
0.439216 0.843137 0.278431
0.509804 0.843137 0.266667
0.568627 0.839216 0.270588
0.619608 0.847059 0.274510
0.670588 0.847059 0.278431
0.709804 0.850980 0.270588
0.749020 0.850980 0.266667
0.792157 0.854902 0.266667
0.823529 0.858824 0.266667
0.850980 0.870588 0.266667
0.882353 0.878431 0.278431
0.901961 0.882353 0.286275
0.921569 0.882353 0.294118
0.941176 0.886275 0.301961
0.949020 0.886275 0.305882
0.956863 0.890196 0.309804
0.184314 0.850980 0.270588
0.196078 0.854902 0.286275
0.203922 0.854902 0.282353
0.219608 0.854902 0.278431
0.239216 0.850980 0.282353
0.258824 0.862745 0.290196
0.286275 0.858824 0.282353
0.325490 0.858824 0.286275
0.380392 0.862745 0.301961
0.450980 0.862745 0.294118
0.513725 0.866667 0.290196
0.560784 0.874510 0.298039
0.619608 0.870588 0.286275
0.678431 0.874510 0.290196
0.713725 0.870588 0.278431
0.749020 0.878431 0.278431
0.792157 0.882353 0.282353
0.823529 0.890196 0.286275
0.854902 0.890196 0.282353
0.878431 0.890196 0.290196
0.901961 0.898039 0.301961
0.921569 0.901961 0.305882
0.941176 0.901961 0.317647
0.952941 0.905882 0.325490
0.960784 0.905882 0.321569
0.184314 0.878431 0.290196
0.215686 0.882353 0.301961
0.219608 0.886275 0.305882
0.223529 0.886275 0.294118
0.258824 0.878431 0.301961
0.282353 0.882353 0.286275
0.305882 0.882353 0.294118
0.333333 0.890196 0.317647
0.388235 0.886275 0.301961
0.458824 0.890196 0.305882
0.517647 0.894118 0.298039
0.560784 0.894118 0.286275
0.615686 0.890196 0.298039
0.666667 0.898039 0.301961
0.713725 0.898039 0.294118
0.756863 0.898039 0.301961
0.784314 0.905882 0.305882
0.823529 0.905882 0.305882
0.850980 0.909804 0.301961
0.878431 0.913725 0.305882
0.901961 0.913725 0.321569
0.925490 0.921569 0.333333
0.941176 0.917647 0.337255
0.945098 0.917647 0.325490
0.968627 0.921569 0.341176
0.192157 0.909804 0.313725
0.227451 0.905882 0.309804
0.239216 0.905882 0.313725
0.250980 0.905882 0.309804
0.258824 0.905882 0.309804
0.301961 0.905882 0.325490
0.317647 0.898039 0.309804
0.349020 0.909804 0.321569
0.400000 0.909804 0.321569
0.462745 0.909804 0.321569
0.525490 0.913725 0.317647
0.576471 0.913725 0.313725
0.623529 0.909804 0.317647
0.678431 0.913725 0.333333
0.717647 0.913725 0.329412
0.752941 0.921569 0.333333
0.792157 0.921569 0.329412
0.823529 0.925490 0.333333
0.847059 0.925490 0.333333
0.878431 0.929412 0.341176
0.905882 0.929412 0.341176
0.917647 0.933333 0.349020
0.937255 0.929412 0.352941
0.949020 0.929412 0.356863
0.972549 0.933333 0.349020
0.223529 0.925490 0.325490
0.243137 0.929412 0.321569
0.262745 0.925490 0.325490
0.266667 0.925490 0.317647
0.282353 0.921569 0.313725
0.294118 0.925490 0.317647
0.333333 0.925490 0.317647
0.372549 0.925490 0.321569
0.415686 0.925490 0.337255
0.478431 0.933333 0.341176
0.537255 0.929412 0.333333
0.584314 0.933333 0.337255
0.623529 0.941176 0.337255
0.674510 0.929412 0.356863
0.721569 0.937255 0.368627
0.760784 0.937255 0.368627
0.792157 0.941176 0.364706
0.823529 0.941176 0.360784
0.850980 0.937255 0.360784
0.882353 0.945098 0.356863
0.898039 0.949020 0.352941
0.925490 0.941176 0.356863
0.949020 0.949020 0.376471
0.956863 0.937255 0.364706
0.968627 0.937255 0.376471
0.247059 0.952941 0.337255
0.258824 0.945098 0.337255
0.274510 0.941176 0.321569
0.294118 0.941176 0.337255
0.301961 0.941176 0.341176
0.325490 0.941176 0.341176
0.349020 0.941176 0.341176
0.380392 0.941176 0.337255
0.427451 0.937255 0.341176
0.486275 0.941176 0.349020
0.541176 0.952941 0.356863
0.596078 0.949020 0.360784
0.647059 0.945098 0.364706
0.690196 0.945098 0.372549
0.733333 0.949020 0.376471
0.768627 0.956863 0.384314
0.800000 0.952941 0.384314
0.831373 0.956863 0.384314
0.854902 0.956863 0.372549
0.878431 0.956863 0.372549
0.905882 0.956863 0.368627
0.925490 0.964706 0.372549
0.937255 0.960784 0.372549
0.949020 0.960784 0.376471
0.956863 0.968627 0.384314
0.015686 0.019608 0.035294
0.027451 0.019608 0.039216
0.039216 0.019608 0.035294
0.054902 0.019608 0.023529
0.086275 0.011765 0.019608
0.145098 0.019608 0.031373
0.231373 0.015686 0.027451
0.317647 0.019608 0.035294
0.403922 0.035294 0.035294
0.482353 0.035294 0.031373
0.541176 0.039216 0.027451
0.576471 0.050980 0.039216
0.615686 0.058824 0.043137
0.654902 0.070588 0.054902
0.682353 0.074510 0.058824
0.721569 0.074510 0.066667
0.768627 0.082353 0.070588
0.796078 0.082353 0.070588
0.823529 0.082353 0.066667
0.850980 0.086275 0.078431
0.882353 0.090196 0.082353
0.905882 0.090196 0.082353
0.925490 0.094118 0.090196
0.937255 0.098039 0.105882
0.949020 0.086275 0.086275
0.023529 0.027451 0.035294
0.023529 0.027451 0.035294
0.043137 0.023529 0.039216
0.050980 0.027451 0.027451
0.090196 0.027451 0.031373
0.168627 0.035294 0.031373
0.262745 0.031373 0.015686
0.349020 0.039216 0.023529
0.419608 0.047059 0.023529
0.501961 0.058824 0.043137
0.549020 0.066667 0.047059
0.592157 0.078431 0.039216
0.623529 0.090196 0.043137
0.658824 0.094118 0.058824
0.701961 0.101961 0.078431
0.741176 0.101961 0.066667
0.768627 0.109804 0.074510
0.811765 0.117647 0.078431
0.839216 0.125490 0.082353
0.858824 0.129412 0.082353
0.886275 0.133333 0.090196
0.913725 0.145098 0.098039
0.929412 0.152941 0.101961
0.949020 0.152941 0.098039
0.945098 0.160784 0.109804
0.015686 0.031373 0.035294
0.023529 0.039216 0.035294
0.035294 0.039216 0.047059
0.054902 0.043137 0.023529
0.094118 0.050980 0.027451
0.172549 0.054902 0.015686
0.274510 0.050980 0.023529
0.364706 0.062745 0.031373
0.447059 0.082353 0.023529
0.501961 0.098039 0.031373
0.552941 0.109804 0.039216
0.600000 0.121569 0.039216
0.639216 0.129412 0.043137
0.682353 0.137255 0.054902
0.705882 0.149020 0.062745
0.749020 0.160784 0.066667
0.780392 0.168627 0.078431
0.811765 0.176471 0.078431
0.843137 0.192157 0.090196
0.874510 0.203922 0.094118
0.898039 0.211765 0.090196
0.917647 0.223529 0.094118
0.933333 0.235294 0.094118
0.937255 0.235294 0.109804
0.945098 0.243137 0.113725
0.019608 0.054902 0.035294
0.019608 0.054902 0.035294
0.035294 0.054902 0.039216
0.047059 0.058824 0.031373
0.078431 0.066667 0.031373
0.172549 0.078431 0.031373
0.278431 0.094118 0.031373
0.364706 0.109804 0.023529
0.439216 0.137255 0.027451
0.525490 0.160784 0.031373
0.584314 0.184314 0.035294
0.619608 0.196078 0.054902
0.662745 0.203922 0.066667
0.694118 0.215686 0.054902
0.733333 0.227451 0.062745
0.768627 0.235294 0.070588
0.800000 0.247059 0.070588
0.827451 0.250980 0.082353
0.847059 0.266667 0.086275
0.874510 0.278431 0.094118
0.898039 0.286275 0.098039
0.917647 0.286275 0.105882
0.933333 0.298039 0.105882
0.952941 0.305882 0.117647
0.960784 0.305882 0.133333
0.015686 0.086275 0.039216
0.015686 0.082353 0.050980
0.039216 0.090196 0.054902
0.047059 0.094118 0.039216
0.066667 0.098039 0.039216
0.149020 0.117647 0.043137
0.258824 0.152941 0.039216
0.360784 0.188235 0.035294
0.454902 0.215686 0.039216
0.529412 0.239216 0.047059
0.580392 0.258824 0.062745
0.619608 0.274510 0.078431
0.666667 0.286275 0.070588
0.705882 0.294118 0.070588
0.749020 0.305882 0.070588
0.776471 0.321569 0.082353
0.807843 0.325490 0.090196
0.835294 0.333333 0.086275
0.866667 0.341176 0.094118
0.890196 0.349020 0.101961
0.909804 0.352941 0.101961
0.925490 0.360784 0.113725
0.941176 0.360784 0.109804
0.952941 0.364706 0.117647
0.960784 0.372549 0.133333
0.011765 0.149020 0.070588
0.019608 0.149020 0.066667
0.027451 0.160784 0.066667
0.039216 0.164706 0.070588
0.066667 0.168627 0.070588
0.121569 0.180392 0.058824
0.231373 0.203922 0.039216
0.341176 0.231373 0.035294
0.435294 0.282353 0.058824
0.517647 0.305882 0.070588
0.580392 0.329412 0.086275
0.615686 0.337255 0.086275
0.662745 0.349020 0.078431
0.717647 0.360784 0.086275
0.752941 0.376471 0.086275
0.784314 0.380392 0.078431
0.807843 0.392157 0.086275
0.839216 0.403922 0.086275
0.866667 0.407843 0.094118
0.890196 0.415686 0.105882
0.913725 0.423529 0.109804
0.933333 0.423529 0.117647
0.945098 0.431373 0.125490
0.956863 0.435294 0.133333
0.960784 0.447059 0.141176
0.007843 0.231373 0.094118
0.011765 0.235294 0.105882
0.027451 0.243137 0.090196
0.039216 0.243137 0.101961
0.050980 0.254902 0.101961
0.113725 0.250980 0.086275
0.219608 0.254902 0.086275
0.309804 0.282353 0.070588
0.403922 0.321569 0.074510
0.509804 0.356863 0.094118
0.576471 0.380392 0.109804
0.631373 0.396078 0.109804
0.670588 0.415686 0.101961
0.705882 0.423529 0.094118
0.749020 0.435294 0.094118
0.784314 0.450980 0.098039
0.815686 0.458824 0.109804
0.847059 0.462745 0.113725
0.866667 0.470588 0.117647
0.890196 0.478431 0.121569
0.909804 0.482353 0.125490
0.933333 0.490196 0.129412
0.941176 0.498039 0.137255
0.945098 0.501961 0.141176
0.956863 0.505882 0.156863
0.007843 0.313725 0.117647
0.011765 0.309804 0.117647
0.023529 0.309804 0.129412
0.039216 0.321569 0.125490
0.054902 0.321569 0.121569
0.105882 0.329412 0.129412
0.200000 0.329412 0.113725
0.294118 0.337255 0.109804
0.400000 0.364706 0.101961
0.486275 0.400000 0.105882
0.556863 0.427451 0.117647
0.615686 0.450980 0.121569
0.666667 0.470588 0.121569
0.705882 0.494118 0.117647
0.749020 0.490196 0.113725
0.788235 0.505882 0.121569
0.819608 0.513725 0.121569
0.843137 0.521569 0.129412
0.870588 0.533333 0.137255
0.886275 0.537255 0.137255
0.909804 0.545098 0.141176
0.921569 0.556863 0.152941
0.937255 0.560784 0.160784
0.945098 0.568627 0.168627
0.952941 0.568627 0.172549
0.023529 0.372549 0.145098
0.031373 0.380392 0.152941
0.039216 0.384314 0.145098
0.043137 0.392157 0.141176
0.062745 0.396078 0.141176
0.113725 0.396078 0.137255
0.192157 0.407843 0.141176
0.290196 0.411765 0.145098
0.380392 0.419608 0.141176
0.462745 0.450980 0.133333
0.541176 0.470588 0.133333
0.603922 0.486275 0.133333
0.650980 0.517647 0.137255
0.698039 0.537255 0.125490
0.749020 0.549020 0.137255
0.784314 0.560784 0.141176
0.815686 0.572549 0.145098
0.839216 0.580392 0.149020
0.866667 0.592157 0.156863
0.886275 0.600000 0.156863
0.909804 0.607843 0.160784
0.913725 0.611765 0.164706
0.929412 0.615686 0.172549
0.945098 0.627451 0.176471
0.949020 0.627451 0.188235
0.039216 0.447059 0.152941
0.043137 0.447059 0.160784
0.050980 0.450980 0.160784
0.054902 0.447059 0.160784
0.078431 0.454902 0.164706
0.125490 0.470588 0.172549
0.188235 0.478431 0.168627
0.278431 0.486275 0.172549
0.376471 0.486275 0.156863
0.458824 0.498039 0.149020
0.529412 0.517647 0.137255
0.584314 0.537255 0.145098
0.635294 0.552941 0.141176
0.686275 0.564706 0.141176
0.733333 0.588235 0.141176
0.776471 0.607843 0.156863
0.815686 0.623529 0.160784
0.839216 0.635294 0.164706
0.862745 0.643137 0.168627
0.886275 0.650980 0.180392
0.909804 0.654902 0.184314
0.925490 0.666667 0.188235
0.941176 0.670588 0.196078
0.949020 0.674510 0.200000
0.956863 0.678431 0.215686
0.035294 0.494118 0.176471
0.043137 0.498039 0.180392
0.047059 0.501961 0.176471
0.058824 0.505882 0.172549
0.094118 0.505882 0.176471
0.137255 0.521569 0.196078
0.200000 0.529412 0.192157
0.274510 0.545098 0.196078
0.368627 0.537255 0.184314
