JustShoot/Resources/KodakVision5203.cube
#Generated with IWLTBAP LUT Generator
#Website: http://luts.iwltbap.com
TITLE "5203"
#LUT size
LUT_3D_SIZE 25
#LUT data points
0.121569 0.109804 0.090196
0.090196 0.074510 0.062745
0.090196 0.058824 0.047059
0.113725 0.070588 0.054902
0.180392 0.086275 0.070588
0.254902 0.105882 0.094118
0.317647 0.121569 0.117647
0.372549 0.133333 0.129412
0.415686 0.152941 0.129412
0.466667 0.160784 0.145098
0.505882 0.180392 0.164706
0.545098 0.188235 0.168627
0.596078 0.200000 0.168627
0.643137 0.200000 0.168627
0.682353 0.207843 0.176471
0.713725 0.203922 0.196078
0.741176 0.207843 0.207843
0.776471 0.215686 0.239216
0.800000 0.223529 0.262745
0.803922 0.223529 0.270588
0.815686 0.219608 0.266667
0.819608 0.223529 0.270588
0.815686 0.227451 0.270588
0.819608 0.223529 0.274510
0.823529 0.215686 0.270588
0.113725 0.082353 0.070588
0.070588 0.054902 0.043137
0.062745 0.043137 0.027451
0.109804 0.039216 0.031373
0.160784 0.058824 0.054902
0.254902 0.082353 0.078431
0.313725 0.101961 0.094118
0.368627 0.117647 0.117647
0.427451 0.137255 0.133333
0.470588 0.152941 0.141176
0.505882 0.172549 0.152941
0.556863 0.184314 0.160784
0.607843 0.188235 0.164706
0.654902 0.196078 0.168627
0.690196 0.200000 0.176471
0.733333 0.207843 0.196078
0.768627 0.207843 0.215686
0.800000 0.211765 0.247059
0.811765 0.215686 0.262745
0.823529 0.219608 0.266667
0.827451 0.223529 0.270588
0.831373 0.219608 0.270588
0.835294 0.215686 0.270588
0.827451 0.215686 0.266667
0.839216 0.219608 0.274510
0.086275 0.109804 0.070588
0.074510 0.086275 0.050980
0.062745 0.066667 0.035294
0.101961 0.074510 0.035294
0.176471 0.082353 0.043137
0.262745 0.094118 0.066667
0.321569 0.113725 0.082353
0.384314 0.121569 0.098039
0.439216 0.137255 0.113725
0.478431 0.152941 0.129412
0.529412 0.164706 0.145098
0.564706 0.176471 0.152941
0.611765 0.188235 0.149020
0.666667 0.192157 0.156863
0.705882 0.203922 0.160784
0.749020 0.203922 0.184314
0.792157 0.211765 0.211765
0.815686 0.215686 0.227451
0.835294 0.219608 0.247059
0.847059 0.219608 0.258824
0.843137 0.215686 0.262745
0.850980 0.215686 0.266667
0.835294 0.223529 0.274510
0.835294 0.219608 0.247059
0.850980 0.215686 0.266667
0.098039 0.164706 0.101961
0.066667 0.141176 0.062745
0.066667 0.137255 0.050980
0.098039 0.129412 0.039216
0.172549 0.129412 0.050980
0.266667 0.141176 0.050980
0.341176 0.149020 0.082353
0.396078 0.152941 0.101961
0.443137 0.160784 0.113725
0.494118 0.168627 0.113725
0.541176 0.180392 0.129412
0.580392 0.184314 0.137255
0.627451 0.188235 0.141176
0.670588 0.192157 0.141176
0.717647 0.200000 0.152941
0.760784 0.207843 0.172549
0.788235 0.207843 0.200000
0.811765 0.211765 0.231373
0.835294 0.219608 0.254902
0.835294 0.219608 0.254902
0.847059 0.219608 0.250980
0.843137 0.219608 0.239216
0.850980 0.215686 0.258824
0.847059 0.215686 0.239216
0.835294 0.223529 0.239216
0.098039 0.227451 0.121569
0.070588 0.215686 0.094118
0.062745 0.196078 0.050980
0.086275 0.192157 0.062745
0.152941 0.192157 0.047059
0.250980 0.200000 0.066667
0.341176 0.207843 0.070588
0.403922 0.211765 0.086275
0.462745 0.211765 0.101961
0.513725 0.207843 0.121569
0.560784 0.200000 0.141176
0.600000 0.211765 0.137255
0.635294 0.215686 0.137255
0.678431 0.203922 0.137255
0.721569 0.203922 0.152941
0.752941 0.211765 0.160784
0.788235 0.211765 0.180392
0.815686 0.219608 0.207843
0.843137 0.219608 0.239216
0.850980 0.215686 0.258824
0.843137 0.219608 0.239216
0.843137 0.219608 0.239216
0.847059 0.223529 0.243137
0.847059 0.223529 0.243137
0.843137 0.219608 0.239216
0.090196 0.278431 0.113725
0.078431 0.270588 0.086275
0.074510 0.262745 0.074510
0.070588 0.258824 0.062745
0.117647 0.250980 0.050980
0.227451 0.262745 0.054902
0.329412 0.266667 0.062745
0.407843 0.282353 0.082353
0.470588 0.298039 0.105882
0.533333 0.294118 0.117647
0.588235 0.294118 0.137255
0.623529 0.290196 0.137255
0.662745 0.270588 0.145098
0.705882 0.239216 0.145098
0.733333 0.227451 0.141176
0.764706 0.231373 0.145098
0.803922 0.223529 0.176471
0.831373 0.223529 0.207843
0.850980 0.223529 0.231373
0.850980 0.231373 0.227451
0.854902 0.227451 0.227451
0.850980 0.231373 0.227451
0.839216 0.231373 0.223529
0.847059 0.227451 0.215686
0.850980 0.231373 0.235294
0.090196 0.317647 0.121569
0.074510 0.309804 0.098039
0.066667 0.305882 0.074510
0.070588 0.294118 0.078431
0.086275 0.301961 0.086275
0.184314 0.309804 0.062745
0.286275 0.301961 0.062745
0.384314 0.313725 0.070588
0.466667 0.333333 0.086275
0.533333 0.341176 0.109804
0.576471 0.345098 0.117647
0.623529 0.337255 0.129412
0.666667 0.321569 0.125490
0.713725 0.309804 0.133333
0.749020 0.305882 0.141176
0.768627 0.282353 0.149020
0.807843 0.278431 0.164706
0.839216 0.274510 0.180392
0.858824 0.270588 0.203922
0.858824 0.262745 0.207843
0.862745 0.266667 0.211765
0.858824 0.270588 0.211765
0.858824 0.262745 0.207843
0.862745 0.258824 0.219608
0.862745 0.262745 0.207843
0.082353 0.352941 0.141176
0.074510 0.345098 0.133333
0.074510 0.349020 0.101961
0.070588 0.341176 0.094118
0.086275 0.345098 0.101961
0.141176 0.345098 0.101961
0.262745 0.345098 0.090196
0.345098 0.356863 0.086275
0.439216 0.368627 0.086275
0.525490 0.376471 0.098039
0.592157 0.384314 0.109804
0.639216 0.392157 0.121569
0.678431 0.384314 0.121569
0.713725 0.364706 0.129412
0.749020 0.360784 0.145098
0.784314 0.349020 0.141176
0.819608 0.341176 0.156863
0.850980 0.337255 0.172549
0.866667 0.325490 0.184314
0.866667 0.325490 0.184314
0.862745 0.325490 0.184314
0.866667 0.321569 0.192157
0.878431 0.309804 0.188235
0.878431 0.317647 0.192157
0.866667 0.313725 0.196078
0.082353 0.384314 0.172549
0.074510 0.392157 0.160784
0.070588 0.392157 0.133333
0.070588 0.392157 0.133333
0.074510 0.392157 0.121569
0.101961 0.384314 0.125490
0.207843 0.392157 0.125490
0.321569 0.400000 0.117647
0.407843 0.400000 0.098039
0.501961 0.411765 0.105882
0.560784 0.419608 0.113725
0.623529 0.431373 0.121569
0.686275 0.431373 0.109804
0.725490 0.427451 0.133333
0.760784 0.423529 0.137255
0.788235 0.407843 0.141176
0.823529 0.392157 0.145098
0.854902 0.388235 0.160784
0.870588 0.388235 0.156863
0.870588 0.380392 0.152941
0.886275 0.372549 0.160784
0.886275 0.380392 0.164706
0.878431 0.372549 0.156863
0.882353 0.364706 0.172549
0.874510 0.364706 0.168627
0.094118 0.419608 0.200000
0.074510 0.427451 0.184314
0.078431 0.431373 0.180392
0.070588 0.427451 0.164706
0.074510 0.427451 0.152941
0.090196 0.423529 0.156863
0.164706 0.427451 0.164706
0.274510 0.435294 0.168627
0.384314 0.439216 0.137255
0.466667 0.447059 0.117647
0.537255 0.458824 0.117647
0.619608 0.462745 0.117647
0.682353 0.470588 0.125490
0.729412 0.466667 0.125490
0.764706 0.458824 0.133333
0.792157 0.450980 0.137255
0.819608 0.439216 0.129412
0.854902 0.431373 0.149020
0.874510 0.423529 0.160784
0.882353 0.423529 0.160784
0.882353 0.415686 0.149020
0.882353 0.415686 0.156863
0.886275 0.407843 0.152941
0.882353 0.403922 0.156863
0.882353 0.403922 0.156863
0.082353 0.474510 0.231373
0.078431 0.470588 0.227451
0.078431 0.478431 0.223529
0.074510 0.478431 0.207843
0.082353 0.470588 0.207843
0.078431 0.470588 0.196078
0.117647 0.470588 0.188235
0.235294 0.474510 0.200000
0.364706 0.482353 0.192157
0.439216 0.490196 0.180392
0.529412 0.498039 0.164706
0.603922 0.498039 0.141176
0.674510 0.501961 0.129412
0.733333 0.505882 0.113725
0.780392 0.509804 0.113725
0.803922 0.505882 0.129412
0.835294 0.490196 0.137255
0.866667 0.478431 0.145098
0.882353 0.474510 0.141176
0.890196 0.462745 0.141176
0.890196 0.454902 0.137255
0.890196 0.450980 0.160784
0.890196 0.450980 0.152941
0.890196 0.447059 0.149020
0.882353 0.450980 0.141176
0.082353 0.494118 0.262745
0.082353 0.494118 0.262745
0.082353 0.498039 0.247059
0.078431 0.505882 0.243137
0.078431 0.490196 0.219608
0.078431 0.498039 0.215686
0.098039 0.501961 0.231373
0.180392 0.498039 0.227451
0.294118 0.513725 0.227451
0.415686 0.529412 0.215686
0.501961 0.533333 0.207843
0.576471 0.529412 0.192157
0.654902 0.521569 0.168627
0.717647 0.529412 0.129412
0.772549 0.545098 0.113725
0.815686 0.537255 0.121569
0.850980 0.529412 0.129412
0.870588 0.521569 0.129412
0.890196 0.509804 0.137255
0.894118 0.505882 0.149020
0.890196 0.501961 0.145098
0.890196 0.498039 0.152941
0.886275 0.498039 0.141176
0.898039 0.490196 0.149020
0.886275 0.490196 0.145098
0.098039 0.521569 0.294118
0.082353 0.525490 0.282353
0.074510 0.541176 0.274510
0.082353 0.537255 0.258824
0.082353 0.529412 0.254902
0.074510 0.529412 0.250980
0.086275 0.525490 0.243137
0.129412 0.525490 0.258824
0.235294 0.529412 0.258824
0.364706 0.545098 0.250980
0.458824 0.556863 0.239216
0.533333 0.564706 0.239216
0.619608 0.564706 0.215686
0.698039 0.564706 0.180392
0.764706 0.568627 0.133333
0.803922 0.568627 0.121569
0.843137 0.568627 0.121569
0.866667 0.560784 0.133333
0.890196 0.549020 0.137255
0.894118 0.545098 0.137255
0.894118 0.545098 0.137255
0.894118 0.533333 0.137255
0.894118 0.533333 0.145098
0.898039 0.529412 0.152941
0.890196 0.529412 0.141176
0.090196 0.564706 0.301961
0.090196 0.556863 0.305882
0.086275 0.568627 0.305882
0.086275 0.560784 0.282353
0.078431 0.564706 0.282353
0.082353 0.560784 0.274510
0.082353 0.560784 0.274510
0.082353 0.552941 0.262745
0.176471 0.560784 0.274510
0.301961 0.564706 0.262745
0.419608 0.580392 0.270588
0.501961 0.588235 0.254902
0.580392 0.600000 0.247059
0.662745 0.596078 0.235294
0.725490 0.600000 0.196078
0.784314 0.600000 0.145098
0.831373 0.603922 0.121569
0.870588 0.596078 0.117647
0.890196 0.588235 0.125490
0.898039 0.584314 0.133333
0.905882 0.576471 0.129412
0.894118 0.580392 0.129412
0.901961 0.572549 0.125490
0.890196 0.568627 0.137255
0.901961 0.560784 0.145098
0.098039 0.568627 0.317647
0.094118 0.576471 0.321569
0.078431 0.588235 0.313725
0.082353 0.592157 0.309804
0.074510 0.592157 0.305882
0.082353 0.584314 0.294118
0.066667 0.588235 0.278431
0.078431 0.580392 0.278431
0.125490 0.584314 0.278431
0.215686 0.596078 0.286275
0.356863 0.600000 0.298039
0.462745 0.615686 0.290196
0.545098 0.623529 0.274510
0.631373 0.635294 0.270588
0.690196 0.635294 0.254902
0.756863 0.627451 0.207843
0.815686 0.623529 0.149020
0.858824 0.627451 0.133333
0.890196 0.615686 0.137255
0.898039 0.619608 0.125490
0.898039 0.619608 0.133333
0.905882 0.615686 0.141176
0.901961 0.611765 0.137255
0.901961 0.603922 0.133333
0.898039 0.596078 0.133333
0.105882 0.600000 0.349020
0.098039 0.611765 0.345098
0.090196 0.623529 0.333333
0.082353 0.635294 0.337255
0.086275 0.619608 0.329412
0.082353 0.615686 0.317647
0.078431 0.619608 0.313725
0.086275 0.615686 0.305882
0.082353 0.611765 0.309804
0.164706 0.615686 0.309804
0.290196 0.635294 0.305882
0.423529 0.639216 0.309804
0.525490 0.654902 0.313725
0.615686 0.666667 0.305882
0.686275 0.670588 0.290196
0.752941 0.662745 0.286275
0.823529 0.658824 0.219608
0.866667 0.670588 0.196078
0.898039 0.670588 0.176471
0.901961 0.666667 0.156863
0.905882 0.654902 0.168627
0.905882 0.654902 0.160784
0.901961 0.650980 0.164706
0.909804 0.639216 0.164706
0.909804 0.635294 0.156863
0.098039 0.627451 0.356863
0.090196 0.627451 0.352941
0.094118 0.650980 0.360784
0.090196 0.650980 0.341176
0.086275 0.654902 0.360784
0.074510 0.643137 0.341176
0.082353 0.639216 0.309804
0.082353 0.643137 0.329412
0.082353 0.643137 0.321569
0.109804 0.643137 0.321569
0.207843 0.643137 0.333333
0.352941 0.662745 0.345098
0.474510 0.682353 0.337255
0.580392 0.694118 0.329412
0.658824 0.694118 0.329412
0.733333 0.698039 0.333333
0.792157 0.698039 0.313725
0.843137 0.701961 0.270588
0.886275 0.701961 0.239216
0.909804 0.698039 0.219608
0.909804 0.690196 0.215686
0.909804 0.690196 0.223529
0.905882 0.682353 0.227451
0.917647 0.678431 0.219608
0.909804 0.670588 0.211765
0.090196 0.662745 0.376471
0.082353 0.670588 0.392157
0.086275 0.682353 0.380392
0.094118 0.674510 0.376471
0.074510 0.686275 0.360784
0.090196 0.674510 0.356863
0.078431 0.674510 0.349020
0.086275 0.670588 0.341176
0.086275 0.670588 0.349020
0.090196 0.666667 0.349020
0.152941 0.674510 0.356863
0.290196 0.690196 0.360784
0.435294 0.705882 0.356863
0.537255 0.713725 0.356863
0.627451 0.733333 0.368627
0.701961 0.741176 0.364706
0.776471 0.737255 0.356863
0.839216 0.729412 0.341176
0.886275 0.721569 0.329412
0.913725 0.721569 0.309804
0.909804 0.721569 0.286275
0.921569 0.725490 0.282353
0.917647 0.713725 0.286275
0.913725 0.709804 0.282353
0.909804 0.705882 0.278431
0.090196 0.694118 0.407843
0.094118 0.705882 0.415686
0.094118 0.709804 0.400000
0.090196 0.713725 0.400000
0.090196 0.709804 0.380392
0.078431 0.713725 0.388235
0.086275 0.705882 0.372549
0.086275 0.705882 0.364706
0.078431 0.705882 0.368627
0.078431 0.713725 0.376471
0.098039 0.713725 0.372549
0.215686 0.717647 0.384314
0.372549 0.721569 0.392157
0.505882 0.741176 0.396078
0.596078 0.756863 0.396078
0.682353 0.764706 0.400000
0.749020 0.776471 0.403922
0.815686 0.764706 0.403922
0.874510 0.752941 0.400000
0.909804 0.749020 0.388235
0.917647 0.749020 0.376471
0.921569 0.749020 0.368627
0.917647 0.745098 0.356863
0.925490 0.737255 0.345098
0.917647 0.729412 0.337255
0.098039 0.729412 0.423529
0.094118 0.729412 0.431373
0.098039 0.729412 0.423529
0.094118 0.725490 0.411765
0.098039 0.729412 0.423529
0.086275 0.737255 0.415686
0.094118 0.737255 0.400000
0.105882 0.729412 0.400000
0.094118 0.729412 0.396078
0.082353 0.733333 0.396078
0.105882 0.729412 0.407843
0.168627 0.729412 0.407843
0.337255 0.745098 0.411765
0.462745 0.756863 0.423529
0.576471 0.764706 0.427451
0.658824 0.776471 0.423529
0.733333 0.792157 0.427451
0.796078 0.800000 0.435294
0.854902 0.784314 0.447059
0.898039 0.776471 0.450980
0.909804 0.776471 0.435294
0.921569 0.780392 0.443137
0.921569 0.776471 0.431373
0.925490 0.768627 0.423529
0.921569 0.760784 0.415686
0.094118 0.752941 0.458824
0.086275 0.756863 0.458824
0.094118 0.745098 0.447059
0.090196 0.749020 0.443137
0.090196 0.749020 0.443137
0.094118 0.749020 0.435294
0.090196 0.745098 0.423529
0.086275 0.741176 0.419608
0.094118 0.745098 0.423529
0.078431 0.741176 0.423529
0.090196 0.745098 0.431373
0.164706 0.749020 0.431373
0.294118 0.752941 0.435294
0.439216 0.772549 0.439216
0.552941 0.788235 0.450980
0.639216 0.792157 0.466667
0.717647 0.807843 0.462745
0.788235 0.811765 0.474510
0.850980 0.811765 0.478431
0.890196 0.796078 0.505882
0.917647 0.792157 0.498039
0.921569 0.788235 0.498039
0.921569 0.792157 0.474510
0.929412 0.788235 0.482353
0.925490 0.784314 0.478431
0.094118 0.745098 0.454902
0.105882 0.752941 0.450980
0.094118 0.745098 0.454902
0.094118 0.752941 0.450980
0.109804 0.745098 0.447059
0.098039 0.752941 0.439216
0.105882 0.745098 0.435294
0.098039 0.745098 0.435294
0.105882 0.745098 0.427451
0.109804 0.749020 0.423529
0.117647 0.752941 0.427451
0.176471 0.752941 0.435294
0.286275 0.764706 0.439216
0.431373 0.776471 0.447059
0.556863 0.788235 0.466667
0.631373 0.803922 0.462745
0.701961 0.811765 0.478431
0.776471 0.815686 0.478431
0.839216 0.819608 0.498039
0.882353 0.807843 0.509804
0.905882 0.800000 0.521569
0.921569 0.803922 0.529412
0.925490 0.796078 0.525490
0.917647 0.800000 0.525490
0.929412 0.803922 0.517647
0.105882 0.749020 0.470588
0.105882 0.749020 0.462745
0.113725 0.749020 0.462745
0.101961 0.745098 0.466667
0.113725 0.749020 0.454902
0.113725 0.749020 0.454902
0.105882 0.752941 0.450980
0.113725 0.745098 0.439216
0.113725 0.752941 0.435294
0.113725 0.752941 0.435294
0.133333 0.749020 0.431373
0.192157 0.752941 0.439216
0.298039 0.764706 0.450980
0.419608 0.776471 0.474510
0.556863 0.780392 0.470588
0.623529 0.796078 0.486275
0.694118 0.807843 0.494118
0.760784 0.811765 0.498039
0.823529 0.819608 0.505882
0.870588 0.815686 0.521569
0.898039 0.807843 0.533333
0.917647 0.803922 0.545098
0.929412 0.800000 0.529412
0.917647 0.803922 0.529412
0.925490 0.803922 0.541176
0.109804 0.752941 0.474510
0.121569 0.745098 0.482353
0.117647 0.749020 0.486275
0.117647 0.749020 0.486275
0.121569 0.749020 0.474510
0.117647 0.749020 0.474510
0.129412 0.749020 0.458824
0.113725 0.741176 0.450980
0.121569 0.752941 0.454902
0.125490 0.745098 0.443137
0.149020 0.756863 0.458824
0.215686 0.749020 0.458824
0.321569 0.760784 0.470588
0.427451 0.772549 0.466667
0.537255 0.780392 0.486275
0.639216 0.788235 0.486275
0.701961 0.807843 0.498039
0.760784 0.815686 0.505882
0.815686 0.819608 0.521569
0.866667 0.819608 0.529412
0.890196 0.811765 0.533333
0.909804 0.800000 0.552941
0.917647 0.800000 0.564706
0.921569 0.807843 0.541176
0.929412 0.803922 0.564706
0.113725 0.756863 0.486275
0.113725 0.752941 0.505882
0.109804 0.752941 0.482353
0.125490 0.749020 0.490196
0.121569 0.752941 0.486275
0.117647 0.749020 0.482353
0.117647 0.752941 0.466667
0.117647 0.745098 0.462745
0.113725 0.745098 0.447059
0.121569 0.752941 0.454902
0.156863 0.749020 0.470588
0.219608 0.756863 0.474510
0.294118 0.764706 0.482353
0.415686 0.768627 0.494118
0.529412 0.780392 0.490196
0.619608 0.792157 0.498039
0.678431 0.803922 0.509804
0.737255 0.815686 0.533333
0.811765 0.815686 0.541176
0.847059 0.815686 0.533333
0.898039 0.803922 0.568627
0.909804 0.807843 0.576471
0.921569 0.807843 0.580392
0.925490 0.803922 0.580392
0.925490 0.803922 0.588235
0.145098 0.090196 0.078431
0.105882 0.074510 0.066667
0.094118 0.062745 0.054902
0.129412 0.070588 0.058824
0.203922 0.086275 0.078431
0.266667 0.109804 0.109804
0.309804 0.121569 0.105882
0.384314 0.133333 0.125490
0.419608 0.145098 0.145098
0.458824 0.164706 0.145098
0.501961 0.188235 0.160784
0.541176 0.192157 0.160784
0.596078 0.200000 0.168627
0.643137 0.203922 0.160784
0.678431 0.203922 0.172549
0.705882 0.203922 0.200000
0.741176 0.215686 0.211765
0.780392 0.219608 0.243137
0.807843 0.219608 0.266667
0.811765 0.223529 0.266667
0.811765 0.223529 0.266667
0.803922 0.227451 0.258824
0.803922 0.223529 0.270588
0.811765 0.223529 0.270588
0.807843 0.219608 0.262745
0.129412 0.066667 0.066667
0.070588 0.050980 0.039216
0.066667 0.047059 0.031373
0.113725 0.043137 0.035294
0.188235 0.070588 0.070588
0.258824 0.078431 0.078431
0.309804 0.109804 0.098039
0.376471 0.121569 0.113725
0.427451 0.137255 0.125490
0.466667 0.156863 0.137255
0.513725 0.168627 0.152941
0.556863 0.184314 0.160784
0.600000 0.196078 0.168627
0.643137 0.200000 0.168627
0.686275 0.203922 0.176471
0.725490 0.203922 0.207843
0.760784 0.211765 0.223529
0.792157 0.215686 0.247059
0.811765 0.223529 0.266667
0.815686 0.219608 0.270588
0.819608 0.223529 0.274510
0.827451 0.223529 0.270588
0.827451 0.215686 0.266667
0.831373 0.223529 0.278431
0.831373 0.219608 0.270588
0.125490 0.090196 0.062745
0.078431 0.078431 0.031373
0.062745 0.074510 0.039216
0.117647 0.078431 0.043137
0.180392 0.086275 0.047059
0.266667 0.098039 0.070588
0.325490 0.109804 0.090196
0.384314 0.121569 0.090196
0.431373 0.137255 0.113725
0.470588 0.152941 0.137255
0.537255 0.164706 0.156863
0.584314 0.180392 0.160784
0.615686 0.192157 0.145098
0.670588 0.196078 0.160784
0.709804 0.207843 0.172549
0.749020 0.200000 0.196078
0.788235 0.203922 0.219608
0.815686 0.211765 0.243137
0.835294 0.219608 0.254902
0.847059 0.219608 0.266667
0.839216 0.223529 0.266667
0.847059 0.219608 0.266667
0.839216 0.219608 0.274510
0.847059 0.219608 0.266667
0.847059 0.215686 0.274510
0.129412 0.137255 0.082353
0.086275 0.137255 0.058824
0.074510 0.141176 0.066667
0.094118 0.141176 0.047059
0.168627 0.137255 0.054902
0.270588 0.145098 0.062745
0.337255 0.145098 0.078431
0.400000 0.156863 0.098039
0.439216 0.156863 0.101961
0.490196 0.168627 0.121569
0.529412 0.176471 0.133333
0.580392 0.184314 0.137255
0.627451 0.188235 0.133333
0.674510 0.196078 0.137255
0.713725 0.203922 0.152941
0.749020 0.203922 0.176471
0.780392 0.207843 0.211765
0.819608 0.211765 0.243137
0.835294 0.219608 0.254902
0.847059 0.219608 0.258824
0.850980 0.215686 0.258824
0.847059 0.219608 0.250980
0.843137 0.219608 0.239216
0.862745 0.219608 0.254902
0.839216 0.223529 0.258824
0.125490 0.203922 0.094118
0.074510 0.196078 0.074510
0.074510 0.188235 0.066667
0.082353 0.188235 0.058824
0.156863 0.188235 0.043137
0.250980 0.192157 0.062745
0.341176 0.203922 0.078431
0.407843 0.207843 0.094118
0.462745 0.211765 0.101961
0.509804 0.211765 0.117647
0.560784 0.203922 0.129412
0.588235 0.211765 0.117647
0.635294 0.207843 0.125490
0.682353 0.200000 0.137255
0.717647 0.207843 0.145098
0.749020 0.215686 0.160784
0.780392 0.215686 0.184314
0.819608 0.215686 0.215686
0.847059 0.215686 0.239216
0.850980 0.219608 0.250980
0.843137 0.219608 0.239216
0.847059 0.219608 0.250980
0.847059 0.219608 0.250980
0.850980 0.219608 0.250980
0.850980 0.219608 0.250980
0.125490 0.250980 0.105882
0.082353 0.243137 0.070588
0.074510 0.254902 0.070588
0.066667 0.254902 0.066667
0.113725 0.247059 0.050980
0.223529 0.254902 0.054902
0.325490 0.262745 0.062745
0.400000 0.266667 0.078431
0.470588 0.290196 0.094118
0.529412 0.290196 0.117647
0.576471 0.286275 0.133333
0.607843 0.286275 0.137255
0.650980 0.270588 0.133333
0.698039 0.247059 0.141176
0.733333 0.227451 0.145098
0.768627 0.219608 0.160784
0.803922 0.223529 0.176471
0.831373 0.223529 0.207843
0.847059 0.227451 0.231373
0.850980 0.231373 0.235294
0.854902 0.227451 0.227451
0.850980 0.227451 0.243137
0.843137 0.231373 0.243137
0.850980 0.227451 0.243137
0.847059 0.235294 0.239216
0.117647 0.282353 0.094118
0.086275 0.290196 0.098039
0.062745 0.294118 0.082353
0.082353 0.290196 0.078431
0.082353 0.290196 0.078431
0.188235 0.298039 0.066667
0.286275 0.298039 0.082353
0.368627 0.313725 0.066667
0.458824 0.325490 0.086275
0.533333 0.333333 0.109804
0.576471 0.345098 0.125490
0.615686 0.345098 0.129412
0.662745 0.325490 0.125490
0.709804 0.305882 0.137255
0.745098 0.298039 0.152941
0.776471 0.290196 0.149020
0.811765 0.282353 0.164706
0.839216 0.274510 0.180392
0.847059 0.270588 0.200000
0.854902 0.266667 0.207843
0.858824 0.270588 0.215686
0.858824 0.270588 0.215686
0.854902 0.266667 0.211765
0.858824 0.258824 0.227451
0.862745 0.270588 0.227451
0.105882 0.329412 0.113725
0.086275 0.333333 0.117647
0.070588 0.337255 0.098039
0.062745 0.329412 0.090196
0.070588 0.337255 0.098039
0.141176 0.337255 0.098039
0.254902 0.341176 0.090196
0.345098 0.349020 0.090196
0.447059 0.356863 0.090196
0.517647 0.372549 0.098039
0.572549 0.380392 0.109804
0.627451 0.388235 0.125490
0.670588 0.380392 0.125490
0.709804 0.372549 0.133333
0.749020 0.360784 0.129412
0.784314 0.349020 0.141176
0.819608 0.341176 0.156863
0.847059 0.333333 0.168627
0.866667 0.325490 0.184314
0.862745 0.317647 0.188235
0.862745 0.325490 0.192157
0.858824 0.321569 0.196078
0.866667 0.317647 0.188235
0.862745 0.317647 0.196078
0.870588 0.313725 0.219608
0.090196 0.380392 0.149020
0.094118 0.384314 0.152941
0.074510 0.372549 0.129412
0.074510 0.368627 0.137255
0.070588 0.380392 0.125490
0.101961 0.376471 0.129412
0.203922 0.384314 0.129412
0.313725 0.392157 0.121569
0.407843 0.400000 0.109804
0.494118 0.403922 0.098039
0.568627 0.423529 0.109804
0.623529 0.431373 0.121569
0.682353 0.435294 0.121569
0.717647 0.431373 0.129412
0.749020 0.419608 0.133333
0.784314 0.403922 0.137255
0.823529 0.392157 0.145098
0.854902 0.384314 0.149020
0.866667 0.384314 0.152941
0.866667 0.384314 0.152941
0.874510 0.384314 0.164706
0.878431 0.368627 0.164706
0.882353 0.372549 0.176471
0.878431 0.368627 0.172549
0.882353 0.364706 0.176471
0.098039 0.400000 0.180392
0.098039 0.415686 0.188235
0.078431 0.415686 0.168627
0.078431 0.415686 0.160784
0.066667 0.423529 0.149020
0.094118 0.427451 0.160784
0.160784 0.423529 0.160784
0.270588 0.431373 0.164706
0.384314 0.439216 0.137255
0.466667 0.447059 0.117647
0.533333 0.450980 0.125490
0.611765 0.462745 0.129412
0.674510 0.470588 0.133333
0.721569 0.462745 0.125490
0.760784 0.454902 0.129412
0.792157 0.450980 0.141176
0.831373 0.439216 0.145098
0.850980 0.431373 0.156863
0.866667 0.423529 0.156863
0.870588 0.419608 0.156863
0.882353 0.415686 0.149020
0.882353 0.415686 0.149020
0.882353 0.415686 0.156863
0.890196 0.411765 0.156863
0.886275 0.407843 0.152941
0.090196 0.458824 0.223529
0.090196 0.466667 0.219608
0.078431 0.466667 0.215686
0.074510 0.470588 0.211765
0.078431 0.466667 0.211765
0.070588 0.466667 0.200000
0.113725 0.466667 0.192157
0.235294 0.474510 0.211765
0.356863 0.482353 0.196078
