JustShoot/Resources/Kodak5207.cube
#Generated with IWLTBAP LUT Generator
#Website: http://luts.iwltbap.com
TITLE "ORI"
#LUT size
LUT_3D_SIZE 9
#LUT data points
0.043137 0.019608 0.035294
0.078431 0.023529 0.023529
0.176471 0.043137 0.047059
0.309804 0.050980 0.054902
0.501961 0.050980 0.039216
0.666667 0.047059 0.035294
0.796078 0.074510 0.027451
0.866667 0.137255 0.039216
0.874510 0.152941 0.043137
0.070588 0.050980 0.066667
0.101961 0.070588 0.058824
0.184314 0.086275 0.066667
0.325490 0.070588 0.054902
0.498039 0.050980 0.047059
0.654902 0.054902 0.035294
0.788235 0.074510 0.031373
0.858824 0.129412 0.039216
0.874510 0.152941 0.050980
0.094118 0.164706 0.101961
0.113725 0.176471 0.074510
0.211765 0.215686 0.090196
0.360784 0.211765 0.070588
0.509804 0.168627 0.058824
0.643137 0.105882 0.043137
0.776471 0.082353 0.043137
0.858824 0.129412 0.039216
0.874510 0.176471 0.058824
0.109804 0.298039 0.133333
0.121569 0.313725 0.137255
0.207843 0.345098 0.117647
0.364706 0.376471 0.098039
0.541176 0.380392 0.066667
0.682353 0.345098 0.050980
0.780392 0.250980 0.035294
0.847059 0.207843 0.039216
0.870588 0.250980 0.062745
0.160784 0.458824 0.168627
0.149020 0.450980 0.176471
0.200000 0.470588 0.156863
0.368627 0.529412 0.121569
0.564706 0.564706 0.094118
0.698039 0.580392 0.070588
0.800000 0.533333 0.043137
0.870588 0.447059 0.050980
0.898039 0.447059 0.082353
0.258824 0.607843 0.239216
0.247059 0.596078 0.227451
0.247059 0.600000 0.223529
0.356863 0.639216 0.207843
0.568627 0.694118 0.172549
0.717647 0.717647 0.137255
0.819608 0.741176 0.125490
0.886275 0.713725 0.121569
0.909804 0.701961 0.160784
0.450980 0.752941 0.384314
0.439216 0.752941 0.380392
0.427451 0.741176 0.360784
0.443137 0.749020 0.352941
0.521569 0.768627 0.349020
0.709804 0.815686 0.309804
0.827451 0.835294 0.266667
0.890196 0.850980 0.266667
0.898039 0.843137 0.313725
0.603922 0.831373 0.533333
0.615686 0.827451 0.529412
0.603922 0.827451 0.517647
0.603922 0.827451 0.517647
0.607843 0.831373 0.529412
0.654902 0.850980 0.509804
0.796078 0.878431 0.482353
0.894118 0.890196 0.435294
0.898039 0.901961 0.501961
0.639216 0.843137 0.592157
0.647059 0.835294 0.592157
0.639216 0.843137 0.584314
0.643137 0.839216 0.592157
0.654902 0.835294 0.592157
0.678431 0.858824 0.572549
0.780392 0.878431 0.549020
0.878431 0.894118 0.552941
0.901961 0.894118 0.592157
0.066667 0.007843 0.082353
0.082353 0.031373 0.070588
0.196078 0.050980 0.082353
0.345098 0.066667 0.090196
0.533333 0.050980 0.062745
0.686275 0.062745 0.050980
0.792157 0.082353 0.054902
0.858824 0.133333 0.054902
0.870588 0.156863 0.074510
0.074510 0.062745 0.105882
0.105882 0.078431 0.105882
0.203922 0.101961 0.098039
0.384314 0.121569 0.090196
0.545098 0.078431 0.054902
0.678431 0.054902 0.039216
0.780392 0.070588 0.035294
0.858824 0.117647 0.039216
0.874510 0.160784 0.074510
0.098039 0.200000 0.164706
0.121569 0.207843 0.156863
0.227451 0.235294 0.141176
0.400000 0.266667 0.117647
0.572549 0.250980 0.066667
0.686275 0.164706 0.035294
0.768627 0.098039 0.027451
0.847059 0.121569 0.050980
0.862745 0.176471 0.070588
0.133333 0.345098 0.219608
0.133333 0.325490 0.207843
0.239216 0.360784 0.188235
0.400000 0.407843 0.160784
0.572549 0.450980 0.094118
0.698039 0.411765 0.050980
0.784314 0.309804 0.039216
0.843137 0.227451 0.050980
0.874510 0.262745 0.070588
0.180392 0.482353 0.278431
0.164706 0.447059 0.266667
0.262745 0.482353 0.235294
0.411765 0.541176 0.200000
0.584314 0.572549 0.152941
0.713725 0.592157 0.101961
0.807843 0.560784 0.047059
0.858824 0.470588 0.062745
0.878431 0.466667 0.105882
0.266667 0.611765 0.321569
0.243137 0.580392 0.325490
0.254902 0.596078 0.278431
0.392157 0.639216 0.231373
0.592157 0.690196 0.192157
0.729412 0.709804 0.149020
0.831373 0.729412 0.152941
0.886275 0.725490 0.137255
0.894118 0.701961 0.188235
0.439216 0.737255 0.454902
0.435294 0.737255 0.415686
0.427451 0.733333 0.403922
0.407843 0.725490 0.352941
0.490196 0.760784 0.333333
0.713725 0.815686 0.286275
0.835294 0.831373 0.274510
0.901961 0.847059 0.266667
0.909804 0.843137 0.325490
0.600000 0.819608 0.572549
0.588235 0.827451 0.556863
0.596078 0.823529 0.533333
0.596078 0.823529 0.525490
0.592157 0.831373 0.525490
0.647059 0.843137 0.509804
0.807843 0.878431 0.478431
0.890196 0.894118 0.435294
0.901961 0.886275 0.498039
0.635294 0.831373 0.631373
0.639216 0.831373 0.611765
0.639216 0.831373 0.611765
0.631373 0.843137 0.615686
0.631373 0.843137 0.600000
0.670588 0.854902 0.588235
0.784314 0.874510 0.568627
0.878431 0.894118 0.560784
0.894118 0.898039 0.600000
0.043137 0.015686 0.137255
0.086275 0.031373 0.168627
0.192157 0.058824 0.164706
0.341176 0.066667 0.168627
0.521569 0.078431 0.156863
0.658824 0.090196 0.156863
0.752941 0.109804 0.152941
0.823529 0.145098 0.152941
0.858824 0.184314 0.176471
0.058824 0.062745 0.180392
0.086275 0.062745 0.196078
0.200000 0.109804 0.188235
0.372549 0.129412 0.180392
0.541176 0.149020 0.180392
0.666667 0.152941 0.172549
0.752941 0.125490 0.133333
0.827451 0.141176 0.129412
0.850980 0.180392 0.149020
0.094118 0.207843 0.262745
0.094118 0.203922 0.258824
0.235294 0.239216 0.254902
0.396078 0.258824 0.235294
0.552941 0.274510 0.203922
0.686275 0.270588 0.184314
0.764706 0.219608 0.129412
0.847059 0.156863 0.098039
0.870588 0.207843 0.133333
0.129412 0.345098 0.364706
0.121569 0.321569 0.337255
0.235294 0.368627 0.305882
0.396078 0.411765 0.282353
0.560784 0.443137 0.239216
0.698039 0.443137 0.215686
0.792157 0.427451 0.156863
0.850980 0.321569 0.105882
0.882353 0.321569 0.149020
0.168627 0.470588 0.407843
0.156863 0.435294 0.411765
0.235294 0.466667 0.380392
0.392157 0.513725 0.352941
0.568627 0.552941 0.305882
0.701961 0.588235 0.274510
0.807843 0.600000 0.223529
0.882353 0.545098 0.149020
0.894118 0.505882 0.180392
0.239216 0.576471 0.478431
0.227451 0.552941 0.482353
0.235294 0.556863 0.466667
0.388235 0.592157 0.439216
0.568627 0.639216 0.403922
0.705882 0.678431 0.360784
0.815686 0.717647 0.325490
0.890196 0.729412 0.227451
0.909804 0.709804 0.250980
0.376471 0.686275 0.564706
0.364706 0.674510 0.560784
0.364706 0.670588 0.576471
0.376471 0.674510 0.564706
0.513725 0.698039 0.517647
0.713725 0.760784 0.462745
0.819608 0.800000 0.407843
0.905882 0.835294 0.341176
0.905882 0.831373 0.360784
0.564706 0.784314 0.647059
0.545098 0.788235 0.635294
0.549020 0.784314 0.635294
0.552941 0.792157 0.627451
0.564706 0.800000 0.600000
0.619608 0.831373 0.537255
0.811765 0.874510 0.486275
0.898039 0.890196 0.494118
0.890196 0.890196 0.513725
0.615686 0.811765 0.662745
0.615686 0.819608 0.666667
0.619608 0.815686 0.666667
0.623529 0.823529 0.662745
0.631373 0.823529 0.639216
0.647059 0.839216 0.619608
0.792157 0.870588 0.592157
0.882353 0.894118 0.576471
0.901961 0.894118 0.603922
0.035294 0.031373 0.254902
0.078431 0.043137 0.266667
0.192157 0.066667 0.262745
0.349020 0.082353 0.274510
0.513725 0.094118 0.266667
0.639216 0.113725 0.243137
0.721569 0.156863 0.254902
0.815686 0.203922 0.290196
0.847059 0.250980 0.309804
0.043137 0.035294 0.231373
0.058824 0.043137 0.243137
0.172549 0.062745 0.250980
0.337255 0.109804 0.270588
0.521569 0.152941 0.286275
0.647059 0.188235 0.290196
0.729412 0.227451 0.286275
0.815686 0.243137 0.294118
0.854902 0.266667 0.301961
0.082353 0.192157 0.376471
0.109804 0.200000 0.360784
0.219608 0.219608 0.352941
0.372549 0.258824 0.337255
0.541176 0.282353 0.329412
0.654902 0.294118 0.313725
0.752941 0.321569 0.317647
0.835294 0.329412 0.309804
0.862745 0.321569 0.309804
0.121569 0.337255 0.454902
0.121569 0.317647 0.423529
0.231373 0.356863 0.439216
0.392157 0.411765 0.423529
0.564706 0.439216 0.396078
0.694118 0.450980 0.360784
0.784314 0.458824 0.341176
0.858824 0.450980 0.337255
0.878431 0.427451 0.313725
0.172549 0.462745 0.505882
0.141176 0.419608 0.498039
0.211765 0.447059 0.490196
0.380392 0.501961 0.482353
0.560784 0.560784 0.458824
0.705882 0.592157 0.435294
0.811765 0.611765 0.396078
0.870588 0.615686 0.396078
0.878431 0.592157 0.376471
0.235294 0.564706 0.572549
0.215686 0.541176 0.564706
0.219608 0.529412 0.556863
0.356863 0.572549 0.549020
0.556863 0.635294 0.529412
0.694118 0.678431 0.494118
0.815686 0.721569 0.478431
0.886275 0.741176 0.462745
0.898039 0.729412 0.423529
0.364706 0.678431 0.643137
0.364706 0.662745 0.654902
0.356863 0.654902 0.647059
0.345098 0.654902 0.631373
0.509804 0.694118 0.631373
0.705882 0.752941 0.603922
0.811765 0.792157 0.572549
0.898039 0.827451 0.537255
0.901961 0.831373 0.501961
0.529412 0.768627 0.698039
0.525490 0.772549 0.698039
0.525490 0.764706 0.705882
0.517647 0.760784 0.701961
0.509804 0.760784 0.705882
0.631373 0.792157 0.674510
0.803922 0.847059 0.627451
0.890196 0.882353 0.588235
0.898039 0.882353 0.592157
0.584314 0.800000 0.717647
0.592157 0.800000 0.729412
0.584314 0.807843 0.733333
0.596078 0.803922 0.733333
0.600000 0.811765 0.721569
0.650980 0.819608 0.701961
0.768627 0.858824 0.639216
0.878431 0.890196 0.611765
0.901961 0.886275 0.639216
0.023529 0.047059 0.376471
0.058824 0.062745 0.376471
0.180392 0.086275 0.384314
0.333333 0.105882 0.396078
0.529412 0.117647 0.388235
0.639216 0.129412 0.364706
0.725490 0.164706 0.345098
0.796078 0.219608 0.384314
0.835294 0.262745 0.407843
0.023529 0.043137 0.360784
0.031373 0.066667 0.360784
0.149020 0.078431 0.368627
0.309804 0.101961 0.376471
0.501961 0.117647 0.356863
0.627451 0.164706 0.360784
0.733333 0.203922 0.364706
0.807843 0.254902 0.388235
0.831373 0.294118 0.403922
0.062745 0.168627 0.447059
0.129412 0.196078 0.466667
0.223529 0.227451 0.447059
0.372549 0.262745 0.454902
0.529412 0.286275 0.447059
0.654902 0.305882 0.423529
0.756863 0.333333 0.423529
0.827451 0.376471 0.435294
0.858824 0.380392 0.431373
0.109804 0.325490 0.537255
0.145098 0.325490 0.521569
0.235294 0.349020 0.521569
0.380392 0.400000 0.513725
0.549020 0.443137 0.501961
0.698039 0.462745 0.494118
0.788235 0.478431 0.490196
0.850980 0.498039 0.494118
0.866667 0.509804 0.490196
0.172549 0.462745 0.600000
0.168627 0.443137 0.576471
0.239216 0.462745 0.576471
0.388235 0.509804 0.592157
0.568627 0.564706 0.584314
0.709804 0.600000 0.556863
0.807843 0.619608 0.533333
0.866667 0.631373 0.537255
0.894118 0.635294 0.541176
0.258824 0.564706 0.654902
0.243137 0.549020 0.639216
0.235294 0.533333 0.627451
0.352941 0.572549 0.631373
0.556863 0.635294 0.627451
0.713725 0.686275 0.615686
0.819608 0.729412 0.603922
0.878431 0.745098 0.596078
0.898039 0.741176 0.603922
0.392157 0.682353 0.725490
0.372549 0.662745 0.705882
0.356863 0.654902 0.705882
0.360784 0.650980 0.701961
0.498039 0.690196 0.705882
0.701961 0.752941 0.686275
0.811765 0.796078 0.658824
0.894118 0.827451 0.658824
0.913725 0.835294 0.639216
0.541176 0.772549 0.764706
0.541176 0.760784 0.764706
0.533333 0.760784 0.768627
0.525490 0.760784 0.760784
0.517647 0.752941 0.756863
0.631373 0.788235 0.745098
0.796078 0.835294 0.729412
0.886275 0.866667 0.701961
0.898039 0.882353 0.698039
0.592157 0.796078 0.780392
0.596078 0.803922 0.780392
0.584314 0.800000 0.780392
0.600000 0.796078 0.784314
0.592157 0.796078 0.788235
0.639216 0.807843 0.772549
0.780392 0.843137 0.737255
0.886275 0.882353 0.709804
0.898039 0.882353 0.733333
0.015686 0.070588 0.482353
0.027451 0.082353 0.494118
0.137255 0.113725 0.505882
0.294118 0.137255 0.486275
0.498039 0.152941 0.490196
0.647059 0.152941 0.470588
0.725490 0.180392 0.447059
0.807843 0.250980 0.470588
0.831373 0.294118 0.498039
0.011765 0.082353 0.482353
0.011765 0.078431 0.486275
0.101961 0.101961 0.486275
0.274510 0.121569 0.470588
0.466667 0.141176 0.462745
0.623529 0.149020 0.458824
0.721569 0.192157 0.450980
0.800000 0.258824 0.458824
0.831373 0.290196 0.482353
0.023529 0.098039 0.509804
0.039216 0.098039 0.494118
0.141176 0.125490 0.494118
0.305882 0.168627 0.498039
0.490196 0.231373 0.509804
0.635294 0.278431 0.501961
0.741176 0.317647 0.509804
0.815686 0.360784 0.498039
0.847059 0.380392 0.505882
0.113725 0.333333 0.623529
0.172549 0.356863 0.623529
0.258824 0.356863 0.607843
0.392157 0.400000 0.600000
0.545098 0.435294 0.596078
0.670588 0.427451 0.572549
0.756863 0.462745 0.552941
0.839216 0.490196 0.560784
0.850980 0.501961 0.572549
0.172549 0.470588 0.674510
0.192157 0.462745 0.686275
0.262745 0.482353 0.666667
0.400000 0.517647 0.658824
0.568627 0.552941 0.650980
0.698039 0.588235 0.635294
0.792157 0.607843 0.631373
0.854902 0.623529 0.631373
0.882353 0.631373 0.635294
0.262745 0.556863 0.721569
0.247059 0.552941 0.705882
0.258824 0.552941 0.709804
0.376471 0.584314 0.705882
0.568627 0.635294 0.698039
0.717647 0.682353 0.694118
0.811765 0.713725 0.686275
0.878431 0.737255 0.682353
0.886275 0.729412 0.690196
0.388235 0.670588 0.756863
0.376471 0.650980 0.752941
0.364706 0.654902 0.752941
0.376471 0.647059 0.760784
0.513725 0.694118 0.752941
0.705882 0.745098 0.741176
0.815686 0.792157 0.745098
0.894118 0.823529 0.737255
0.886275 0.819608 0.749020
0.541176 0.760784 0.811765
0.537255 0.756863 0.807843
0.525490 0.752941 0.807843
0.521569 0.752941 0.807843
0.549020 0.756863 0.811765
0.670588 0.784314 0.800000
0.803922 0.835294 0.784314
0.886275 0.866667 0.788235
0.894118 0.870588 0.776471
0.603922 0.796078 0.811765
0.603922 0.796078 0.823529
0.600000 0.796078 0.823529
0.603922 0.792157 0.831373
0.611765 0.796078 0.827451
0.670588 0.807843 0.823529
0.792157 0.843137 0.807843
0.878431 0.874510 0.796078
0.894118 0.874510 0.788235
0.007843 0.133333 0.615686
0.003922 0.137255 0.631373
0.058824 0.145098 0.623529
0.223529 0.176471 0.607843
0.490196 0.207843 0.607843
0.662745 0.200000 0.576471
0.756863 0.231373 0.564706
0.827451 0.317647 0.600000
0.847059 0.380392 0.607843
0.003922 0.129412 0.611765
0.007843 0.133333 0.615686
0.027451 0.141176 0.611765
0.207843 0.176471 0.615686
0.454902 0.200000 0.607843
0.650980 0.203922 0.576471
0.756863 0.250980 0.576471
0.827451 0.341176 0.584314
0.847059 0.384314 0.619608
0.007843 0.121569 0.615686
0.007843 0.125490 0.603922
0.047059 0.145098 0.611765
0.227451 0.172549 0.607843
0.466667 0.203922 0.607843
0.643137 0.235294 0.584314
0.764706 0.317647 0.600000
0.827451 0.403922 0.607843
0.866667 0.450980 0.639216
0.062745 0.294118 0.686275
0.109804 0.321569 0.705882
0.227451 0.345098 0.690196
0.396078 0.396078 0.686275
0.568627 0.443137 0.698039
0.694118 0.466667 0.694118
0.772549 0.486275 0.666667
0.847059 0.513725 0.666667
0.858824 0.529412 0.662745
0.188235 0.478431 0.756863
0.231373 0.494118 0.768627
0.309804 0.505882 0.752941
0.427451 0.533333 0.749020
0.596078 0.576471 0.737255
0.713725 0.596078 0.737255
0.788235 0.611765 0.725490
0.850980 0.635294 0.725490
0.874510 0.643137 0.721569
0.262745 0.580392 0.796078
0.254902 0.576471 0.796078
0.305882 0.580392 0.784314
0.435294 0.607843 0.784314
0.588235 0.643137 0.780392
0.721569 0.690196 0.772549
0.811765 0.717647 0.768627
0.862745 0.733333 0.768627
0.882353 0.737255 0.768627
0.388235 0.666667 0.831373
0.376471 0.670588 0.827451
0.388235 0.670588 0.827451
0.407843 0.662745 0.827451
0.564706 0.701961 0.811765
0.733333 0.752941 0.827451
0.823529 0.800000 0.815686
0.878431 0.815686 0.819608
0.894118 0.823529 0.815686
0.541176 0.752941 0.847059
0.537255 0.756863 0.862745
0.541176 0.764706 0.843137
0.545098 0.760784 0.843137
0.564706 0.764706 0.847059
0.721569 0.796078 0.850980
0.823529 0.843137 0.854902
0.890196 0.870588 0.854902
0.901961 0.870588 0.858824
0.588235 0.796078 0.858824
0.600000 0.780392 0.870588
0.611765 0.788235 0.862745
0.615686 0.792157 0.866667
0.647059 0.800000 0.866667
0.717647 0.819608 0.870588
0.819608 0.854902 0.874510
0.890196 0.878431 0.858824
0.901961 0.882353 0.858824
0.000000 0.180392 0.721569
0.019608 0.184314 0.725490
0.031373 0.188235 0.713725
0.180392 0.215686 0.713725
0.439216 0.266667 0.701961
0.666667 0.282353 0.686275
0.792157 0.317647 0.690196
0.835294 0.368627 0.698039
0.835294 0.431373 0.717647
0.003922 0.184314 0.713725
0.007843 0.176471 0.721569
0.031373 0.188235 0.713725
0.176471 0.219608 0.713725
0.427451 0.258824 0.709804
0.662745 0.282353 0.701961
0.792157 0.321569 0.701961
0.839216 0.376471 0.705882
0.847059 0.443137 0.721569
0.007843 0.172549 0.713725
0.019608 0.172549 0.717647
0.074510 0.192157 0.709804
0.215686 0.223529 0.705882
0.427451 0.270588 0.709804
0.658824 0.294118 0.709804
0.784314 0.333333 0.698039
0.835294 0.411765 0.709804
0.847059 0.443137 0.713725
0.015686 0.254902 0.745098
0.007843 0.239216 0.741176
0.070588 0.223529 0.729412
0.258824 0.266667 0.733333
0.462745 0.317647 0.721569
0.662745 0.349020 0.721569
0.780392 0.400000 0.717647
0.839216 0.458824 0.729412
0.850980 0.498039 0.741176
0.117647 0.447059 0.823529
0.141176 0.447059 0.831373
0.215686 0.474510 0.815686
0.392157 0.517647 0.811765
0.580392 0.560784 0.811765
0.729412 0.600000 0.807843
0.803922 0.623529 0.807843
0.850980 0.619608 0.792157
0.866667 0.611765 0.776471
0.247059 0.588235 0.866667
0.262745 0.588235 0.854902
0.325490 0.603922 0.862745
0.443137 0.619608 0.850980
0.600000 0.654902 0.839216
0.725490 0.694118 0.839216
0.819608 0.713725 0.835294
0.858824 0.725490 0.823529
0.862745 0.725490 0.819608
0.372549 0.686275 0.886275
0.352941 0.670588 0.886275
0.372549 0.674510 0.886275
0.458824 0.698039 0.874510
0.607843 0.721569 0.878431
0.741176 0.760784 0.874510
0.831373 0.796078 0.870588
0.882353 0.819608 0.862745
0.886275 0.815686 0.862745
0.533333 0.760784 0.917647
0.525490 0.760784 0.905882
0.525490 0.760784 0.905882
0.549020 0.760784 0.901961
0.611765 0.788235 0.909804
0.749020 0.819608 0.905882
0.835294 0.850980 0.898039
0.886275 0.874510 0.901961
0.905882 0.882353 0.890196
0.588235 0.800000 0.909804
0.584314 0.792157 0.913725
0.596078 0.796078 0.917647
0.619608 0.803922 0.921569
0.666667 0.811765 0.913725
0.756863 0.839216 0.921569
0.831373 0.862745 0.905882
0.890196 0.886275 0.909804
0.909804 0.890196 0.905882
0.015686 0.200000 0.741176
0.019608 0.200000 0.741176
0.062745 0.211765 0.749020
0.203922 0.231373 0.741176
0.435294 0.290196 0.733333
0.662745 0.313725 0.729412
0.796078 0.349020 0.721569
0.847059 0.439216 0.741176
0.847059 0.482353 0.756863
0.015686 0.200000 0.749020
0.027451 0.196078 0.749020
0.078431 0.211765 0.745098
0.215686 0.235294 0.745098
0.427451 0.298039 0.741176
0.662745 0.317647 0.725490
0.788235 0.360784 0.725490
0.850980 0.450980 0.741176
0.843137 0.494118 0.752941
0.027451 0.196078 0.749020
0.031373 0.200000 0.745098
0.109804 0.211765 0.749020
0.243137 0.239216 0.737255
0.443137 0.298039 0.741176
0.662745 0.329412 0.737255
0.800000 0.396078 0.752941
0.835294 0.458824 0.741176
0.847059 0.498039 0.764706
0.047059 0.270588 0.784314
0.047059 0.243137 0.764706
0.113725 0.250980 0.760784
0.274510 0.294118 0.756863
0.466667 0.356863 0.760784
0.662745 0.392157 0.756863
0.784314 0.435294 0.756863
0.847059 0.490196 0.752941
0.850980 0.537255 0.768627
0.133333 0.427451 0.827451
0.152941 0.439216 0.839216
0.211765 0.439216 0.827451
0.345098 0.458824 0.819608
0.533333 0.505882 0.811765
0.701961 0.545098 0.819608
0.796078 0.580392 0.803922
0.843137 0.600000 0.792157
0.850980 0.623529 0.811765
0.262745 0.568627 0.858824
0.274510 0.580392 0.870588
0.329412 0.592157 0.866667
0.431373 0.607843 0.862745
0.588235 0.647059 0.862745
0.725490 0.690196 0.858824
0.819608 0.713725 0.843137
0.866667 0.725490 0.835294
0.862745 0.709804 0.831373
0.380392 0.682353 0.894118
0.364706 0.674510 0.898039
0.396078 0.682353 0.898039
0.482353 0.690196 0.886275
0.615686 0.725490 0.882353
0.741176 0.760784 0.878431
0.831373 0.796078 0.878431
0.886275 0.823529 0.874510
0.874510 0.811765 0.862745
0.525490 0.768627 0.921569
0.537255 0.764706 0.909804
0.533333 0.768627 0.913725
0.560784 0.772549 0.913725
0.647059 0.788235 0.929412
0.756863 0.819608 0.909804
0.839216 0.850980 0.909804
0.886275 0.874510 0.909804
0.901961 0.862745 0.905882
0.603922 0.800000 0.929412
0.607843 0.800000 0.925490
0.627451 0.803922 0.925490
0.658824 0.811765 0.933333
0.678431 0.811765 0.917647
0.768627 0.839216 0.917647
0.827451 0.862745 0.921569
0.890196 0.890196 0.929412
0.913725 0.901961 0.937255
