JustShoot/Resources/KodakPortra400.cube
#Generated with IWLTBAP LUT Generator
#Website: http://luts.iwltbap.com
TITLE "ORI"
#LUT size
LUT_3D_SIZE 9
#LUT data points
0.011765 0.019608 0.015686
0.058824 0.015686 0.031373
0.145098 0.023529 0.003922
0.349020 0.047059 0.007843
0.545098 0.019608 0.023529
0.701961 0.035294 0.035294
0.831373 0.039216 0.023529
0.925490 0.105882 0.027451
0.984314 0.168627 0.019608
0.011765 0.031373 0.015686
0.058824 0.066667 0.023529
0.188235 0.098039 0.027451
0.376471 0.125490 0.015686
0.576471 0.125490 0.011765
0.729412 0.105882 0.023529
0.843137 0.168627 0.011765
0.921569 0.207843 0.011765
0.972549 0.231373 0.011765
0.019608 0.192157 0.062745
0.039216 0.188235 0.035294
0.192157 0.227451 0.011765
0.411765 0.274510 0.015686
0.611765 0.286275 0.027451
0.756863 0.282353 0.011765
0.850980 0.294118 0.011765
0.929412 0.317647 0.023529
0.976471 0.321569 0.015686
0.031373 0.364706 0.133333
0.023529 0.372549 0.121569
0.239216 0.392157 0.066667
0.423529 0.427451 0.027451
0.600000 0.431373 0.019608
0.749020 0.431373 0.011765
0.854902 0.435294 0.027451
0.933333 0.435294 0.023529
0.972549 0.435294 0.027451
0.035294 0.537255 0.211765
0.145098 0.525490 0.207843
0.313725 0.541176 0.211765
0.431373 0.549020 0.172549
0.576471 0.560784 0.035294
0.694118 0.541176 0.027451
0.823529 0.564706 0.015686
0.925490 0.556863 0.023529
0.988235 0.549020 0.015686
0.290196 0.611765 0.329412
0.341176 0.627451 0.317647
0.419608 0.650980 0.337255
0.474510 0.643137 0.329412
0.576471 0.662745 0.270588
0.674510 0.666667 0.192157
0.796078 0.670588 0.031373
0.913725 0.674510 0.023529
0.996078 0.674510 0.007843
0.482353 0.721569 0.450980
0.494118 0.717647 0.450980
0.521569 0.725490 0.466667
0.556863 0.733333 0.462745
0.584314 0.733333 0.431373
0.682353 0.756863 0.403922
0.772549 0.760784 0.317647
0.890196 0.760784 0.215686
0.976471 0.764706 0.184314
0.592157 0.800000 0.580392
0.611765 0.811765 0.592157
0.631373 0.815686 0.600000
0.647059 0.823529 0.607843
0.658824 0.819608 0.600000
0.690196 0.827451 0.568627
0.768627 0.839216 0.541176
0.878431 0.854902 0.486275
0.964706 0.862745 0.427451
0.725490 0.890196 0.741176
0.721569 0.898039 0.745098
0.737255 0.905882 0.737255
0.745098 0.894118 0.741176
0.749020 0.917647 0.749020
0.764706 0.909804 0.737255
0.803922 0.933333 0.725490
0.854902 0.937255 0.705882
0.890196 0.937255 0.678431
0.019608 0.015686 0.035294
0.050980 0.011765 0.043137
0.176471 0.015686 0.070588
0.364706 0.019608 0.082353
0.556863 0.023529 0.078431
0.725490 0.019608 0.031373
0.823529 0.023529 0.027451
0.921569 0.066667 0.027451
0.976471 0.152941 0.015686
0.023529 0.062745 0.070588
0.062745 0.078431 0.090196
0.196078 0.070588 0.074510
0.388235 0.074510 0.070588
0.576471 0.074510 0.062745
0.725490 0.082353 0.035294
0.831373 0.105882 0.023529
0.913725 0.172549 0.015686
0.980392 0.227451 0.035294
0.015686 0.219608 0.133333
0.050980 0.223529 0.133333
0.239216 0.247059 0.094118
0.431373 0.270588 0.050980
0.627451 0.274510 0.031373
0.752941 0.274510 0.027451
0.847059 0.294118 0.023529
0.929412 0.309804 0.023529
0.976471 0.321569 0.015686
0.031373 0.396078 0.211765
0.090196 0.396078 0.192157
0.270588 0.407843 0.180392
0.443137 0.423529 0.094118
0.615686 0.450980 0.027451
0.760784 0.435294 0.019608
0.854902 0.435294 0.027451
0.929412 0.439216 0.023529
0.976471 0.447059 0.027451
0.141176 0.521569 0.250980
0.223529 0.513725 0.266667
0.356863 0.537255 0.282353
0.450980 0.556863 0.254902
0.584314 0.556863 0.141176
0.709804 0.564706 0.047059
0.839216 0.568627 0.031373
0.929412 0.560784 0.035294
0.992157 0.552941 0.019608
0.325490 0.623529 0.341176
0.376471 0.619608 0.364706
0.443137 0.643137 0.384314
0.486275 0.643137 0.368627
0.568627 0.654902 0.321569
0.686275 0.658824 0.243137
0.796078 0.666667 0.121569
0.909804 0.674510 0.094118
0.988235 0.666667 0.101961
0.474510 0.717647 0.462745
0.501961 0.721569 0.482353
0.521569 0.733333 0.498039
0.556863 0.729412 0.482353
0.600000 0.741176 0.466667
0.662745 0.756863 0.427451
0.780392 0.760784 0.352941
0.874510 0.764706 0.274510
0.984314 0.772549 0.254902
0.607843 0.803922 0.611765
0.619608 0.807843 0.611765
0.631373 0.815686 0.611765
0.635294 0.819608 0.615686
0.670588 0.823529 0.607843
0.694118 0.831373 0.580392
0.752941 0.839216 0.545098
0.866667 0.843137 0.498039
0.952941 0.862745 0.447059
0.709804 0.886275 0.725490
0.729412 0.901961 0.760784
0.745098 0.901961 0.756863
0.749020 0.913725 0.764706
0.737255 0.913725 0.752941
0.772549 0.913725 0.741176
0.800000 0.917647 0.713725
0.854902 0.937255 0.713725
0.913725 0.952941 0.682353
0.023529 0.027451 0.215686
0.066667 0.019608 0.200000
0.203922 0.023529 0.207843
0.400000 0.019608 0.231373
0.584314 0.023529 0.243137
0.725490 0.023529 0.250980
0.819608 0.015686 0.235294
0.894118 0.121569 0.231373
0.890196 0.286275 0.278431
0.027451 0.082353 0.227451
0.035294 0.086275 0.219608
0.223529 0.082353 0.231373
0.419608 0.054902 0.239216
0.596078 0.027451 0.243137
0.737255 0.054902 0.247059
0.823529 0.113725 0.235294
0.835294 0.262745 0.262745
0.898039 0.313725 0.298039
0.019608 0.235294 0.254902
0.050980 0.243137 0.262745
0.286275 0.266667 0.282353
0.458824 0.278431 0.278431
0.615686 0.270588 0.254902
0.729412 0.286275 0.262745
0.807843 0.313725 0.266667
0.862745 0.356863 0.274510
0.929412 0.372549 0.278431
0.137255 0.427451 0.329412
0.215686 0.435294 0.337255
0.325490 0.435294 0.337255
0.454902 0.454902 0.305882
0.619608 0.474510 0.266667
0.737255 0.458824 0.254902
0.839216 0.439216 0.247059
0.905882 0.447059 0.239216
0.960784 0.450980 0.247059
0.290196 0.552941 0.384314
0.345098 0.549020 0.396078
0.392157 0.556863 0.400000
0.462745 0.572549 0.384314
0.588235 0.584314 0.333333
0.721569 0.592157 0.274510
0.827451 0.584314 0.243137
0.921569 0.572549 0.258824
0.968627 0.568627 0.239216
0.407843 0.639216 0.450980
0.423529 0.650980 0.450980
0.454902 0.650980 0.458824
0.509804 0.662745 0.454902
0.580392 0.666667 0.415686
0.690196 0.686275 0.372549
0.819608 0.694118 0.298039
0.901961 0.694118 0.294118
0.984314 0.678431 0.294118
0.505882 0.725490 0.541176
0.509804 0.733333 0.525490
0.537255 0.733333 0.533333
0.576471 0.741176 0.545098
0.600000 0.749020 0.525490
0.658824 0.756863 0.490196
0.768627 0.776471 0.447059
0.890196 0.780392 0.400000
0.976471 0.784314 0.372549
0.619608 0.823529 0.635294
0.635294 0.815686 0.635294
0.635294 0.815686 0.631373
0.654902 0.823529 0.643137
0.678431 0.827451 0.643137
0.694118 0.831373 0.611765
0.749020 0.843137 0.600000
0.854902 0.847059 0.545098
0.960784 0.858824 0.486275
0.737255 0.898039 0.772549
0.729412 0.901961 0.760784
0.745098 0.909804 0.768627
0.760784 0.905882 0.772549
0.760784 0.905882 0.772549
0.784314 0.909804 0.756863
0.803922 0.929412 0.745098
0.854902 0.945098 0.733333
0.898039 0.945098 0.694118
0.019608 0.023529 0.388235
0.043137 0.023529 0.384314
0.247059 0.023529 0.403922
0.431373 0.023529 0.411765
0.615686 0.023529 0.435294
0.749020 0.023529 0.419608
0.847059 0.019608 0.384314
0.933333 0.035294 0.356863
0.901961 0.270588 0.403922
0.015686 0.105882 0.411765
0.027451 0.094118 0.400000
0.239216 0.109804 0.427451
0.462745 0.113725 0.427451
0.635294 0.101961 0.435294
0.749020 0.113725 0.411765
0.843137 0.098039 0.388235
0.862745 0.235294 0.407843
0.925490 0.329412 0.419608
0.019608 0.266667 0.427451
0.015686 0.254902 0.431373
0.262745 0.294118 0.447059
0.486275 0.298039 0.462745
0.623529 0.309804 0.454902
0.713725 0.321569 0.431373
0.800000 0.345098 0.419608
0.874510 0.360784 0.415686
0.913725 0.407843 0.423529
0.043137 0.435294 0.443137
0.180392 0.447059 0.458824
0.352941 0.466667 0.482353
0.486275 0.478431 0.482353
0.627451 0.478431 0.466667
0.737255 0.474510 0.450980
0.819608 0.474510 0.427451
0.890196 0.486275 0.427451
0.945098 0.486275 0.419608
0.345098 0.588235 0.498039
0.372549 0.588235 0.505882
0.450980 0.603922 0.529412
0.513725 0.600000 0.517647
0.584314 0.603922 0.486275
0.721569 0.603922 0.470588
0.823529 0.592157 0.458824
0.898039 0.596078 0.423529
0.968627 0.596078 0.423529
0.454902 0.674510 0.537255
0.474510 0.686275 0.552941
0.501961 0.686275 0.552941
0.537255 0.682353 0.552941
0.584314 0.682353 0.525490
0.682353 0.698039 0.498039
0.792157 0.705882 0.470588
0.901961 0.705882 0.458824
0.968627 0.690196 0.447059
0.549020 0.752941 0.600000
0.552941 0.756863 0.603922
0.572549 0.752941 0.607843
0.596078 0.760784 0.611765
0.627451 0.768627 0.596078
0.678431 0.764706 0.572549
0.772549 0.780392 0.533333
0.882353 0.792157 0.494118
0.984314 0.792157 0.482353
0.635294 0.819608 0.686275
0.650980 0.831373 0.686275
0.654902 0.827451 0.686275
0.674510 0.831373 0.686275
0.690196 0.831373 0.682353
0.713725 0.843137 0.674510
0.760784 0.850980 0.647059
0.843137 0.858824 0.619608
0.949020 0.878431 0.580392
0.729412 0.898039 0.788235
0.741176 0.901961 0.784314
0.756863 0.909804 0.788235
0.772549 0.917647 0.796078
0.776471 0.913725 0.788235
0.784314 0.917647 0.780392
0.807843 0.929412 0.764706
0.854902 0.941176 0.756863
0.909804 0.964706 0.733333
0.027451 0.019608 0.541176
0.027451 0.019608 0.549020
0.258824 0.019608 0.564706
0.466667 0.043137 0.572549
0.643137 0.035294 0.584314
0.772549 0.094118 0.588235
0.811765 0.254902 0.552941
0.866667 0.301961 0.541176
0.909804 0.305882 0.517647
0.027451 0.117647 0.556863
0.039216 0.117647 0.568627
0.274510 0.141176 0.584314
0.482353 0.156863 0.572549
0.639216 0.164706 0.580392
0.741176 0.231373 0.576471
0.807843 0.321569 0.556863
0.878431 0.325490 0.533333
0.917647 0.356863 0.537255
0.015686 0.274510 0.572549
0.058824 0.282353 0.600000
0.294118 0.313725 0.572549
0.490196 0.325490 0.572549
0.619608 0.345098 0.588235
0.717647 0.396078 0.588235
0.811765 0.415686 0.572549
0.882353 0.411765 0.552941
0.945098 0.419608 0.556863
0.027451 0.435294 0.580392
0.137255 0.443137 0.584314
0.329412 0.474510 0.588235
0.494118 0.482353 0.603922
0.619608 0.501961 0.596078
0.721569 0.517647 0.603922
0.811765 0.521569 0.588235
0.882353 0.521569 0.564706
0.949020 0.517647 0.560784
0.317647 0.592157 0.592157
0.376471 0.592157 0.603922
0.462745 0.611765 0.615686
0.537255 0.623529 0.615686
0.631373 0.623529 0.627451
0.721569 0.627451 0.619608
0.815686 0.619608 0.592157
0.886275 0.619608 0.584314
0.952941 0.603922 0.572549
0.478431 0.701961 0.635294
0.498039 0.698039 0.631373
0.541176 0.705882 0.650980
0.588235 0.709804 0.647059
0.623529 0.705882 0.639216
0.709804 0.705882 0.623529
0.803922 0.721569 0.607843
0.890196 0.705882 0.596078
0.949020 0.701961 0.580392
0.584314 0.772549 0.686275
0.592157 0.780392 0.678431
0.615686 0.780392 0.686275
0.631373 0.780392 0.682353
0.658824 0.788235 0.682353
0.698039 0.772549 0.662745
0.760784 0.784314 0.635294
0.870588 0.800000 0.619608
0.949020 0.800000 0.615686
0.666667 0.835294 0.729412
0.666667 0.839216 0.733333
0.678431 0.854902 0.741176
0.698039 0.850980 0.745098
0.713725 0.850980 0.733333
0.729412 0.847059 0.713725
0.768627 0.847059 0.701961
0.850980 0.858824 0.666667
0.949020 0.890196 0.658824
0.733333 0.905882 0.815686
0.752941 0.909804 0.807843
0.760784 0.909804 0.811765
0.772549 0.921569 0.823529
0.780392 0.921569 0.811765
0.796078 0.925490 0.811765
0.823529 0.929412 0.800000
0.866667 0.937255 0.780392
0.898039 0.949020 0.776471
0.027451 0.070588 0.666667
0.050980 0.070588 0.682353
0.305882 0.086275 0.709804
0.466667 0.152941 0.682353
0.643137 0.196078 0.682353
0.756863 0.227451 0.690196
0.803922 0.333333 0.682353
0.878431 0.396078 0.658824
0.933333 0.447059 0.650980
0.027451 0.160784 0.682353
0.066667 0.172549 0.694118
0.301961 0.203922 0.701961
0.478431 0.223529 0.694118
0.627451 0.262745 0.682353
0.733333 0.313725 0.682353
0.803922 0.380392 0.674510
0.874510 0.427451 0.662745
0.925490 0.478431 0.678431
0.039216 0.294118 0.694118
0.145098 0.309804 0.694118
0.352941 0.356863 0.682353
0.498039 0.368627 0.686275
0.627451 0.400000 0.690196
0.733333 0.435294 0.690196
0.807843 0.474510 0.690196
0.882353 0.501961 0.678431
0.945098 0.537255 0.682353
0.105882 0.443137 0.674510
0.231373 0.462745 0.682353
0.380392 0.482353 0.674510
0.513725 0.498039 0.698039
0.619608 0.517647 0.701961
0.725490 0.541176 0.705882
0.803922 0.564706 0.694118
0.882353 0.584314 0.701961
0.949020 0.588235 0.686275
0.309804 0.584314 0.682353
0.356863 0.596078 0.670588
0.423529 0.600000 0.682353
0.517647 0.615686 0.701961
0.619608 0.619608 0.713725
0.725490 0.643137 0.717647
0.811765 0.650980 0.705882
0.878431 0.650980 0.698039
0.960784 0.647059 0.698039
0.466667 0.701961 0.701961
0.482353 0.701961 0.705882
0.525490 0.701961 0.713725
0.584314 0.717647 0.725490
0.662745 0.733333 0.741176
0.725490 0.725490 0.733333
0.803922 0.733333 0.717647
0.878431 0.733333 0.709804
0.929412 0.721569 0.705882
0.611765 0.788235 0.760784
0.611765 0.792157 0.752941
0.623529 0.792157 0.752941
0.662745 0.792157 0.749020
0.701961 0.803922 0.752941
0.737255 0.800000 0.749020
0.792157 0.803922 0.737255
0.866667 0.807843 0.733333
0.933333 0.796078 0.721569
0.690196 0.862745 0.803922
0.698039 0.866667 0.800000
0.713725 0.862745 0.803922
0.729412 0.862745 0.800000
0.741176 0.862745 0.800000
0.772549 0.866667 0.803922
0.788235 0.858824 0.764706
0.870588 0.870588 0.760784
0.941176 0.886275 0.741176
0.776471 0.921569 0.850980
0.764706 0.929412 0.850980
0.796078 0.929412 0.866667
0.796078 0.933333 0.854902
0.800000 0.921569 0.850980
0.823529 0.929412 0.854902
0.839216 0.933333 0.839216
0.874510 0.933333 0.819608
0.929412 0.945098 0.800000
0.050980 0.160784 0.796078
0.164706 0.172549 0.800000
0.368627 0.211765 0.796078
0.486275 0.262745 0.768627
0.627451 0.313725 0.764706
0.725490 0.372549 0.756863
0.807843 0.423529 0.764706
0.866667 0.447059 0.752941
0.937255 0.521569 0.780392
0.090196 0.235294 0.796078
0.223529 0.254902 0.784314
0.384314 0.301961 0.768627
0.517647 0.329412 0.760784
0.631373 0.364706 0.760784
0.725490 0.411765 0.760784
0.811765 0.454902 0.768627
0.878431 0.486275 0.768627
0.921569 0.529412 0.764706
0.192157 0.349020 0.784314
0.325490 0.380392 0.768627
0.423529 0.427451 0.749020
0.525490 0.427451 0.756863
0.643137 0.458824 0.772549
0.729412 0.478431 0.768627
0.815686 0.517647 0.772549
0.870588 0.541176 0.772549
0.945098 0.596078 0.784314
0.341176 0.498039 0.741176
0.368627 0.498039 0.760784
0.454902 0.517647 0.760784
0.533333 0.525490 0.772549
0.635294 0.541176 0.784314
0.729412 0.568627 0.788235
0.819608 0.600000 0.792157
0.886275 0.631373 0.796078
0.945098 0.654902 0.800000
0.333333 0.588235 0.752941
0.384314 0.603922 0.749020
0.450980 0.607843 0.749020
0.533333 0.619608 0.764706
0.631373 0.639216 0.788235
0.725490 0.647059 0.792157
0.800000 0.678431 0.800000
0.874510 0.694118 0.807843
0.945098 0.694118 0.800000
0.439216 0.698039 0.760784
0.466667 0.698039 0.768627
0.498039 0.698039 0.772549
0.560784 0.709804 0.784314
0.635294 0.717647 0.800000
0.709804 0.729412 0.807843
0.811765 0.745098 0.815686
0.874510 0.764706 0.819608
0.921569 0.756863 0.811765
0.572549 0.772549 0.784314
0.576471 0.784314 0.800000
0.611765 0.780392 0.807843
0.635294 0.796078 0.803922
0.690196 0.796078 0.823529
0.749020 0.807843 0.827451
0.815686 0.811765 0.831373
0.882353 0.819608 0.819608
0.945098 0.819608 0.831373
0.694118 0.858824 0.843137
0.698039 0.866667 0.831373
0.721569 0.862745 0.854902
0.741176 0.866667 0.847059
0.760784 0.874510 0.854902
0.792157 0.882353 0.850980
0.827451 0.878431 0.850980
0.890196 0.882353 0.835294
0.960784 0.886275 0.831373
0.776471 0.933333 0.890196
0.780392 0.929412 0.878431
0.796078 0.925490 0.882353
0.811765 0.933333 0.901961
0.819608 0.945098 0.894118
0.839216 0.933333 0.882353
0.878431 0.949020 0.901961
0.890196 0.941176 0.870588
0.949020 0.964706 0.874510
0.423529 0.403922 0.807843
0.431373 0.388235 0.800000
0.494118 0.407843 0.831373
0.556863 0.403922 0.831373
0.654902 0.431373 0.835294
0.733333 0.470588 0.843137
0.823529 0.517647 0.847059
0.886275 0.556863 0.850980
0.925490 0.572549 0.854902
0.407843 0.423529 0.803922
0.450980 0.427451 0.811765
0.490196 0.423529 0.823529
0.572549 0.435294 0.835294
0.662745 0.458824 0.843137
0.749020 0.501961 0.850980
0.823529 0.529412 0.850980
0.898039 0.572549 0.854902
0.937255 0.584314 0.858824
0.423529 0.482353 0.807843
0.462745 0.490196 0.803922
0.529412 0.505882 0.843137
0.588235 0.513725 0.835294
0.662745 0.525490 0.847059
0.737255 0.549020 0.839216
0.823529 0.584314 0.854902
0.894118 0.619608 0.862745
0.949020 0.635294 0.882353
0.435294 0.549020 0.823529
0.466667 0.556863 0.823529
0.525490 0.568627 0.827451
0.592157 0.588235 0.847059
0.658824 0.600000 0.862745
0.741176 0.615686 0.862745
0.819608 0.643137 0.858824
0.890196 0.666667 0.866667
0.929412 0.678431 0.874510
0.431373 0.627451 0.827451
0.466667 0.631373 0.827451
0.505882 0.639216 0.827451
0.576471 0.647059 0.843137
0.658824 0.666667 0.858824
0.737255 0.674510 0.866667
0.807843 0.694118 0.866667
0.886275 0.721569 0.870588
0.949020 0.745098 0.886275
0.447059 0.694118 0.815686
0.466667 0.698039 0.823529
0.505882 0.701961 0.831373
0.564706 0.705882 0.839216
0.647059 0.721569 0.850980
0.729412 0.745098 0.882353
0.811765 0.752941 0.882353
0.894118 0.780392 0.898039
0.933333 0.792157 0.894118
0.564706 0.784314 0.850980
0.556863 0.780392 0.854902
0.584314 0.784314 0.850980
0.623529 0.784314 0.854902
0.670588 0.792157 0.870588
0.729412 0.803922 0.870588
0.819608 0.823529 0.901961
0.890196 0.835294 0.894118
0.941176 0.854902 0.905882
0.666667 0.858824 0.886275
0.662745 0.854902 0.874510
0.690196 0.866667 0.886275
0.713725 0.866667 0.886275
0.749020 0.878431 0.898039
0.792157 0.886275 0.901961
0.854902 0.894118 0.901961
0.905882 0.905882 0.913725
0.945098 0.909804 0.929412
0.803922 0.937255 0.941176
0.776471 0.937255 0.921569
0.807843 0.945098 0.929412
0.803922 0.941176 0.925490
0.831373 0.945098 0.929412
0.862745 0.949020 0.937255
0.894118 0.941176 0.933333
0.925490 0.952941 0.925490
0.964706 0.964706 0.925490
0.560784 0.541176 0.894118
0.572549 0.549020 0.894118
0.600000 0.541176 0.898039
0.635294 0.556863 0.905882
0.705882 0.580392 0.913725
0.772549 0.603922 0.917647
0.831373 0.627451 0.917647
0.905882 0.670588 0.921569
0.929412 0.690196 0.921569
0.560784 0.564706 0.890196
0.576471 0.568627 0.898039
0.596078 0.564706 0.901961
0.650980 0.572549 0.905882
0.701961 0.568627 0.898039
0.776471 0.615686 0.913725
0.843137 0.647059 0.917647
0.909804 0.674510 0.917647
0.952941 0.694118 0.933333
0.580392 0.603922 0.901961
0.588235 0.603922 0.894118
0.627451 0.627451 0.917647
0.654902 0.611765 0.909804
0.717647 0.631373 0.913725
0.776471 0.647059 0.925490
0.843137 0.666667 0.921569
0.898039 0.682353 0.909804
0.945098 0.709804 0.921569
0.572549 0.647059 0.905882
0.584314 0.643137 0.898039
0.615686 0.650980 0.905882
0.662745 0.662745 0.913725
0.713725 0.666667 0.917647
0.776471 0.682353 0.917647
0.839216 0.701961 0.921569
0.894118 0.721569 0.929412
0.937255 0.741176 0.933333
0.537255 0.682353 0.898039
0.588235 0.690196 0.921569
0.611765 0.694118 0.917647
0.658824 0.701961 0.913725
0.717647 0.717647 0.921569
0.780392 0.733333 0.929412
0.839216 0.745098 0.933333
0.909804 0.756863 0.941176
0.956863 0.788235 0.956863
0.521569 0.721569 0.890196
0.552941 0.737255 0.901961
0.588235 0.741176 0.909804
0.635294 0.749020 0.905882
0.705882 0.764706 0.925490
0.776471 0.784314 0.945098
0.839216 0.792157 0.949020
0.905882 0.796078 0.945098
0.960784 0.815686 0.945098
0.592157 0.792157 0.913725
0.596078 0.796078 0.917647
0.603922 0.796078 0.913725
0.647059 0.800000 0.913725
0.690196 0.811765 0.925490
0.752941 0.819608 0.929412
0.831373 0.847059 0.960784
0.921569 0.850980 0.952941
0.972549 0.870588 0.968627
0.674510 0.862745 0.949020
0.678431 0.866667 0.945098
0.690196 0.878431 0.933333
0.725490 0.878431 0.945098
0.756863 0.886275 0.952941
0.780392 0.886275 0.960784
0.831373 0.894118 0.956863
0.917647 0.909804 0.964706
0.952941 0.905882 0.960784
0.756863 0.941176 0.964706
0.756863 0.941176 0.964706
0.776471 0.949020 0.960784
0.792157 0.949020 0.956863
0.819608 0.956863 0.964706
0.819608 0.929412 0.945098
0.890196 0.960784 0.968627
0.925490 0.949020 0.949020
0.988235 0.980392 0.984314
