JustShoot/Resources/KodakVision5203.cube
#Generated with IWLTBAP LUT Generator
#Website: http://luts.iwltbap.com
TITLE "5203"
#LUT size
LUT_3D_SIZE 9
#LUT data points
0.121569 0.109804 0.090196
0.113725 0.070588 0.054902
0.317647 0.121569 0.117647
0.466667 0.160784 0.145098
0.596078 0.200000 0.168627
0.713725 0.203922 0.196078
0.800000 0.223529 0.262745
0.819608 0.223529 0.270588
0.823529 0.215686 0.270588
0.098039 0.164706 0.101961
0.098039 0.129412 0.039216
0.341176 0.149020 0.082353
0.494118 0.168627 0.113725
0.627451 0.188235 0.141176
0.760784 0.207843 0.172549
0.835294 0.219608 0.254902
0.843137 0.219608 0.239216
0.835294 0.223529 0.239216
0.090196 0.317647 0.121569
0.070588 0.294118 0.078431
0.286275 0.301961 0.062745
0.533333 0.341176 0.109804
0.666667 0.321569 0.125490
0.768627 0.282353 0.149020
0.858824 0.270588 0.203922
0.858824 0.270588 0.211765
0.862745 0.262745 0.207843
0.094118 0.419608 0.200000
0.070588 0.427451 0.164706
0.164706 0.427451 0.164706
0.466667 0.447059 0.117647
0.682353 0.470588 0.125490
0.792157 0.450980 0.137255
0.874510 0.423529 0.160784
0.882353 0.415686 0.156863
0.882353 0.403922 0.156863
0.098039 0.521569 0.294118
0.082353 0.537255 0.258824
0.086275 0.525490 0.243137
0.364706 0.545098 0.250980
0.619608 0.564706 0.215686
0.803922 0.568627 0.121569
0.890196 0.549020 0.137255
0.894118 0.533333 0.137255
0.890196 0.529412 0.141176
0.105882 0.600000 0.349020
0.082353 0.635294 0.337255
0.078431 0.619608 0.313725
0.164706 0.615686 0.309804
0.525490 0.654902 0.313725
0.752941 0.662745 0.286275
0.898039 0.670588 0.176471
0.905882 0.654902 0.160784
0.909804 0.635294 0.156863
0.090196 0.694118 0.407843
0.090196 0.713725 0.400000
0.086275 0.705882 0.372549
0.078431 0.713725 0.376471
0.372549 0.721569 0.392157
0.682353 0.764706 0.400000
0.874510 0.752941 0.400000
0.921569 0.749020 0.368627
0.917647 0.729412 0.337255
0.094118 0.745098 0.454902
0.094118 0.752941 0.450980
0.105882 0.745098 0.435294
0.109804 0.749020 0.423529
0.286275 0.764706 0.439216
0.631373 0.803922 0.462745
0.839216 0.819608 0.498039
0.921569 0.803922 0.529412
0.929412 0.803922 0.517647
0.113725 0.756863 0.486275
0.125490 0.749020 0.490196
0.117647 0.752941 0.466667
0.121569 0.752941 0.454902
0.294118 0.764706 0.482353
0.619608 0.792157 0.498039
0.811765 0.815686 0.541176
0.909804 0.807843 0.576471
0.925490 0.803922 0.588235
0.156863 0.109804 0.125490
0.180392 0.105882 0.129412
0.345098 0.129412 0.149020
0.458824 0.168627 0.172549
0.576471 0.200000 0.203922
0.698039 0.215686 0.235294
0.776471 0.219608 0.274510
0.800000 0.223529 0.294118
0.796078 0.219608 0.294118
0.149020 0.152941 0.129412
0.125490 0.176471 0.109804
0.341176 0.172549 0.105882
0.482353 0.176471 0.129412
0.619608 0.192157 0.164706
0.729412 0.200000 0.215686
0.815686 0.219608 0.270588
0.831373 0.223529 0.286275
0.835294 0.219608 0.294118
0.145098 0.294118 0.149020
0.082353 0.305882 0.145098
0.301961 0.305882 0.133333
0.513725 0.337255 0.121569
0.650980 0.325490 0.129412
0.756863 0.290196 0.164706
0.843137 0.286275 0.247059
0.850980 0.282353 0.262745
0.847059 0.278431 0.258824
0.133333 0.396078 0.184314
0.070588 0.419608 0.192157
0.172549 0.419608 0.196078
0.458824 0.447059 0.168627
0.678431 0.466667 0.129412
0.788235 0.454902 0.141176
0.866667 0.415686 0.152941
0.882353 0.411765 0.164706
0.874510 0.407843 0.188235
0.121569 0.509804 0.254902
0.082353 0.525490 0.274510
0.078431 0.533333 0.254902
0.352941 0.552941 0.258824
0.619608 0.572549 0.243137
0.800000 0.564706 0.125490
0.890196 0.552941 0.149020
0.901961 0.541176 0.152941
0.901961 0.521569 0.152941
0.121569 0.619608 0.341176
0.086275 0.623529 0.341176
0.090196 0.619608 0.317647
0.149020 0.623529 0.321569
0.521569 0.662745 0.321569
0.745098 0.670588 0.309804
0.894118 0.674510 0.207843
0.901961 0.654902 0.207843
0.890196 0.643137 0.200000
0.121569 0.713725 0.411765
0.086275 0.713725 0.423529
0.094118 0.709804 0.392157
0.086275 0.705882 0.376471
0.368627 0.729412 0.396078
0.674510 0.764706 0.411765
0.874510 0.752941 0.427451
0.905882 0.749020 0.376471
0.909804 0.729412 0.360784
0.105882 0.745098 0.482353
0.098039 0.749020 0.466667
0.101961 0.749020 0.450980
0.094118 0.749020 0.443137
0.274510 0.752941 0.450980
0.627451 0.796078 0.482353
0.839216 0.807843 0.513725
0.917647 0.803922 0.537255
0.925490 0.796078 0.533333
0.117647 0.756863 0.501961
0.125490 0.752941 0.509804
0.125490 0.749020 0.490196
0.137255 0.752941 0.490196
0.321569 0.768627 0.498039
0.611765 0.807843 0.537255
0.815686 0.827451 0.556863
0.917647 0.819608 0.607843
0.933333 0.815686 0.611765
0.109804 0.250980 0.345098
0.223529 0.270588 0.372549
0.372549 0.200000 0.329412
0.509804 0.196078 0.294118
0.607843 0.227451 0.294118
0.713725 0.231373 0.301961
0.788235 0.250980 0.321569
0.800000 0.254902 0.345098
0.796078 0.231373 0.368627
0.141176 0.254902 0.317647
0.200000 0.274510 0.341176
0.380392 0.254902 0.337255
0.509804 0.219608 0.309804
0.607843 0.207843 0.294118
0.705882 0.219608 0.321569
0.803922 0.239216 0.345098
0.815686 0.247059 0.360784
0.811765 0.262745 0.368627
0.145098 0.329412 0.290196
0.188235 0.349020 0.317647
0.333333 0.368627 0.301961
0.509804 0.380392 0.305882
0.639216 0.380392 0.325490
0.737255 0.368627 0.329412
0.823529 0.352941 0.356863
0.843137 0.372549 0.380392
0.839216 0.376471 0.376471
0.156863 0.427451 0.313725
0.168627 0.447059 0.329412
0.250980 0.454902 0.313725
0.466667 0.470588 0.305882
0.666667 0.490196 0.274510
0.772549 0.466667 0.286275
0.854902 0.462745 0.321569
0.870588 0.458824 0.345098
0.870588 0.458824 0.345098
0.137255 0.525490 0.345098
0.098039 0.525490 0.364706
0.121569 0.545098 0.352941
0.368627 0.560784 0.345098
0.615686 0.584314 0.337255
0.792157 0.584314 0.286275
0.882353 0.576471 0.325490
0.898039 0.564706 0.341176
0.882353 0.564706 0.349020
0.117647 0.619608 0.427451
0.094118 0.631373 0.427451
0.086275 0.631373 0.400000
0.180392 0.627451 0.384314
0.529412 0.666667 0.400000
0.752941 0.674510 0.396078
0.890196 0.686275 0.360784
0.917647 0.674510 0.380392
0.909804 0.662745 0.392157
0.090196 0.709804 0.470588
0.094118 0.721569 0.486275
0.094118 0.717647 0.458824
0.098039 0.713725 0.435294
0.376471 0.737255 0.450980
0.682353 0.768627 0.474510
0.870588 0.764706 0.494118
0.929412 0.764706 0.474510
0.925490 0.749020 0.482353
0.109804 0.764706 0.552941
0.117647 0.756863 0.541176
0.113725 0.760784 0.533333
0.109804 0.760784 0.509804
0.321569 0.772549 0.517647
0.643137 0.803922 0.545098
0.835294 0.831373 0.576471
0.921569 0.815686 0.607843
0.933333 0.815686 0.611765
0.137255 0.772549 0.588235
0.145098 0.772549 0.584314
0.145098 0.776471 0.572549
0.160784 0.776471 0.560784
0.360784 0.800000 0.568627
0.643137 0.819608 0.603922
0.827451 0.839216 0.631373
0.921569 0.839216 0.670588
0.933333 0.835294 0.674510
0.156863 0.333333 0.494118
0.223529 0.368627 0.533333
0.368627 0.349020 0.505882
0.521569 0.270588 0.466667
0.647059 0.203922 0.423529
0.741176 0.219608 0.403922
0.800000 0.231373 0.400000
0.807843 0.235294 0.411765
0.815686 0.203922 0.443137
0.192157 0.333333 0.521569
0.243137 0.372549 0.533333
0.411765 0.360784 0.533333
0.549020 0.301961 0.517647
0.662745 0.192157 0.470588
0.745098 0.176471 0.439216
0.819608 0.196078 0.447059
0.831373 0.227451 0.439216
0.819608 0.305882 0.470588
0.235294 0.400000 0.454902
0.247059 0.415686 0.482353
0.376471 0.447059 0.494118
0.533333 0.435294 0.509804
0.650980 0.427451 0.486275
0.749020 0.427451 0.482353
0.835294 0.439216 0.501961
0.847059 0.470588 0.513725
0.847059 0.490196 0.517647
0.227451 0.486275 0.470588
0.219608 0.494118 0.486275
0.364706 0.533333 0.505882
0.513725 0.545098 0.501961
0.658824 0.552941 0.509804
0.764706 0.541176 0.505882
0.843137 0.552941 0.517647
0.858824 0.549020 0.521569
0.862745 0.552941 0.525490
0.258824 0.592157 0.517647
0.219608 0.588235 0.517647
0.360784 0.615686 0.537255
0.447059 0.623529 0.509804
0.650980 0.639216 0.517647
0.800000 0.639216 0.513725
0.882353 0.631373 0.525490
0.905882 0.631373 0.533333
0.901961 0.623529 0.552941
0.133333 0.674510 0.572549
0.172549 0.682353 0.572549
0.258824 0.686275 0.560784
0.352941 0.686275 0.533333
0.552941 0.705882 0.529412
0.772549 0.729412 0.552941
0.898039 0.729412 0.560784
0.917647 0.725490 0.568627
0.905882 0.717647 0.576471
0.129412 0.741176 0.596078
0.125490 0.749020 0.600000
0.141176 0.745098 0.596078
0.184314 0.745098 0.572549
0.423529 0.764706 0.564706
0.698039 0.792157 0.588235
0.870588 0.800000 0.619608
0.925490 0.796078 0.627451
0.933333 0.788235 0.623529
0.121569 0.780392 0.639216
0.133333 0.784314 0.643137
0.152941 0.780392 0.639216
0.192157 0.784314 0.623529
0.396078 0.796078 0.607843
0.654902 0.819608 0.631373
0.839216 0.847059 0.662745
0.933333 0.831373 0.694118
0.933333 0.835294 0.678431
0.207843 0.788235 0.686275
0.227451 0.796078 0.682353
0.258824 0.796078 0.678431
0.329412 0.800000 0.662745
0.474510 0.815686 0.650980
0.662745 0.823529 0.666667
0.823529 0.847059 0.705882
0.921569 0.847059 0.729412
0.941176 0.839216 0.749020
0.211765 0.427451 0.639216
0.278431 0.458824 0.662745
0.400000 0.450980 0.654902
0.529412 0.431373 0.647059
0.674510 0.380392 0.635294
0.768627 0.294118 0.596078
0.827451 0.250980 0.556863
0.843137 0.243137 0.556863
0.847059 0.266667 0.572549
0.207843 0.411765 0.635294
0.274510 0.435294 0.694118
0.419608 0.450980 0.694118
0.545098 0.431373 0.690196
0.682353 0.364706 0.666667
0.780392 0.270588 0.623529
0.854902 0.231373 0.592157
0.870588 0.270588 0.592157
0.862745 0.352941 0.588235
0.243137 0.458824 0.619608
0.247059 0.474510 0.654902
0.368627 0.494118 0.654902
0.533333 0.505882 0.678431
0.666667 0.470588 0.678431
0.784314 0.439216 0.635294
0.862745 0.439216 0.631373
0.874510 0.462745 0.623529
0.874510 0.501961 0.619608
0.286275 0.529412 0.611765
0.278431 0.537255 0.623529
0.368627 0.556863 0.635294
0.513725 0.584314 0.662745
0.658824 0.584314 0.670588
0.768627 0.576471 0.650980
0.839216 0.588235 0.643137
0.870588 0.584314 0.650980
0.866667 0.600000 0.650980
0.294118 0.611765 0.627451
0.266667 0.611765 0.627451
0.376471 0.627451 0.662745
0.501961 0.658824 0.666667
0.650980 0.674510 0.674510
0.768627 0.686275 0.682353
0.843137 0.686275 0.686275
0.878431 0.690196 0.690196
0.878431 0.690196 0.690196
0.125490 0.694118 0.666667
0.129412 0.698039 0.678431
0.305882 0.701961 0.678431
0.482353 0.721569 0.690196
0.600000 0.733333 0.670588
0.749020 0.752941 0.698039
0.890196 0.764706 0.721569
0.917647 0.760784 0.729412
0.913725 0.760784 0.733333
0.129412 0.760784 0.701961
0.145098 0.756863 0.701961
0.294118 0.772549 0.713725
0.458824 0.776471 0.709804
0.545098 0.788235 0.698039
0.698039 0.800000 0.694118
0.878431 0.819608 0.729412
0.933333 0.823529 0.741176
0.937255 0.823529 0.752941
0.227451 0.796078 0.745098
0.286275 0.800000 0.745098
0.396078 0.807843 0.749020
0.490196 0.815686 0.737255
0.560784 0.815686 0.721569
0.662745 0.831373 0.713725
0.847059 0.847059 0.745098
0.933333 0.850980 0.768627
0.933333 0.862745 0.784314
0.407843 0.815686 0.772549
0.443137 0.819608 0.764706
0.498039 0.819608 0.764706
0.549020 0.827451 0.772549
0.600000 0.831373 0.752941
0.686275 0.843137 0.749020
0.839216 0.854902 0.788235
0.925490 0.862745 0.811765
0.933333 0.862745 0.807843
0.345098 0.517647 0.756863
0.364706 0.541176 0.764706
0.447059 0.545098 0.756863
0.541176 0.537255 0.760784
0.666667 0.513725 0.760784
0.772549 0.478431 0.749020
0.847059 0.431373 0.721569
0.882353 0.407843 0.721569
0.905882 0.411765 0.733333
0.356863 0.513725 0.788235
0.368627 0.541176 0.796078
0.474510 0.560784 0.796078
0.564706 0.545098 0.796078
0.666667 0.525490 0.807843
0.788235 0.486275 0.792157
0.882353 0.443137 0.764706
0.894118 0.435294 0.745098
0.901961 0.454902 0.737255
0.313725 0.549020 0.760784
0.321569 0.564706 0.788235
0.419608 0.576471 0.780392
0.556863 0.596078 0.796078
0.670588 0.580392 0.800000
0.796078 0.556863 0.792157
0.874510 0.537255 0.776471
0.901961 0.545098 0.768627
0.905882 0.560784 0.760784
0.325490 0.596078 0.756863
0.325490 0.615686 0.768627
0.403922 0.619608 0.772549
0.541176 0.643137 0.788235
0.654902 0.650980 0.784314
0.780392 0.635294 0.803922
0.874510 0.631373 0.784314
0.901961 0.635294 0.780392
0.894118 0.647059 0.768627
0.337255 0.647059 0.764706
0.341176 0.662745 0.756863
0.419608 0.678431 0.764706
0.529412 0.694118 0.780392
0.647059 0.713725 0.792157
0.764706 0.709804 0.807843
0.858824 0.725490 0.792157
0.901961 0.729412 0.796078
0.890196 0.717647 0.807843
0.333333 0.717647 0.768627
0.360784 0.725490 0.756863
0.447059 0.729412 0.776471
0.549020 0.745098 0.788235
0.643137 0.764706 0.784314
0.768627 0.788235 0.803922
0.858824 0.796078 0.807843
0.890196 0.792157 0.815686
0.886275 0.800000 0.811765
0.172549 0.780392 0.788235
0.196078 0.784314 0.788235
0.321569 0.792157 0.796078
0.494118 0.803922 0.792157
0.643137 0.819608 0.807843
0.737255 0.827451 0.803922
0.866667 0.854902 0.835294
0.925490 0.850980 0.835294
0.925490 0.850980 0.835294
0.219608 0.827451 0.811765
0.305882 0.835294 0.819608
0.423529 0.831373 0.827451
0.556863 0.843137 0.815686
0.654902 0.854902 0.827451
0.713725 0.862745 0.811765
0.843137 0.874510 0.831373
0.937255 0.878431 0.858824
0.941176 0.882353 0.862745
0.498039 0.847059 0.831373
0.525490 0.847059 0.831373
0.576471 0.847059 0.835294
0.639216 0.862745 0.839216
0.686275 0.862745 0.835294
0.745098 0.866667 0.835294
0.847059 0.874510 0.843137
0.925490 0.890196 0.870588
0.937255 0.894118 0.878431
0.427451 0.580392 0.811765
0.431373 0.592157 0.811765
0.490196 0.596078 0.811765
0.560784 0.596078 0.811765
0.650980 0.592157 0.823529
0.760784 0.568627 0.823529
0.854902 0.537255 0.807843
0.894118 0.525490 0.823529
0.905882 0.552941 0.835294
0.427451 0.576471 0.823529
0.443137 0.592157 0.839216
0.501961 0.615686 0.835294
0.580392 0.603922 0.839216
0.662745 0.600000 0.847059
0.768627 0.584314 0.850980
0.874510 0.545098 0.839216
0.909804 0.541176 0.831373
0.905882 0.568627 0.847059
0.396078 0.600000 0.823529
0.392157 0.607843 0.831373
0.462745 0.619608 0.823529
0.568627 0.635294 0.839216
0.666667 0.631373 0.847059
0.760784 0.619608 0.858824
0.874510 0.603922 0.850980
0.909804 0.603922 0.839216
0.913725 0.627451 0.847059
0.349020 0.639216 0.815686
0.380392 0.647059 0.823529
0.447059 0.654902 0.827451
0.556863 0.670588 0.835294
0.662745 0.674510 0.835294
0.760784 0.678431 0.847059
0.866667 0.674510 0.850980
0.909804 0.666667 0.850980
0.909804 0.678431 0.850980
0.368627 0.694118 0.811765
0.403922 0.698039 0.823529
0.466667 0.701961 0.835294
0.556863 0.717647 0.835294
0.654902 0.733333 0.839216
0.756863 0.741176 0.847059
0.866667 0.733333 0.862745
0.905882 0.737255 0.847059
0.905882 0.749020 0.854902
0.423529 0.741176 0.823529
0.447059 0.749020 0.827451
0.494118 0.756863 0.823529
0.568627 0.768627 0.843137
0.658824 0.772549 0.835294
0.760784 0.796078 0.862745
0.862745 0.807843 0.874510
0.909804 0.803922 0.870588
0.913725 0.807843 0.874510
0.443137 0.792157 0.815686
0.462745 0.792157 0.835294
0.509804 0.800000 0.835294
0.580392 0.811765 0.835294
0.666667 0.827451 0.843137
0.760784 0.843137 0.862745
0.858824 0.854902 0.878431
0.913725 0.862745 0.890196
0.913725 0.862745 0.890196
0.450980 0.831373 0.854902
0.486275 0.831373 0.839216
0.533333 0.839216 0.854902
0.600000 0.850980 0.858824
0.674510 0.862745 0.870588
0.760784 0.874510 0.866667
0.858824 0.882353 0.882353
0.933333 0.898039 0.901961
0.933333 0.901961 0.894118
0.564706 0.854902 0.858824
0.580392 0.847059 0.858824
0.615686 0.854902 0.858824
0.662745 0.862745 0.866667
0.721569 0.874510 0.870588
0.796078 0.882353 0.874510
0.874510 0.890196 0.886275
0.921569 0.898039 0.898039
0.925490 0.905882 0.894118
0.392157 0.584314 0.815686
0.435294 0.611765 0.835294
0.490196 0.611765 0.827451
0.560784 0.607843 0.835294
0.647059 0.592157 0.835294
0.745098 0.576471 0.854902
0.858824 0.552941 0.850980
0.905882 0.537255 0.835294
0.909804 0.549020 0.835294
0.376471 0.564706 0.815686
0.431373 0.584314 0.839216
0.482353 0.600000 0.835294
0.556863 0.603922 0.839216
0.639216 0.600000 0.839216
0.741176 0.588235 0.850980
0.850980 0.564706 0.843137
0.901961 0.560784 0.839216
0.901961 0.576471 0.843137
0.352941 0.584314 0.819608
0.376471 0.588235 0.823529
0.454902 0.611765 0.815686
0.556863 0.623529 0.827451
0.643137 0.623529 0.843137
0.745098 0.627451 0.839216
0.850980 0.615686 0.850980
0.909804 0.615686 0.847059
0.913725 0.627451 0.847059
0.352941 0.627451 0.819608
0.388235 0.631373 0.823529
0.443137 0.643137 0.819608
0.545098 0.658824 0.831373
0.631373 0.678431 0.835294
0.745098 0.670588 0.847059
0.850980 0.670588 0.850980
0.909804 0.666667 0.850980
0.905882 0.674510 0.847059
0.388235 0.682353 0.807843
0.427451 0.686275 0.823529
0.478431 0.698039 0.827451
0.552941 0.713725 0.831373
0.647059 0.721569 0.839216
0.745098 0.733333 0.847059
0.850980 0.737255 0.854902
0.905882 0.737255 0.854902
0.913725 0.737255 0.850980
0.439216 0.733333 0.815686
0.458824 0.737255 0.815686
0.509804 0.749020 0.823529
0.576471 0.752941 0.827451
0.662745 0.776471 0.839216
0.749020 0.796078 0.858824
0.854902 0.800000 0.866667
0.909804 0.803922 0.870588
0.898039 0.807843 0.870588
0.474510 0.780392 0.819608
0.494118 0.784314 0.827451
0.525490 0.788235 0.823529
0.596078 0.803922 0.835294
0.666667 0.819608 0.847059
0.756863 0.839216 0.858824
0.854902 0.858824 0.874510
0.905882 0.858824 0.874510
0.905882 0.862745 0.878431
0.482353 0.823529 0.850980
0.490196 0.823529 0.835294
0.541176 0.835294 0.847059
0.607843 0.843137 0.847059
0.678431 0.858824 0.858824
0.764706 0.866667 0.870588
0.862745 0.886275 0.878431
0.929412 0.890196 0.894118
0.933333 0.901961 0.894118
0.572549 0.847059 0.854902
0.592157 0.847059 0.862745
0.619608 0.854902 0.858824
0.666667 0.862745 0.866667
0.725490 0.866667 0.866667
0.803922 0.874510 0.874510
0.898039 0.898039 0.890196
0.929412 0.898039 0.890196
0.925490 0.905882 0.894118
0.439216 0.592157 0.847059
0.466667 0.607843 0.843137
0.509804 0.611765 0.835294
0.560784 0.607843 0.843137
0.631373 0.600000 0.835294
0.721569 0.596078 0.850980
0.815686 0.576471 0.847059
0.898039 0.556863 0.835294
0.909804 0.576471 0.831373
0.407843 0.580392 0.835294
0.427451 0.592157 0.827451
0.486275 0.607843 0.831373
0.560784 0.607843 0.843137
0.623529 0.600000 0.843137
0.717647 0.600000 0.850980
0.823529 0.592157 0.850980
0.901961 0.576471 0.843137
0.905882 0.592157 0.839216
0.388235 0.603922 0.827451
0.403922 0.607843 0.831373
0.462745 0.615686 0.831373
0.560784 0.627451 0.831373
0.635294 0.635294 0.847059
0.725490 0.635294 0.847059
0.819608 0.627451 0.847059
0.901961 0.623529 0.850980
0.901961 0.639216 0.850980
0.403922 0.643137 0.819608
0.423529 0.647059 0.823529
0.474510 0.647059 0.823529
0.552941 0.666667 0.839216
0.643137 0.678431 0.847059
0.721569 0.678431 0.843137
0.823529 0.678431 0.850980
0.898039 0.674510 0.843137
0.909804 0.686275 0.847059
0.458824 0.698039 0.819608
0.478431 0.701961 0.819608
0.509804 0.709804 0.831373
0.572549 0.709804 0.827451
0.647059 0.725490 0.831373
0.737255 0.737255 0.847059
0.827451 0.737255 0.850980
0.894118 0.741176 0.854902
0.905882 0.749020 0.850980
0.498039 0.737255 0.819608
0.517647 0.737255 0.827451
0.560784 0.749020 0.827451
0.615686 0.760784 0.835294
0.678431 0.780392 0.847059
0.752941 0.788235 0.854902
0.843137 0.800000 0.862745
0.901961 0.807843 0.870588
0.901961 0.815686 0.866667
0.533333 0.784314 0.831373
0.552941 0.788235 0.827451
0.588235 0.796078 0.827451
0.639216 0.807843 0.835294
0.701961 0.815686 0.847059
0.772549 0.843137 0.858824
0.858824 0.854902 0.874510
0.905882 0.862745 0.878431
0.913725 0.866667 0.882353
0.568627 0.831373 0.854902
0.580392 0.835294 0.843137
0.611765 0.839216 0.847059
0.658824 0.847059 0.854902
0.721569 0.862745 0.862745
0.792157 0.870588 0.866667
0.882353 0.890196 0.886275
0.925490 0.894118 0.886275
0.929412 0.894118 0.898039
0.611765 0.847059 0.850980
0.627451 0.854902 0.862745
0.658824 0.858824 0.862745
0.701961 0.866667 0.862745
0.752941 0.870588 0.862745
0.823529 0.882353 0.870588
0.901961 0.898039 0.882353
0.933333 0.901961 0.894118
0.929412 0.894118 0.898039
