JustShoot/Resources/KodakVision5219.cube
#Generated with IWLTBAP LUT Generator
#Website: http://luts.iwltbap.com
TITLE "5219"
#LUT size
LUT_3D_SIZE 9
#LUT data points
0.015686 0.015686 0.023529
0.050980 0.015686 0.019608
0.235294 0.015686 0.019608
0.482353 0.031373 0.019608
0.615686 0.058824 0.019608
0.733333 0.074510 0.031373
0.835294 0.082353 0.039216
0.913725 0.086275 0.050980
0.949020 0.090196 0.074510
0.027451 0.050980 0.035294
0.047059 0.058824 0.015686
0.250980 0.082353 0.015686
0.505882 0.156863 0.023529
0.647059 0.203922 0.039216
0.764706 0.239216 0.039216
0.854902 0.266667 0.058824
0.921569 0.290196 0.074510
0.960784 0.313725 0.094118
0.015686 0.219608 0.070588
0.035294 0.235294 0.074510
0.207843 0.254902 0.066667
0.498039 0.345098 0.074510
0.658824 0.403922 0.090196
0.776471 0.431373 0.082353
0.870588 0.466667 0.105882
0.929412 0.486275 0.109804
0.964706 0.505882 0.133333
0.035294 0.435294 0.137255
0.058824 0.447059 0.133333
0.188235 0.474510 0.152941
0.462745 0.505882 0.145098
0.639216 0.556863 0.137255
0.764706 0.600000 0.137255
0.850980 0.631373 0.149020
0.921569 0.654902 0.172549
0.949020 0.674510 0.196078
0.062745 0.572549 0.180392
0.086275 0.592157 0.188235
0.200000 0.615686 0.192157
0.443137 0.631373 0.192157
0.627451 0.647059 0.184314
0.752941 0.678431 0.164706
0.850980 0.721569 0.176471
0.913725 0.741176 0.211765
0.952941 0.760784 0.223529
0.137255 0.694118 0.223529
0.141176 0.705882 0.219608
0.235294 0.717647 0.231373
0.443137 0.725490 0.231373
0.619608 0.737255 0.219608
0.749020 0.760784 0.200000
0.854902 0.784314 0.211765
0.913725 0.807843 0.215686
0.949020 0.823529 0.262745
0.152941 0.800000 0.254902
0.188235 0.803922 0.250980
0.262745 0.803922 0.258824
0.439216 0.819608 0.266667
0.611765 0.819608 0.254902
0.749020 0.827451 0.250980
0.850980 0.847059 0.250980
0.917647 0.866667 0.254902
0.960784 0.874510 0.301961
0.184314 0.878431 0.290196
0.223529 0.886275 0.294118
0.305882 0.882353 0.294118
0.458824 0.890196 0.305882
0.615686 0.890196 0.298039
0.756863 0.898039 0.301961
0.850980 0.909804 0.301961
0.925490 0.921569 0.333333
0.968627 0.921569 0.341176
0.247059 0.952941 0.337255
0.294118 0.941176 0.337255
0.349020 0.941176 0.341176
0.486275 0.941176 0.349020
0.647059 0.945098 0.364706
0.768627 0.956863 0.384314
0.854902 0.956863 0.372549
0.925490 0.964706 0.372549
0.956863 0.968627 0.384314
0.023529 0.035294 0.101961
0.062745 0.035294 0.105882
0.262745 0.015686 0.047059
0.478431 0.043137 0.078431
0.603922 0.066667 0.105882
0.713725 0.078431 0.121569
0.819608 0.090196 0.141176
0.901961 0.090196 0.152941
0.949020 0.098039 0.164706
0.015686 0.066667 0.101961
0.062745 0.062745 0.101961
0.270588 0.074510 0.047059
0.513725 0.149020 0.078431
0.643137 0.207843 0.141176
0.760784 0.243137 0.152941
0.847059 0.278431 0.172549
0.909804 0.301961 0.192157
0.949020 0.317647 0.207843
0.007843 0.215686 0.152941
0.027451 0.227451 0.160784
0.207843 0.262745 0.160784
0.517647 0.360784 0.129412
0.682353 0.419608 0.152941
0.792157 0.450980 0.141176
0.870588 0.474510 0.160784
0.925490 0.490196 0.180392
0.945098 0.505882 0.207843
0.019608 0.427451 0.227451
0.058824 0.447059 0.231373
0.203922 0.486275 0.239216
0.454902 0.494118 0.207843
0.639216 0.556863 0.200000
0.780392 0.611765 0.203922
0.862745 0.654902 0.215686
0.921569 0.674510 0.231373
0.956863 0.678431 0.254902
0.070588 0.580392 0.290196
0.094118 0.600000 0.274510
0.227451 0.619608 0.282353
0.427451 0.639216 0.254902
0.619608 0.647059 0.243137
0.760784 0.682353 0.239216
0.854902 0.733333 0.243137
0.921569 0.760784 0.266667
0.952941 0.772549 0.294118
0.125490 0.709804 0.317647
0.149020 0.717647 0.313725
0.254902 0.725490 0.309804
0.431373 0.737255 0.298039
0.611765 0.741176 0.282353
0.752941 0.752941 0.266667
0.854902 0.792157 0.262745
0.921569 0.815686 0.270588
0.952941 0.823529 0.301961
0.164706 0.803922 0.352941
0.200000 0.807843 0.337255
0.282353 0.811765 0.337255
0.439216 0.819608 0.313725
0.607843 0.823529 0.313725
0.745098 0.831373 0.305882
0.850980 0.854902 0.313725
0.917647 0.866667 0.313725
0.952941 0.882353 0.341176
0.227451 0.878431 0.392157
0.254902 0.878431 0.376471
0.321569 0.886275 0.372549
0.458824 0.894118 0.352941
0.615686 0.894118 0.345098
0.756863 0.905882 0.376471
0.854902 0.909804 0.372549
0.921569 0.913725 0.376471
0.956863 0.925490 0.388235
0.266667 0.937255 0.419608
0.301961 0.933333 0.415686
0.380392 0.937255 0.396078
0.486275 0.952941 0.396078
0.635294 0.952941 0.415686
0.768627 0.952941 0.435294
0.862745 0.952941 0.427451
0.929412 0.960784 0.423529
0.960784 0.964706 0.431373
0.031373 0.062745 0.254902
0.078431 0.062745 0.262745
0.266667 0.070588 0.270588
0.494118 0.062745 0.239216
0.611765 0.066667 0.227451
0.709804 0.086275 0.243137
0.811765 0.086275 0.250980
0.886275 0.105882 0.274510
0.933333 0.149020 0.301961
0.039216 0.090196 0.254902
0.054902 0.090196 0.258824
0.231373 0.121569 0.278431
0.498039 0.113725 0.211765
0.639216 0.180392 0.254902
0.745098 0.227451 0.278431
0.831373 0.270588 0.286275
0.901961 0.301961 0.309804
0.949020 0.325490 0.345098
0.011765 0.200000 0.290196
0.035294 0.207843 0.305882
0.152941 0.243137 0.313725
0.509804 0.333333 0.180392
0.670588 0.384314 0.215686
0.768627 0.435294 0.290196
0.847059 0.462745 0.317647
0.905882 0.486275 0.345098
0.960784 0.517647 0.400000
0.019608 0.388235 0.333333
0.054902 0.400000 0.352941
0.141176 0.427451 0.360784
0.443137 0.505882 0.360784
0.635294 0.549020 0.325490
0.776471 0.607843 0.337255
0.858824 0.650980 0.337255
0.925490 0.670588 0.349020
0.952941 0.682353 0.388235
0.054902 0.529412 0.392157
0.090196 0.556863 0.407843
0.152941 0.584314 0.400000
0.435294 0.639216 0.396078
0.600000 0.639216 0.360784
0.752941 0.682353 0.360784
0.862745 0.733333 0.360784
0.929412 0.764706 0.372549
0.949020 0.772549 0.407843
0.133333 0.678431 0.447059
0.176471 0.701961 0.462745
0.231373 0.713725 0.458824
0.450980 0.741176 0.439216
0.607843 0.749020 0.396078
0.741176 0.760784 0.392157
0.847059 0.796078 0.388235
0.925490 0.823529 0.392157
0.960784 0.835294 0.431373
0.192157 0.803922 0.486275
0.235294 0.811765 0.505882
0.274510 0.807843 0.486275
0.466667 0.823529 0.458824
0.596078 0.839216 0.419608
0.752941 0.843137 0.435294
0.843137 0.858824 0.427451
0.917647 0.878431 0.435294
0.960784 0.890196 0.458824
0.239216 0.878431 0.521569
0.266667 0.886275 0.521569
0.333333 0.890196 0.498039
0.509804 0.898039 0.474510
0.623529 0.909804 0.458824
0.760784 0.909804 0.482353
0.850980 0.913725 0.486275
0.925490 0.917647 0.474510
0.968627 0.929412 0.486275
0.294118 0.949020 0.537255
0.317647 0.945098 0.529412
0.388235 0.945098 0.505882
0.521569 0.956863 0.486275
0.639216 0.949020 0.490196
0.768627 0.960784 0.509804
0.854902 0.960784 0.509804
0.929412 0.964706 0.505882
0.960784 0.964706 0.498039
0.050980 0.074510 0.380392
0.094118 0.078431 0.407843
0.239216 0.098039 0.443137
0.470588 0.086275 0.427451
0.592157 0.066667 0.407843
0.698039 0.074510 0.396078
0.796078 0.082353 0.372549
0.882353 0.113725 0.396078
0.937255 0.176471 0.423529
0.054902 0.109804 0.403922
0.082353 0.109804 0.415686
0.192157 0.125490 0.439216
0.450980 0.168627 0.454902
0.600000 0.137255 0.435294
0.721569 0.156863 0.396078
0.823529 0.231373 0.407843
0.898039 0.286275 0.439216
0.945098 0.317647 0.450980
0.031373 0.223529 0.454902
0.047059 0.227451 0.470588
0.101961 0.223529 0.474510
0.462745 0.337255 0.490196
0.623529 0.337255 0.403922
0.745098 0.388235 0.415686
0.831373 0.454902 0.462745
0.901961 0.486275 0.501961
0.949020 0.521569 0.541176
0.023529 0.392157 0.501961
0.058824 0.400000 0.509804
0.101961 0.396078 0.509804
0.400000 0.478431 0.513725
0.647059 0.541176 0.423529
0.780392 0.596078 0.431373
0.858824 0.635294 0.458824
0.917647 0.666667 0.494118
0.964706 0.678431 0.541176
0.047059 0.517647 0.521569
0.086275 0.525490 0.529412
0.129412 0.541176 0.525490
0.380392 0.607843 0.552941
0.603922 0.666667 0.560784
0.745098 0.694118 0.521569
0.858824 0.745098 0.525490
0.921569 0.768627 0.537255
0.960784 0.776471 0.564706
0.121569 0.647059 0.552941
0.164706 0.674510 0.572549
0.215686 0.686275 0.580392
0.396078 0.725490 0.596078
0.619608 0.764706 0.592157
0.737255 0.772549 0.564706
0.843137 0.800000 0.556863
0.925490 0.831373 0.556863
0.960784 0.839216 0.588235
0.192157 0.780392 0.603922
0.239216 0.784314 0.619608
0.278431 0.800000 0.623529
0.435294 0.819608 0.627451
0.639216 0.839216 0.607843
0.745098 0.850980 0.588235
0.839216 0.862745 0.588235
0.917647 0.882353 0.572549
0.960784 0.890196 0.592157
0.274510 0.870588 0.647059
0.309804 0.878431 0.647059
0.356863 0.886275 0.654902
0.509804 0.898039 0.635294
0.654902 0.905882 0.607843
0.752941 0.913725 0.607843
0.839216 0.921569 0.611765
0.917647 0.933333 0.603922
0.976471 0.933333 0.619608
0.345098 0.949020 0.674510
0.376471 0.945098 0.674510
0.423529 0.949020 0.662745
0.556863 0.956863 0.631373
0.647059 0.964706 0.592157
0.768627 0.964706 0.615686
0.854902 0.964706 0.631373
0.929412 0.968627 0.631373
0.968627 0.968627 0.615686
0.058824 0.109804 0.521569
0.113725 0.117647 0.545098
0.219608 0.113725 0.564706
0.447059 0.137255 0.588235
0.592157 0.129412 0.600000
0.698039 0.082353 0.596078
0.788235 0.082353 0.576471
0.862745 0.125490 0.564706
0.933333 0.172549 0.552941
0.070588 0.141176 0.541176
0.098039 0.145098 0.545098
0.152941 0.145098 0.564706
0.466667 0.211765 0.611765
0.600000 0.215686 0.619608
0.709804 0.188235 0.615686
0.803922 0.188235 0.592157
0.878431 0.227451 0.549020
0.945098 0.274510 0.584314
0.050980 0.243137 0.603922
0.078431 0.254902 0.611765
0.133333 0.235294 0.607843
0.415686 0.329412 0.662745
0.615686 0.380392 0.662745
0.729412 0.372549 0.647059
0.819608 0.380392 0.607843
0.890196 0.419608 0.600000
0.945098 0.478431 0.627451
0.058824 0.400000 0.678431
0.086275 0.415686 0.658824
0.133333 0.411765 0.670588
0.333333 0.458824 0.682353
0.588235 0.545098 0.678431
0.745098 0.572549 0.623529
0.854902 0.592157 0.560784
0.917647 0.627451 0.584314
0.960784 0.654902 0.639216
0.094118 0.525490 0.670588
0.137255 0.545098 0.690196
0.176471 0.545098 0.686275
0.305882 0.568627 0.682353
0.556863 0.643137 0.694118
0.760784 0.690196 0.635294
0.870588 0.717647 0.603922
0.921569 0.749020 0.635294
0.972549 0.760784 0.658824
0.137255 0.639216 0.690196
0.164706 0.662745 0.686275
0.219608 0.670588 0.698039
0.313725 0.686275 0.709804
0.552941 0.737255 0.713725
0.741176 0.788235 0.733333
0.843137 0.803922 0.698039
0.925490 0.835294 0.674510
0.956863 0.843137 0.678431
0.196078 0.764706 0.713725
0.235294 0.768627 0.713725
0.282353 0.788235 0.717647
0.360784 0.796078 0.733333
0.580392 0.835294 0.741176
0.745098 0.862745 0.752941
0.839216 0.866667 0.737255
0.913725 0.882353 0.737255
0.968627 0.894118 0.725490
0.278431 0.870588 0.733333
0.305882 0.870588 0.741176
0.349020 0.878431 0.749020
0.439216 0.886275 0.756863
0.631373 0.913725 0.764706
0.772549 0.925490 0.752941
0.843137 0.929412 0.749020
0.913725 0.925490 0.741176
0.972549 0.941176 0.749020
0.352941 0.949020 0.764706
0.384314 0.945098 0.764706
0.427451 0.949020 0.772549
0.517647 0.956863 0.768627
0.678431 0.972549 0.752941
0.768627 0.972549 0.729412
0.854902 0.968627 0.741176
0.917647 0.968627 0.749020
0.972549 0.976471 0.752941
0.086275 0.129412 0.623529
0.129412 0.141176 0.654902
0.243137 0.129412 0.694118
0.447059 0.152941 0.709804
0.592157 0.188235 0.717647
0.713725 0.172549 0.741176
0.800000 0.156863 0.741176
0.866667 0.152941 0.729412
0.933333 0.196078 0.737255
0.086275 0.160784 0.666667
0.125490 0.176471 0.678431
0.172549 0.176471 0.674510
0.443137 0.223529 0.745098
0.584314 0.258824 0.721569
0.717647 0.262745 0.752941
0.803922 0.250980 0.760784
0.878431 0.247059 0.752941
0.952941 0.278431 0.749020
0.074510 0.270588 0.721569
0.105882 0.266667 0.713725
0.149020 0.262745 0.725490
0.384314 0.317647 0.764706
0.611765 0.400000 0.776471
0.729412 0.411765 0.772549
0.827451 0.419608 0.792157
0.898039 0.415686 0.768627
0.960784 0.443137 0.768627
0.125490 0.427451 0.772549
0.164706 0.443137 0.796078
0.211765 0.435294 0.788235
0.321569 0.443137 0.796078
0.560784 0.521569 0.800000
0.741176 0.603922 0.815686
0.839216 0.611765 0.811765
0.901961 0.603922 0.796078
0.952941 0.635294 0.803922
0.168627 0.541176 0.792157
0.196078 0.568627 0.796078
0.239216 0.572549 0.796078
0.329412 0.568627 0.815686
0.537255 0.631373 0.819608
0.725490 0.686275 0.831373
0.843137 0.725490 0.827451
0.909804 0.721569 0.784314
0.956863 0.741176 0.760784
0.196078 0.658824 0.800000
0.231373 0.670588 0.815686
0.274510 0.682353 0.819608
0.345098 0.682353 0.811765
0.509804 0.721569 0.823529
0.713725 0.776471 0.839216
0.847059 0.807843 0.811765
0.929412 0.815686 0.752941
0.976471 0.831373 0.760784
0.239216 0.780392 0.819608
0.266667 0.776471 0.827451
0.313725 0.788235 0.823529
0.372549 0.792157 0.831373
0.521569 0.815686 0.839216
0.721569 0.847059 0.843137
0.835294 0.878431 0.847059
0.921569 0.886275 0.827451
0.968627 0.886275 0.803922
0.290196 0.878431 0.835294
0.313725 0.878431 0.843137
0.356863 0.874510 0.831373
0.423529 0.882353 0.847059
0.549020 0.901961 0.854902
0.737255 0.917647 0.866667
0.843137 0.933333 0.870588
0.905882 0.933333 0.862745
0.968627 0.937255 0.854902
0.364706 0.952941 0.854902
0.380392 0.956863 0.847059
0.431373 0.952941 0.847059
0.490196 0.960784 0.854902
0.596078 0.960784 0.854902
0.756863 0.968627 0.866667
0.854902 0.972549 0.862745
0.913725 0.972549 0.850980
0.972549 0.972549 0.862745
0.098039 0.149020 0.701961
0.160784 0.160784 0.733333
0.282353 0.164706 0.784314
0.458824 0.188235 0.796078
0.592157 0.219608 0.792157
0.698039 0.219608 0.796078
0.807843 0.223529 0.827451
0.882353 0.223529 0.839216
0.941176 0.231373 0.835294
0.117647 0.207843 0.764706
0.149020 0.207843 0.760784
0.231373 0.211765 0.776471
0.423529 0.243137 0.823529
0.600000 0.286275 0.800000
0.713725 0.290196 0.819608
0.819608 0.309804 0.835294
0.890196 0.298039 0.835294
0.945098 0.321569 0.827451
0.125490 0.278431 0.784314
0.152941 0.290196 0.792157
0.192157 0.290196 0.796078
0.356863 0.313725 0.815686
0.596078 0.407843 0.839216
0.737255 0.435294 0.835294
0.827451 0.447059 0.858824
0.901961 0.450980 0.858824
0.960784 0.447059 0.854902
0.172549 0.435294 0.847059
0.207843 0.450980 0.854902
0.239216 0.447059 0.847059
0.341176 0.447059 0.850980
0.537255 0.513725 0.866667
0.733333 0.607843 0.870588
0.843137 0.627451 0.882353
0.909804 0.627451 0.878431
0.964706 0.631373 0.886275
0.203922 0.560784 0.870588
0.235294 0.572549 0.866667
0.274510 0.572549 0.866667
0.349020 0.572549 0.882353
0.537255 0.615686 0.886275
0.721569 0.686275 0.901961
0.835294 0.737255 0.894118
0.917647 0.737255 0.890196
0.952941 0.752941 0.882353
0.235294 0.670588 0.878431
0.266667 0.690196 0.882353
0.313725 0.690196 0.886275
0.384314 0.686275 0.890196
0.541176 0.713725 0.898039
0.725490 0.776471 0.909804
0.827451 0.807843 0.898039
0.909804 0.823529 0.905882
0.960784 0.831373 0.898039
0.274510 0.784314 0.886275
0.309804 0.788235 0.878431
0.356863 0.792157 0.898039
0.423529 0.800000 0.894118
0.545098 0.823529 0.901961
0.733333 0.858824 0.909804
0.843137 0.874510 0.917647
0.913725 0.890196 0.905882
0.968627 0.894118 0.866667
0.345098 0.874510 0.898039
0.356863 0.878431 0.898039
0.403922 0.886275 0.917647
0.462745 0.890196 0.901961
0.592157 0.905882 0.909804
0.752941 0.929412 0.917647
0.850980 0.933333 0.913725
0.917647 0.937255 0.921569
0.960784 0.945098 0.901961
0.372549 0.952941 0.905882
0.384314 0.952941 0.901961
0.419608 0.952941 0.905882
0.478431 0.956863 0.913725
0.603922 0.964706 0.913725
0.768627 0.972549 0.921569
0.866667 0.976471 0.917647
0.929412 0.976471 0.921569
0.972549 0.976471 0.921569
0.149020 0.188235 0.811765
0.211765 0.196078 0.819608
0.313725 0.200000 0.866667
0.462745 0.215686 0.866667
0.603922 0.235294 0.858824
0.713725 0.258824 0.858824
0.815686 0.270588 0.878431
0.890196 0.270588 0.886275
0.945098 0.286275 0.901961
0.156863 0.243137 0.823529
0.192157 0.235294 0.823529
0.270588 0.247059 0.843137
0.435294 0.262745 0.886275
0.607843 0.305882 0.862745
0.721569 0.321569 0.854902
0.815686 0.333333 0.882353
0.898039 0.345098 0.894118
0.956863 0.349020 0.898039
0.168627 0.309804 0.850980
0.188235 0.313725 0.850980
0.239216 0.305882 0.854902
0.380392 0.333333 0.866667
0.588235 0.415686 0.901961
0.741176 0.458824 0.898039
0.835294 0.454902 0.905882
0.909804 0.470588 0.909804
0.952941 0.466667 0.898039
0.207843 0.454902 0.898039
0.243137 0.470588 0.901961
0.278431 0.458824 0.898039
0.364706 0.454902 0.901961
0.509804 0.494118 0.925490
0.741176 0.596078 0.909804
0.835294 0.631373 0.913725
0.905882 0.631373 0.917647
0.956863 0.635294 0.925490
0.227451 0.560784 0.917647
0.258824 0.572549 0.921569
0.301961 0.576471 0.921569
0.372549 0.568627 0.917647
0.529412 0.600000 0.929412
0.713725 0.670588 0.929412
0.843137 0.733333 0.925490
0.909804 0.737255 0.937255
0.960784 0.741176 0.933333
0.254902 0.666667 0.921569
0.282353 0.674510 0.917647
0.317647 0.682353 0.921569
0.380392 0.678431 0.913725
0.521569 0.701961 0.937255
0.721569 0.764706 0.941176
0.831373 0.803922 0.933333
0.913725 0.823529 0.937255
0.956863 0.823529 0.929412
0.290196 0.768627 0.929412
0.317647 0.780392 0.921569
0.360784 0.784314 0.925490
0.411765 0.792157 0.921569
0.525490 0.811765 0.941176
0.729412 0.854902 0.937255
0.847059 0.866667 0.941176
0.901961 0.886275 0.941176
0.956863 0.886275 0.941176
0.329412 0.878431 0.929412
0.360784 0.878431 0.929412
0.400000 0.882353 0.941176
0.458824 0.882353 0.933333
0.552941 0.890196 0.941176
0.745098 0.921569 0.945098
0.847059 0.929412 0.941176
0.917647 0.933333 0.945098
0.960784 0.945098 0.949020
0.372549 0.956863 0.949020
0.384314 0.960784 0.937255
0.427451 0.956863 0.941176
0.486275 0.956863 0.949020
0.552941 0.964706 0.945098
0.717647 0.972549 0.949020
0.858824 0.976471 0.937255
0.925490 0.976471 0.949020
0.964706 0.976471 0.949020
0.172549 0.219608 0.862745
0.223529 0.211765 0.866667
0.321569 0.207843 0.905882
0.454902 0.223529 0.913725
0.576471 0.235294 0.882353
0.701961 0.250980 0.890196
0.807843 0.262745 0.894118
0.886275 0.270588 0.917647
0.941176 0.286275 0.937255
0.180392 0.250980 0.870588
0.203922 0.250980 0.878431
0.286275 0.258824 0.878431
0.439216 0.270588 0.925490
0.576471 0.301961 0.894118
0.705882 0.321569 0.890196
0.811765 0.333333 0.909804
0.894118 0.333333 0.921569
0.949020 0.352941 0.929412
0.192157 0.317647 0.886275
0.200000 0.317647 0.890196
0.250980 0.313725 0.890196
0.380392 0.333333 0.913725
0.537255 0.376471 0.929412
0.733333 0.443137 0.925490
0.831373 0.447059 0.929412
0.909804 0.454902 0.937255
0.956863 0.470588 0.941176
0.211765 0.454902 0.929412
0.247059 0.458824 0.937255
0.278431 0.462745 0.925490
0.372549 0.450980 0.925490
0.482353 0.458824 0.937255
0.701961 0.568627 0.937255
0.827451 0.619608 0.941176
0.905882 0.623529 0.945098
0.956863 0.631373 0.952941
0.227451 0.568627 0.941176
0.258824 0.568627 0.941176
0.301961 0.572549 0.937255
0.372549 0.568627 0.941176
0.486275 0.576471 0.945098
0.686275 0.643137 0.952941
0.835294 0.721569 0.949020
0.901961 0.733333 0.952941
0.960784 0.733333 0.960784
0.243137 0.666667 0.949020
0.274510 0.670588 0.945098
0.321569 0.682353 0.945098
0.380392 0.674510 0.941176
0.490196 0.682353 0.952941
0.698039 0.741176 0.952941
0.835294 0.792157 0.956863
0.917647 0.815686 0.952941
0.960784 0.819608 0.960784
0.290196 0.772549 0.945098
0.309804 0.772549 0.952941
0.356863 0.784314 0.945098
0.411765 0.788235 0.952941
0.501961 0.796078 0.952941
0.698039 0.839216 0.964706
0.839216 0.862745 0.956863
0.913725 0.882353 0.964706
0.960784 0.894118 0.968627
0.325490 0.866667 0.968627
0.360784 0.870588 0.956863
0.403922 0.874510 0.968627
0.454902 0.882353 0.960784
0.533333 0.890196 0.964706
0.709804 0.913725 0.964706
0.850980 0.929412 0.964706
0.909804 0.937255 0.968627
0.956863 0.949020 0.968627
0.368627 0.952941 0.968627
0.384314 0.956863 0.956863
0.427451 0.952941 0.956863
0.478431 0.956863 0.960784
0.549020 0.956863 0.960784
0.658824 0.964706 0.964706
0.839216 0.972549 0.968627
0.917647 0.980392 0.976471
0.960784 0.976471 0.972549
