JustShoot/Resources/KodakPortra400.cube
#Generated with IWLTBAP LUT Generator
#Website: http://luts.iwltbap.com
TITLE "ORI"
#LUT size
LUT_3D_SIZE 5
#LUT data points
0.011765 0.019608 0.015686
0.145098 0.023529 0.003922
0.545098 0.019608 0.023529
0.831373 0.039216 0.023529
0.984314 0.168627 0.019608
0.019608 0.192157 0.062745
0.192157 0.227451 0.011765
0.611765 0.286275 0.027451
0.850980 0.294118 0.011765
0.976471 0.321569 0.015686
0.035294 0.537255 0.211765
0.313725 0.541176 0.211765
0.576471 0.560784 0.035294
0.823529 0.564706 0.015686
0.988235 0.549020 0.015686
0.482353 0.721569 0.450980
0.521569 0.725490 0.466667
0.584314 0.733333 0.431373
0.772549 0.760784 0.317647
0.976471 0.764706 0.184314
0.725490 0.890196 0.741176
0.737255 0.905882 0.737255
0.749020 0.917647 0.749020
0.803922 0.933333 0.725490
0.890196 0.937255 0.678431
0.023529 0.027451 0.215686
0.203922 0.023529 0.207843
0.584314 0.023529 0.243137
0.819608 0.015686 0.235294
0.890196 0.286275 0.278431
0.019608 0.235294 0.254902
0.286275 0.266667 0.282353
0.615686 0.270588 0.254902
0.807843 0.313725 0.266667
0.929412 0.372549 0.278431
0.290196 0.552941 0.384314
0.392157 0.556863 0.400000
0.588235 0.584314 0.333333
0.827451 0.584314 0.243137
0.968627 0.568627 0.239216
0.505882 0.725490 0.541176
0.537255 0.733333 0.533333
0.600000 0.749020 0.525490
0.768627 0.776471 0.447059
0.976471 0.784314 0.372549
0.737255 0.898039 0.772549
0.745098 0.909804 0.768627
0.760784 0.905882 0.772549
0.803922 0.929412 0.745098
0.898039 0.945098 0.694118
0.027451 0.019608 0.541176
0.258824 0.019608 0.564706
0.643137 0.035294 0.584314
0.811765 0.254902 0.552941
0.909804 0.305882 0.517647
0.015686 0.274510 0.572549
0.294118 0.313725 0.572549
0.619608 0.345098 0.588235
0.811765 0.415686 0.572549
0.945098 0.419608 0.556863
0.317647 0.592157 0.592157
0.462745 0.611765 0.615686
0.631373 0.623529 0.627451
0.815686 0.619608 0.592157
0.952941 0.603922 0.572549
0.584314 0.772549 0.686275
0.615686 0.780392 0.686275
0.658824 0.788235 0.682353
0.760784 0.784314 0.635294
0.949020 0.800000 0.615686
0.733333 0.905882 0.815686
0.760784 0.909804 0.811765
0.780392 0.921569 0.811765
0.823529 0.929412 0.800000
0.898039 0.949020 0.776471
0.050980 0.160784 0.796078
0.368627 0.211765 0.796078
0.627451 0.313725 0.764706
0.807843 0.423529 0.764706
0.937255 0.521569 0.780392
0.192157 0.349020 0.784314
0.423529 0.427451 0.749020
0.643137 0.458824 0.772549
0.815686 0.517647 0.772549
0.945098 0.596078 0.784314
0.333333 0.588235 0.752941
0.450980 0.607843 0.749020
0.631373 0.639216 0.788235
0.800000 0.678431 0.800000
0.945098 0.694118 0.800000
0.572549 0.772549 0.784314
0.611765 0.780392 0.807843
0.690196 0.796078 0.823529
0.815686 0.811765 0.831373
0.945098 0.819608 0.831373
0.776471 0.933333 0.890196
0.796078 0.925490 0.882353
0.819608 0.945098 0.894118
0.878431 0.949020 0.901961
0.949020 0.964706 0.874510
0.560784 0.541176 0.894118
0.600000 0.541176 0.898039
0.705882 0.580392 0.913725
0.831373 0.627451 0.917647
0.929412 0.690196 0.921569
0.580392 0.603922 0.901961
0.627451 0.627451 0.917647
0.717647 0.631373 0.913725
0.843137 0.666667 0.921569
0.945098 0.709804 0.921569
0.537255 0.682353 0.898039
0.611765 0.694118 0.917647
0.717647 0.717647 0.921569
0.839216 0.745098 0.933333
0.956863 0.788235 0.956863
0.592157 0.792157 0.913725
0.603922 0.796078 0.913725
0.690196 0.811765 0.925490
0.831373 0.847059 0.960784
0.972549 0.870588 0.968627
0.756863 0.941176 0.964706
0.776471 0.949020 0.960784
0.819608 0.956863 0.964706
0.890196 0.960784 0.968627
0.988235 0.980392 0.984314
