build/Debug-iphonesimulator/JustShoot.app/FujiProvia100F.cube
#Generated with IWLTBAP LUT Generator
#Website: http://luts.iwltbap.com
TITLE "ORI"
#LUT size
LUT_3D_SIZE 5
#LUT data points
0.000000 0.003922 0.000000
0.211765 0.000000 0.000000
0.611765 0.000000 0.003922
0.913725 0.003922 0.003922
0.988235 0.000000 0.000000
0.000000 0.215686 0.000000
0.145098 0.211765 0.000000
0.619608 0.152941 0.000000
0.905882 0.058824 0.007843
0.972549 0.035294 0.007843
0.007843 0.549020 0.003922
0.000000 0.568627 0.000000
0.431373 0.603922 0.000000
0.886275 0.545098 0.000000
0.972549 0.505882 0.003922
0.003922 0.819608 0.003922
0.003922 0.819608 0.003922
0.023529 0.815686 0.000000
0.729412 0.831373 0.000000
0.964706 0.831373 0.000000
0.003922 0.964706 0.003922
0.003922 0.968627 0.000000
0.007843 0.972549 0.003922
0.576471 0.960784 0.007843
0.945098 0.949020 0.000000
0.003922 0.000000 0.243137
0.215686 0.003922 0.207843
0.615686 0.000000 0.113725
0.905882 0.003922 0.015686
0.976471 0.000000 0.000000
0.000000 0.203922 0.196078
0.188235 0.207843 0.192157
0.619608 0.141176 0.098039
0.905882 0.035294 0.015686
0.976471 0.015686 0.000000
0.000000 0.556863 0.133333
0.000000 0.568627 0.121569
0.494118 0.592157 0.090196
0.886275 0.541176 0.007843
0.968627 0.478431 0.007843
0.000000 0.811765 0.109804
0.003922 0.811765 0.070588
0.050980 0.815686 0.062745
0.752941 0.823529 0.039216
0.964706 0.827451 0.000000
0.000000 0.968627 0.176471
0.000000 0.964706 0.129412
0.000000 0.960784 0.180392
0.592157 0.956863 0.152941
0.945098 0.949020 0.000000
0.000000 0.000000 0.647059
0.035294 0.003922 0.635294
0.596078 0.000000 0.596078
0.866667 0.043137 0.525490
0.968627 0.035294 0.419608
0.000000 0.149020 0.615686
0.058824 0.145098 0.615686
0.600000 0.188235 0.600000
0.866667 0.258824 0.525490
0.972549 0.152941 0.419608
0.000000 0.529412 0.552941
0.015686 0.545098 0.560784
0.568627 0.584314 0.588235
0.858824 0.560784 0.509804
0.964706 0.501961 0.345098
0.003922 0.788235 0.501961
0.003922 0.796078 0.509804
0.274510 0.811765 0.537255
0.764706 0.827451 0.541176
0.952941 0.819608 0.400000
0.000000 0.968627 0.556863
0.000000 0.960784 0.552941
0.023529 0.956863 0.521569
0.619608 0.956863 0.529412
0.945098 0.945098 0.498039
0.000000 0.000000 0.858824
0.000000 0.000000 0.850980
0.486275 0.000000 0.862745
0.878431 0.000000 0.835294
0.976471 0.352941 0.819608
0.000000 0.066667 0.854902
0.000000 0.058824 0.854902
0.513725 0.082353 0.854902
0.866667 0.243137 0.839216
0.964706 0.486275 0.819608
0.000000 0.458824 0.823529
0.003922 0.470588 0.831373
0.498039 0.505882 0.831373
0.827451 0.588235 0.819608
0.956863 0.658824 0.811765
0.003922 0.780392 0.784314
0.000000 0.776471 0.772549
0.321569 0.784314 0.792157
0.784314 0.807843 0.807843
0.941176 0.823529 0.780392
0.003922 0.956863 0.737255
0.000000 0.952941 0.733333
0.074510 0.949020 0.764706
0.674510 0.952941 0.788235
0.933333 0.949020 0.803922
0.000000 0.000000 0.964706
0.000000 0.000000 0.956863
0.486275 0.000000 0.972549
0.878431 0.000000 0.964706
0.968627 0.274510 0.964706
0.003922 0.011765 0.956863
0.003922 0.011765 0.964706
0.505882 0.003922 0.964706
0.882353 0.125490 0.960784
0.972549 0.419608 0.968627
0.003922 0.400000 0.964706
0.003922 0.400000 0.964706
0.490196 0.392157 0.964706
0.850980 0.501961 0.956863
0.956863 0.658824 0.952941
0.003922 0.780392 0.956863
0.000000 0.776471 0.952941
0.301961 0.764706 0.960784
0.768627 0.772549 0.960784
0.952941 0.823529 0.945098
0.000000 0.964706 0.960784
0.000000 0.964706 0.960784
0.050980 0.952941 0.945098
0.654902 0.945098 0.949020
0.945098 0.949020 0.956863
