build/Debug-iphonesimulator/JustShoot.app/FujiProvia100F.cube
#Generated with IWLTBAP LUT Generator
#Website: http://luts.iwltbap.com
TITLE "ORI"
#LUT size
LUT_3D_SIZE 9
#LUT data points
0.000000 0.003922 0.000000
0.047059 0.000000 0.000000
0.211765 0.000000 0.000000
0.415686 0.000000 0.000000
0.611765 0.000000 0.003922
0.788235 0.000000 0.003922
0.913725 0.003922 0.003922
0.972549 0.000000 0.000000
0.988235 0.000000 0.000000
0.003922 0.062745 0.000000
0.043137 0.043137 0.003922
0.215686 0.043137 0.000000
0.419608 0.011765 0.000000
0.619608 0.000000 0.003922
0.784314 0.000000 0.000000
0.909804 0.007843 0.007843
0.964706 0.000000 0.003922
0.980392 0.003922 0.000000
0.000000 0.215686 0.000000
0.000000 0.215686 0.000000
0.145098 0.211765 0.000000
0.423529 0.196078 0.000000
0.619608 0.152941 0.000000
0.792157 0.090196 0.000000
0.905882 0.058824 0.007843
0.976471 0.031373 0.000000
0.972549 0.035294 0.007843
0.000000 0.388235 0.000000
0.000000 0.392157 0.000000
0.011765 0.407843 0.000000
0.274510 0.431373 0.000000
0.611765 0.407843 0.011765
0.784314 0.356863 0.000000
0.905882 0.313725 0.000000
0.972549 0.290196 0.003922
0.980392 0.282353 0.007843
0.007843 0.549020 0.003922
0.000000 0.556863 0.000000
0.000000 0.568627 0.000000
0.058824 0.584314 0.000000
0.431373 0.603922 0.000000
0.741176 0.596078 0.003922
0.886275 0.545098 0.000000
0.968627 0.509804 0.000000
0.972549 0.505882 0.003922
0.000000 0.698039 0.003922
0.000000 0.694118 0.000000
0.000000 0.698039 0.003922
0.007843 0.709804 0.003922
0.160784 0.725490 0.003922
0.588235 0.741176 0.000000
0.847059 0.733333 0.000000
0.960784 0.705882 0.007843
0.980392 0.690196 0.000000
0.003922 0.819608 0.003922
0.003922 0.819608 0.011765
0.003922 0.819608 0.003922
0.003922 0.819608 0.003922
0.023529 0.815686 0.000000
0.360784 0.831373 0.003922
0.729412 0.831373 0.000000
0.925490 0.831373 0.007843
0.964706 0.831373 0.000000
0.000000 0.898039 0.007843
0.000000 0.913725 0.015686
0.007843 0.909804 0.003922
0.000000 0.909804 0.000000
0.000000 0.909804 0.000000
0.180392 0.917647 0.000000
0.619608 0.905882 0.000000
0.866667 0.913725 0.003922
0.949020 0.921569 0.000000
0.003922 0.964706 0.003922
0.003922 0.964706 0.003922
0.003922 0.968627 0.000000
0.000000 0.968627 0.000000
0.007843 0.972549 0.003922
0.133333 0.964706 0.011765
0.576471 0.960784 0.007843
0.819608 0.956863 0.000000
0.945098 0.949020 0.000000
0.000000 0.000000 0.039216
0.050980 0.000000 0.039216
0.219608 0.000000 0.011765
0.419608 0.003922 0.011765
0.619608 0.000000 0.000000
0.784314 0.000000 0.000000
0.909804 0.000000 0.000000
0.964706 0.000000 0.003922
0.980392 0.000000 0.007843
0.000000 0.054902 0.043137
0.039216 0.047059 0.027451
0.215686 0.039216 0.019608
0.423529 0.011765 0.000000
0.607843 0.000000 0.000000
0.784314 0.000000 0.000000
0.901961 0.000000 0.000000
0.968627 0.000000 0.000000
0.980392 0.000000 0.003922
0.000000 0.207843 0.027451
0.015686 0.211765 0.019608
0.160784 0.207843 0.011765
0.427451 0.192157 0.000000
0.619608 0.137255 0.003922
0.784314 0.074510 0.000000
0.909804 0.047059 0.000000
0.972549 0.027451 0.000000
0.972549 0.027451 0.000000
0.007843 0.388235 0.015686
0.000000 0.392157 0.000000
0.023529 0.407843 0.003922
0.298039 0.423529 0.003922
0.627451 0.400000 0.007843
0.780392 0.356863 0.000000
0.898039 0.301961 0.003922
0.964706 0.270588 0.003922
0.980392 0.270588 0.000000
0.000000 0.556863 0.000000
0.000000 0.552941 0.000000
0.000000 0.568627 0.000000
0.074510 0.584314 0.003922
0.454902 0.600000 0.000000
0.745098 0.588235 0.000000
0.894118 0.541176 0.000000
0.956863 0.513725 0.003922
0.964706 0.498039 0.003922
0.000000 0.698039 0.003922
0.000000 0.698039 0.000000
0.000000 0.694118 0.000000
0.007843 0.701961 0.003922
0.164706 0.725490 0.000000
0.596078 0.733333 0.000000
0.854902 0.733333 0.003922
0.960784 0.698039 0.000000
0.968627 0.690196 0.000000
0.003922 0.807843 0.011765
0.007843 0.803922 0.003922
0.000000 0.811765 0.000000
0.011765 0.807843 0.007843
0.023529 0.823529 0.003922
0.376471 0.823529 0.000000
0.737255 0.839216 0.011765
0.925490 0.831373 0.000000
0.964706 0.827451 0.000000
0.007843 0.898039 0.000000
0.000000 0.905882 0.000000
0.003922 0.905882 0.000000
0.007843 0.898039 0.000000
0.000000 0.905882 0.003922
0.192157 0.913725 0.000000
0.623529 0.905882 0.000000
0.862745 0.909804 0.000000
0.949020 0.905882 0.003922
0.000000 0.964706 0.019608
0.007843 0.964706 0.000000
0.007843 0.964706 0.000000
0.007843 0.968627 0.015686
0.000000 0.968627 0.031373
0.141176 0.968627 0.039216
0.584314 0.956863 0.007843
0.823529 0.952941 0.007843
0.949020 0.952941 0.003922
0.003922 0.000000 0.243137
0.019608 0.000000 0.239216
0.215686 0.003922 0.207843
0.419608 0.000000 0.172549
0.615686 0.000000 0.113725
0.776471 0.000000 0.050980
0.905882 0.003922 0.015686
0.972549 0.000000 0.003922
0.976471 0.000000 0.000000
0.007843 0.039216 0.231373
0.019608 0.035294 0.223529
0.211765 0.031373 0.211765
0.423529 0.011765 0.168627
0.607843 0.003922 0.105882
0.784314 0.000000 0.058824
0.901961 0.003922 0.015686
0.964706 0.000000 0.003922
0.976471 0.003922 0.007843
0.000000 0.203922 0.196078
0.003922 0.207843 0.200000
0.188235 0.207843 0.192157
0.423529 0.196078 0.149020
0.619608 0.141176 0.098039
0.788235 0.078431 0.050980
0.905882 0.035294 0.015686
0.968627 0.015686 0.000000
0.976471 0.015686 0.000000
0.000000 0.380392 0.168627
0.000000 0.392157 0.164706
0.058824 0.407843 0.156863
0.349020 0.415686 0.137255
0.615686 0.396078 0.094118
0.776471 0.345098 0.035294
0.898039 0.294118 0.003922
0.968627 0.254902 0.000000
0.976471 0.239216 0.000000
0.000000 0.556863 0.133333
0.003922 0.552941 0.141176
0.000000 0.568627 0.121569
0.125490 0.576471 0.101961
0.494118 0.592157 0.090196
0.749020 0.584314 0.050980
0.886275 0.541176 0.007843
0.960784 0.501961 0.000000
0.968627 0.478431 0.007843
0.000000 0.690196 0.129412
0.000000 0.690196 0.113725
0.000000 0.698039 0.082353
0.007843 0.709804 0.074510
0.239216 0.721569 0.070588
0.627451 0.733333 0.054902
0.850980 0.721569 0.027451
0.945098 0.698039 0.007843
0.960784 0.678431 0.003922
0.000000 0.811765 0.109804
0.007843 0.807843 0.090196
0.003922 0.811765 0.070588
0.000000 0.811765 0.058824
0.050980 0.815686 0.062745
0.427451 0.823529 0.070588
0.752941 0.823529 0.039216
0.921569 0.835294 0.019608
0.964706 0.827451 0.000000
0.007843 0.905882 0.101961
0.000000 0.898039 0.086275
0.003922 0.901961 0.066667
0.000000 0.905882 0.058824
0.007843 0.905882 0.094118
0.223529 0.905882 0.078431
0.627451 0.905882 0.066667
0.874510 0.905882 0.039216
0.960784 0.913725 0.003922
0.000000 0.968627 0.176471
0.000000 0.964706 0.160784
0.000000 0.964706 0.129412
0.000000 0.968627 0.133333
0.000000 0.960784 0.180392
0.160784 0.960784 0.196078
0.592157 0.956863 0.152941
0.827451 0.956863 0.066667
0.945098 0.949020 0.000000
0.000000 0.003922 0.470588
0.000000 0.000000 0.470588
0.133333 0.000000 0.450980
0.403922 0.000000 0.419608
0.607843 0.000000 0.368627
0.760784 0.003922 0.329412
0.898039 0.000000 0.254902
0.960784 0.000000 0.168627
0.976471 0.000000 0.101961
0.003922 0.015686 0.458824
0.007843 0.019608 0.470588
0.129412 0.015686 0.447059
0.411765 0.007843 0.419608
0.603922 0.019608 0.372549
0.764706 0.011765 0.313725
0.898039 0.003922 0.250980
0.964706 0.000000 0.168627
0.976471 0.000000 0.101961
0.003922 0.180392 0.443137
0.000000 0.176471 0.439216
0.125490 0.188235 0.423529
0.419608 0.192157 0.419608
0.611765 0.196078 0.376471
0.764706 0.152941 0.309804
0.890196 0.098039 0.247059
0.960784 0.047059 0.160784
0.964706 0.023529 0.074510
0.000000 0.376471 0.388235
0.000000 0.372549 0.396078
0.094118 0.400000 0.407843
0.388235 0.411765 0.411765
0.611765 0.403922 0.372549
0.756863 0.376471 0.313725
0.894118 0.321569 0.231373
0.960784 0.278431 0.133333
0.972549 0.247059 0.066667
0.000000 0.549020 0.345098
0.003922 0.541176 0.368627
0.023529 0.560784 0.388235
0.250980 0.580392 0.384314
0.541176 0.592157 0.380392
0.749020 0.576471 0.329412
0.882353 0.541176 0.231373
0.960784 0.505882 0.117647
0.972549 0.486275 0.047059
0.000000 0.682353 0.349020
0.000000 0.682353 0.356863
0.000000 0.690196 0.360784
0.078431 0.701961 0.349020
0.337255 0.713725 0.360784
0.650980 0.729412 0.349020
0.843137 0.721569 0.298039
0.949020 0.698039 0.164706
0.960784 0.674510 0.031373
0.000000 0.800000 0.356863
0.011765 0.807843 0.356863
0.000000 0.803922 0.341176
0.003922 0.803922 0.321569
0.098039 0.815686 0.321569
0.470588 0.815686 0.333333
0.760784 0.827451 0.325490
0.925490 0.827451 0.270588
0.956863 0.831373 0.129412
0.003922 0.898039 0.360784
0.007843 0.894118 0.360784
0.000000 0.898039 0.329412
0.003922 0.901961 0.305882
0.003922 0.905882 0.309804
0.274510 0.901961 0.321569
0.650980 0.901961 0.317647
0.862745 0.905882 0.294118
0.952941 0.905882 0.231373
0.003922 0.960784 0.384314
0.007843 0.964706 0.384314
0.003922 0.964706 0.364706
0.000000 0.964706 0.345098
0.007843 0.960784 0.356863
0.196078 0.956863 0.376471
0.603922 0.960784 0.360784
0.831373 0.952941 0.313725
0.949020 0.949020 0.227451
0.000000 0.000000 0.647059
0.003922 0.000000 0.643137
0.035294 0.003922 0.635294
0.337255 0.000000 0.623529
0.596078 0.000000 0.596078
0.756863 0.000000 0.560784
0.866667 0.043137 0.525490
0.956863 0.043137 0.470588
0.968627 0.035294 0.419608
0.000000 0.007843 0.631373
0.000000 0.015686 0.647059
0.047059 0.007843 0.639216
0.337255 0.000000 0.623529
0.596078 0.007843 0.600000
0.752941 0.047059 0.568627
0.874510 0.109804 0.521569
0.952941 0.086275 0.458824
0.968627 0.062745 0.423529
0.000000 0.149020 0.615686
0.003922 0.145098 0.627451
0.058824 0.145098 0.615686
0.364706 0.156863 0.619608
0.600000 0.188235 0.600000
0.741176 0.243137 0.560784
0.866667 0.258824 0.525490
0.960784 0.203922 0.466667
0.972549 0.152941 0.419608
0.000000 0.352941 0.600000
0.003922 0.349020 0.600000
0.050980 0.356863 0.600000
0.356863 0.376471 0.596078
0.592157 0.396078 0.588235
0.745098 0.427451 0.556863
0.870588 0.403922 0.521569
0.945098 0.360784 0.439216
0.968627 0.313725 0.380392
0.000000 0.529412 0.552941
0.000000 0.533333 0.545098
0.015686 0.545098 0.560784
0.290196 0.564706 0.572549
0.568627 0.584314 0.588235
0.733333 0.588235 0.564706
0.858824 0.560784 0.509804
0.952941 0.529412 0.427451
0.964706 0.501961 0.345098
0.000000 0.670588 0.505882
0.000000 0.674510 0.517647
0.000000 0.682353 0.529412
0.184314 0.694118 0.545098
0.466667 0.709804 0.564706
0.678431 0.721569 0.556863
0.843137 0.713725 0.537255
0.929412 0.690196 0.435294
0.960784 0.670588 0.321569
0.003922 0.788235 0.501961
0.000000 0.792157 0.501961
0.003922 0.796078 0.509804
0.062745 0.796078 0.525490
0.274510 0.811765 0.537255
0.537255 0.819608 0.533333
0.764706 0.827451 0.541176
0.921569 0.823529 0.509804
0.952941 0.819608 0.400000
0.003922 0.886275 0.509804
0.000000 0.894118 0.517647
0.003922 0.886275 0.517647
0.000000 0.894118 0.513725
0.074510 0.898039 0.501961
0.368627 0.901961 0.501961
0.670588 0.894118 0.513725
0.870588 0.901961 0.513725
0.952941 0.901961 0.501961
0.000000 0.968627 0.556863
0.000000 0.960784 0.552941
0.000000 0.960784 0.552941
0.000000 0.964706 0.533333
0.023529 0.956863 0.521569
0.278431 0.960784 0.525490
0.619608 0.956863 0.529412
0.827451 0.952941 0.517647
0.945098 0.945098 0.498039
0.003922 0.000000 0.776471
0.000000 0.000000 0.772549
0.007843 0.000000 0.772549
0.203922 0.003922 0.760784
0.549020 0.003922 0.752941
0.756863 0.000000 0.741176
0.870588 0.043137 0.690196
0.952941 0.215686 0.686275
0.968627 0.278431 0.666667
0.003922 0.003922 0.772549
0.000000 0.003922 0.760784
0.000000 0.000000 0.768627
0.239216 0.000000 0.760784
0.549020 0.003922 0.752941
0.749020 0.011765 0.737255
0.866667 0.121569 0.701961
0.937255 0.286275 0.686275
0.968627 0.333333 0.670588
0.000000 0.105882 0.752941
0.003922 0.101961 0.741176
0.015686 0.105882 0.749020
0.274510 0.105882 0.752941
0.549020 0.133333 0.752941
0.737255 0.200000 0.717647
0.862745 0.305882 0.705882
0.937255 0.376471 0.686275
0.964706 0.400000 0.670588
0.000000 0.313725 0.745098
0.000000 0.313725 0.737255
0.023529 0.313725 0.733333
0.298039 0.333333 0.745098
0.560784 0.364706 0.745098
0.733333 0.415686 0.725490
0.847059 0.462745 0.701961
0.933333 0.486275 0.686275
0.964706 0.470588 0.654902
0.000000 0.505882 0.729412
0.000000 0.505882 0.709804
0.015686 0.513725 0.721569
0.262745 0.529412 0.721569
0.537255 0.552941 0.729412
0.721569 0.572549 0.717647
0.835294 0.600000 0.701961
0.929412 0.584314 0.670588
0.964706 0.560784 0.627451
0.000000 0.662745 0.682353
0.000000 0.658824 0.670588
0.000000 0.666667 0.682353
0.152941 0.670588 0.678431
0.482353 0.694118 0.701961
0.694118 0.709804 0.721569
0.827451 0.717647 0.705882
0.917647 0.698039 0.647059
0.960784 0.678431 0.592157
0.000000 0.780392 0.627451
0.000000 0.784314 0.619608
0.000000 0.784314 0.639216
0.043137 0.788235 0.654902
0.364706 0.800000 0.674510
0.603922 0.815686 0.690196
0.780392 0.815686 0.701961
0.905882 0.819608 0.674510
0.956863 0.815686 0.619608
0.000000 0.886275 0.607843
0.003922 0.890196 0.607843
0.003922 0.878431 0.615686
0.000000 0.886275 0.639216
0.223529 0.886275 0.654902
0.494118 0.890196 0.662745
0.698039 0.890196 0.674510
0.862745 0.898039 0.682353
0.952941 0.905882 0.678431
0.000000 0.952941 0.631373
0.007843 0.960784 0.647059
0.000000 0.952941 0.639216
0.007843 0.956863 0.666667
0.168627 0.956863 0.658824
0.427451 0.952941 0.666667
0.639216 0.952941 0.674510
0.831373 0.945098 0.682353
0.941176 0.952941 0.682353
0.000000 0.000000 0.858824
0.000000 0.000000 0.862745
0.000000 0.000000 0.850980
0.133333 0.000000 0.858824
0.486275 0.000000 0.862745
0.721569 0.000000 0.854902
0.878431 0.000000 0.835294
0.949020 0.156863 0.823529
0.976471 0.352941 0.819608
0.000000 0.000000 0.858824
0.000000 0.000000 0.862745
0.000000 0.000000 0.858824
0.160784 0.003922 0.858824
0.490196 0.000000 0.854902
0.721569 0.000000 0.839216
0.862745 0.047059 0.831373
0.952941 0.239216 0.807843
0.976471 0.407843 0.819608
0.000000 0.066667 0.854902
0.000000 0.066667 0.858824
0.000000 0.058824 0.854902
0.203922 0.058824 0.850980
0.513725 0.082353 0.854902
0.721569 0.137255 0.835294
0.866667 0.243137 0.839216
0.937255 0.372549 0.819608
0.964706 0.486275 0.819608
0.007843 0.270588 0.854902
0.007843 0.266667 0.847059
0.011765 0.270588 0.850980
0.247059 0.278431 0.847059
0.521569 0.313725 0.839216
0.721569 0.360784 0.847059
0.850980 0.435294 0.827451
0.933333 0.505882 0.823529
0.960784 0.576471 0.815686
0.000000 0.458824 0.823529
0.000000 0.474510 0.831373
0.003922 0.470588 0.831373
0.223529 0.486275 0.827451
0.498039 0.505882 0.831373
0.709804 0.537255 0.831373
0.827451 0.588235 0.819608
0.909804 0.627451 0.807843
0.956863 0.658824 0.811765
0.003922 0.635294 0.815686
0.000000 0.635294 0.815686
0.003922 0.635294 0.815686
0.113725 0.647059 0.811765
0.447059 0.654902 0.819608
0.674510 0.686275 0.823529
0.827451 0.709804 0.811765
0.898039 0.729412 0.807843
0.956863 0.725490 0.796078
0.003922 0.780392 0.784314
0.000000 0.772549 0.776471
0.000000 0.776471 0.772549
0.023529 0.776471 0.780392
0.321569 0.784314 0.792157
0.607843 0.796078 0.803922
0.784314 0.807843 0.807843
0.890196 0.815686 0.800000
0.941176 0.823529 0.780392
0.000000 0.894118 0.733333
0.000000 0.882353 0.749020
0.000000 0.882353 0.745098
0.000000 0.886275 0.741176
0.137255 0.886275 0.764706
0.517647 0.886275 0.780392
0.721569 0.886275 0.792157
0.870588 0.890196 0.800000
0.952941 0.890196 0.792157
0.003922 0.956863 0.737255
0.000000 0.956863 0.745098
0.000000 0.952941 0.733333
0.003922 0.952941 0.752941
0.074510 0.949020 0.764706
0.431373 0.952941 0.776471
0.674510 0.952941 0.788235
0.831373 0.949020 0.800000
0.933333 0.949020 0.803922
0.000000 0.000000 0.945098
0.000000 0.000000 0.945098
0.000000 0.000000 0.941176
0.117647 0.000000 0.933333
0.458824 0.000000 0.937255
0.709804 0.000000 0.929412
0.878431 0.000000 0.933333
0.952941 0.094118 0.909804
0.972549 0.282353 0.913725
0.000000 0.000000 0.941176
0.007843 0.000000 0.945098
0.000000 0.000000 0.941176
0.137255 0.003922 0.925490
0.470588 0.000000 0.941176
0.713725 0.000000 0.921569
0.882353 0.011765 0.917647
0.952941 0.184314 0.909804
0.976471 0.341176 0.909804
0.003922 0.027451 0.945098
0.000000 0.027451 0.933333
0.000000 0.023529 0.933333
0.176471 0.023529 0.929412
0.486275 0.031373 0.937255
0.717647 0.070588 0.917647
0.870588 0.184314 0.925490
0.960784 0.325490 0.905882
0.968627 0.439216 0.909804
0.003922 0.219608 0.921569
0.000000 0.223529 0.929412
0.003922 0.223529 0.933333
0.227451 0.223529 0.925490
0.505882 0.247059 0.921569
0.709804 0.301961 0.925490
0.862745 0.384314 0.913725
0.949020 0.478431 0.909804
0.956863 0.549020 0.898039
0.000000 0.435294 0.925490
0.000000 0.439216 0.929412
0.000000 0.435294 0.929412
0.200000 0.435294 0.921569
0.490196 0.447059 0.925490
0.694118 0.486275 0.909804
0.847059 0.552941 0.917647
0.925490 0.603922 0.901961
0.949020 0.650980 0.894118
0.003922 0.623529 0.913725
0.000000 0.619608 0.909804
0.000000 0.619608 0.909804
0.109804 0.619608 0.913725
0.431373 0.619608 0.909804
0.654902 0.643137 0.913725
0.815686 0.678431 0.898039
0.909804 0.717647 0.901961
0.949020 0.745098 0.894118
0.000000 0.772549 0.905882
0.000000 0.780392 0.894118
0.003922 0.764706 0.901961
0.015686 0.772549 0.894118
0.274510 0.772549 0.898039
0.584314 0.776471 0.894118
0.776471 0.792157 0.905882
0.901961 0.819608 0.894118
0.952941 0.819608 0.886275
0.007843 0.886275 0.886275
0.000000 0.886275 0.882353
0.000000 0.894118 0.874510
0.000000 0.882353 0.866667
0.117647 0.878431 0.874510
0.466667 0.882353 0.874510
0.709804 0.890196 0.882353
0.866667 0.890196 0.890196
0.952941 0.898039 0.886275
0.003922 0.949020 0.882353
0.000000 0.960784 0.878431
0.003922 0.956863 0.870588
0.003922 0.956863 0.870588
0.015686 0.952941 0.862745
0.313725 0.952941 0.870588
0.654902 0.945098 0.878431
0.823529 0.952941 0.878431
0.941176 0.949020 0.894118
0.000000 0.000000 0.964706
0.003922 0.000000 0.964706
0.000000 0.000000 0.956863
0.156863 0.000000 0.968627
0.486275 0.000000 0.972549
0.717647 0.000000 0.972549
0.878431 0.000000 0.964706
0.964706 0.086275 0.952941
0.968627 0.274510 0.964706
0.003922 0.003922 0.976471
0.003922 0.000000 0.972549
0.000000 0.003922 0.956863
0.172549 0.000000 0.968627
0.490196 0.000000 0.964706
0.717647 0.003922 0.964706
0.882353 0.011765 0.956863
0.960784 0.164706 0.960784
0.972549 0.341176 0.960784
0.003922 0.011765 0.956863
0.000000 0.007843 0.960784
0.003922 0.011765 0.964706
0.215686 0.003922 0.968627
0.505882 0.003922 0.964706
0.725490 0.023529 0.972549
0.882353 0.125490 0.960784
0.960784 0.305882 0.956863
0.972549 0.419608 0.968627
0.000000 0.184314 0.960784
0.003922 0.172549 0.968627
0.015686 0.168627 0.960784
0.254902 0.168627 0.972549
0.505882 0.184314 0.964706
0.713725 0.235294 0.964706
0.866667 0.341176 0.956863
0.949020 0.454902 0.976471
0.960784 0.537255 0.964706
0.003922 0.400000 0.964706
0.000000 0.407843 0.956863
0.003922 0.400000 0.964706
0.207843 0.396078 0.968627
0.490196 0.392157 0.964706
0.698039 0.431373 0.960784
0.850980 0.501961 0.956863
0.941176 0.584314 0.956863
0.956863 0.658824 0.952941
0.000000 0.619608 0.960784
0.000000 0.619608 0.960784
0.007843 0.611765 0.956863
0.152941 0.603922 0.968627
0.435294 0.592157 0.964706
0.654902 0.603922 0.964706
0.815686 0.650980 0.949020
0.925490 0.705882 0.952941
0.960784 0.737255 0.952941
0.003922 0.780392 0.956863
0.007843 0.776471 0.964706
0.000000 0.776471 0.952941
0.023529 0.772549 0.945098
0.301961 0.764706 0.960784
0.592157 0.756863 0.945098
0.768627 0.772549 0.960784
0.890196 0.803922 0.952941
0.952941 0.823529 0.945098
0.000000 0.898039 0.949020
0.000000 0.901961 0.949020
0.000000 0.886275 0.952941
0.007843 0.882353 0.952941
0.133333 0.886275 0.945098
0.486275 0.886275 0.945098
0.713725 0.882353 0.956863
0.874510 0.886275 0.960784
0.956863 0.890196 0.952941
0.000000 0.964706 0.960784
0.000000 0.964706 0.945098
0.000000 0.964706 0.960784
0.000000 0.952941 0.945098
0.050980 0.952941 0.945098
0.388235 0.952941 0.952941
0.654902 0.945098 0.949020
0.831373 0.949020 0.949020
0.945098 0.949020 0.956863
