build/Debug-iphonesimulator/JustShoot.app/FujiProvia100F.cube
#Generated with IWLTBAP LUT Generator
#Website: http://luts.iwltbap.com
TITLE "ORI"
#LUT size
LUT_3D_SIZE 25
#LUT data points
0.000000 0.003922 0.000000
0.000000 0.000000 0.000000
0.019608 0.003922 0.007843
0.047059 0.000000 0.000000
0.098039 0.000000 0.000000
0.156863 0.000000 0.003922
0.211765 0.000000 0.000000
0.270588 0.003922 0.000000
0.345098 0.000000 0.000000
0.415686 0.000000 0.000000
0.482353 0.003922 0.000000
0.552941 0.003922 0.007843
0.611765 0.000000 0.003922
0.682353 0.000000 0.000000
0.733333 0.007843 0.000000
0.788235 0.000000 0.003922
0.835294 0.000000 0.000000
0.870588 0.000000 0.000000
0.913725 0.003922 0.003922
0.949020 0.000000 0.003922
0.960784 0.000000 0.000000
0.972549 0.000000 0.000000
0.988235 0.000000 0.003922
0.980392 0.000000 0.007843
0.988235 0.000000 0.000000
0.000000 0.007843 0.000000
0.003922 0.003922 0.003922
0.023529 0.000000 0.000000
0.047059 0.000000 0.000000
0.094118 0.000000 0.000000
0.141176 0.003922 0.000000
0.211765 0.000000 0.007843
0.266667 0.000000 0.000000
0.349020 0.003922 0.000000
0.419608 0.000000 0.000000
0.486275 0.000000 0.000000
0.560784 0.003922 0.000000
0.611765 0.003922 0.000000
0.678431 0.003922 0.003922
0.737255 0.000000 0.003922
0.788235 0.003922 0.003922
0.823529 0.000000 0.000000
0.866667 0.007843 0.000000
0.913725 0.003922 0.003922
0.952941 0.000000 0.007843
0.960784 0.003922 0.000000
0.972549 0.000000 0.000000
0.976471 0.000000 0.000000
0.972549 0.000000 0.003922
0.984314 0.000000 0.000000
0.000000 0.019608 0.000000
0.007843 0.015686 0.000000
0.011765 0.019608 0.007843
0.047059 0.015686 0.003922
0.094118 0.015686 0.011765
0.145098 0.015686 0.000000
0.211765 0.011765 0.000000
0.278431 0.003922 0.000000
0.352941 0.000000 0.000000
0.423529 0.000000 0.000000
0.486275 0.000000 0.000000
0.549020 0.000000 0.000000
0.619608 0.000000 0.003922
0.674510 0.000000 0.003922
0.737255 0.000000 0.000000
0.784314 0.000000 0.000000
0.831373 0.000000 0.000000
0.878431 0.000000 0.000000
0.917647 0.000000 0.003922
0.941176 0.000000 0.000000
0.956863 0.000000 0.000000
0.972549 0.000000 0.003922
0.972549 0.000000 0.003922
0.968627 0.007843 0.000000
0.984314 0.000000 0.000000
0.003922 0.062745 0.000000
0.000000 0.054902 0.003922
0.011765 0.050980 0.007843
0.043137 0.043137 0.003922
0.094118 0.043137 0.007843
0.152941 0.050980 0.000000
0.215686 0.043137 0.000000
0.286275 0.035294 0.000000
0.352941 0.019608 0.000000
0.419608 0.011765 0.000000
0.490196 0.011765 0.000000
0.560784 0.003922 0.000000
0.619608 0.000000 0.003922
0.682353 0.000000 0.000000
0.729412 0.003922 0.000000
0.784314 0.000000 0.000000
0.831373 0.000000 0.003922
0.870588 0.000000 0.000000
0.909804 0.007843 0.007843
0.945098 0.003922 0.000000
0.968627 0.000000 0.000000
0.964706 0.000000 0.003922
0.980392 0.000000 0.003922
0.988235 0.000000 0.003922
0.980392 0.003922 0.000000
0.000000 0.101961 0.000000
0.003922 0.105882 0.007843
0.007843 0.101961 0.000000
0.023529 0.101961 0.000000
0.066667 0.101961 0.000000
0.129412 0.101961 0.000000
0.200000 0.090196 0.000000
0.278431 0.078431 0.000000
0.364706 0.062745 0.000000
0.427451 0.050980 0.000000
0.490196 0.043137 0.000000
0.556863 0.031373 0.000000
0.619608 0.019608 0.000000
0.686275 0.011765 0.000000
0.737255 0.000000 0.000000
0.780392 0.003922 0.000000
0.827451 0.003922 0.007843
0.870588 0.000000 0.000000
0.917647 0.000000 0.003922
0.949020 0.000000 0.000000
0.956863 0.000000 0.000000
0.972549 0.000000 0.000000
0.976471 0.000000 0.000000
0.976471 0.003922 0.003922
0.980392 0.000000 0.003922
0.007843 0.156863 0.000000
0.003922 0.152941 0.000000
0.007843 0.156863 0.003922
0.015686 0.160784 0.000000
0.047059 0.156863 0.000000
0.098039 0.156863 0.003922
0.188235 0.152941 0.000000
0.266667 0.149020 0.000000
0.352941 0.141176 0.000000
0.431373 0.121569 0.000000
0.501961 0.113725 0.000000
0.568627 0.098039 0.000000
0.627451 0.074510 0.000000
0.686275 0.058824 0.000000
0.729412 0.050980 0.000000
0.784314 0.035294 0.003922
0.823529 0.019608 0.000000
0.874510 0.015686 0.007843
0.917647 0.007843 0.000000
0.945098 0.003922 0.007843
0.960784 0.003922 0.003922
0.964706 0.007843 0.003922
0.968627 0.007843 0.000000
0.968627 0.007843 0.000000
0.980392 0.000000 0.003922
0.000000 0.215686 0.000000
0.000000 0.207843 0.003922
0.000000 0.207843 0.003922
0.000000 0.215686 0.000000
0.023529 0.211765 0.015686
0.066667 0.219608 0.000000
0.145098 0.211765 0.000000
0.243137 0.215686 0.003922
0.333333 0.207843 0.007843
0.423529 0.196078 0.000000
0.501961 0.184314 0.000000
0.568627 0.172549 0.000000
0.619608 0.152941 0.000000
0.678431 0.137255 0.000000
0.741176 0.117647 0.000000
0.792157 0.090196 0.000000
0.835294 0.078431 0.007843
0.866667 0.070588 0.003922
0.905882 0.058824 0.007843
0.941176 0.047059 0.003922
0.956863 0.039216 0.000000
0.976471 0.031373 0.000000
0.980392 0.027451 0.003922
0.976471 0.031373 0.000000
0.972549 0.035294 0.007843
0.000000 0.270588 0.000000
0.000000 0.270588 0.000000
0.000000 0.278431 0.000000
0.003922 0.278431 0.000000
0.007843 0.270588 0.000000
0.035294 0.274510 0.003922
0.094118 0.278431 0.003922
0.180392 0.282353 0.003922
0.294118 0.282353 0.003922
0.407843 0.278431 0.000000
0.494118 0.270588 0.000000
0.564706 0.258824 0.000000
0.627451 0.235294 0.000000
0.686275 0.219608 0.000000
0.737255 0.203922 0.007843
0.792157 0.184314 0.003922
0.827451 0.164706 0.000000
0.858824 0.156863 0.000000
0.901961 0.141176 0.003922
0.937255 0.125490 0.000000
0.956863 0.113725 0.000000
0.968627 0.109804 0.000000
0.976471 0.098039 0.000000
0.968627 0.101961 0.000000
0.976471 0.094118 0.007843
0.000000 0.325490 0.003922
0.003922 0.333333 0.000000
0.003922 0.333333 0.000000
0.000000 0.337255 0.000000
0.000000 0.349020 0.000000
0.011765 0.341176 0.007843
0.050980 0.349020 0.003922
0.125490 0.356863 0.003922
0.227451 0.360784 0.000000
0.352941 0.352941 0.000000
0.458824 0.352941 0.000000
0.552941 0.341176 0.000000
0.619608 0.325490 0.000000
0.682353 0.305882 0.003922
0.733333 0.294118 0.003922
0.788235 0.274510 0.000000
0.831373 0.262745 0.000000
0.870588 0.243137 0.000000
0.905882 0.227451 0.000000
0.933333 0.215686 0.000000
0.956863 0.211765 0.007843
0.972549 0.203922 0.007843
0.968627 0.192157 0.000000
0.976471 0.192157 0.000000
0.976471 0.184314 0.003922
0.000000 0.388235 0.000000
0.003922 0.384314 0.003922
0.007843 0.392157 0.003922
0.000000 0.392157 0.000000
0.000000 0.392157 0.003922
0.007843 0.400000 0.011765
0.011765 0.407843 0.000000
0.070588 0.419608 0.003922
0.160784 0.427451 0.000000
0.274510 0.431373 0.000000
0.403922 0.427451 0.000000
0.513725 0.419608 0.003922
0.611765 0.407843 0.011765
0.678431 0.396078 0.011765
0.737255 0.372549 0.000000
0.784314 0.356863 0.000000
0.827451 0.341176 0.003922
0.866667 0.321569 0.000000
0.905882 0.313725 0.000000
0.937255 0.313725 0.000000
0.956863 0.298039 0.003922
0.972549 0.290196 0.003922
0.968627 0.286275 0.000000
0.968627 0.286275 0.007843
0.980392 0.282353 0.007843
0.000000 0.447059 0.000000
0.000000 0.447059 0.000000
0.000000 0.450980 0.000000
0.000000 0.454902 0.000000
0.007843 0.458824 0.000000
0.000000 0.458824 0.000000
0.003922 0.462745 0.003922
0.035294 0.470588 0.000000
0.086275 0.486275 0.000000
0.203922 0.482353 0.003922
0.333333 0.490196 0.007843
0.462745 0.486275 0.000000
0.572549 0.490196 0.000000
0.666667 0.474510 0.007843
0.721569 0.458824 0.007843
0.784314 0.443137 0.000000
0.811765 0.427451 0.007843
0.870588 0.411765 0.000000
0.898039 0.400000 0.000000
0.929412 0.388235 0.000000
0.956863 0.376471 0.000000
0.960784 0.360784 0.000000
0.976471 0.360784 0.000000
0.984314 0.364706 0.007843
0.972549 0.364706 0.000000
0.000000 0.505882 0.011765
0.000000 0.501961 0.003922
0.000000 0.509804 0.000000
0.000000 0.509804 0.000000
0.011765 0.509804 0.000000
0.000000 0.513725 0.000000
0.000000 0.529412 0.011765
0.003922 0.521569 0.000000
0.043137 0.533333 0.000000
0.117647 0.541176 0.000000
0.231373 0.549020 0.000000
0.388235 0.549020 0.000000
0.517647 0.545098 0.000000
0.627451 0.541176 0.000000
0.709804 0.537255 0.007843
0.768627 0.525490 0.003922
0.823529 0.505882 0.000000
0.858824 0.486275 0.000000
0.894118 0.466667 0.000000
0.933333 0.458824 0.000000
0.949020 0.450980 0.000000
0.968627 0.443137 0.007843
0.968627 0.435294 0.011765
0.972549 0.431373 0.000000
0.968627 0.443137 0.000000
0.007843 0.549020 0.003922
0.007843 0.549020 0.003922
0.007843 0.549020 0.003922
0.000000 0.556863 0.000000
0.003922 0.556863 0.003922
0.000000 0.568627 0.000000
0.000000 0.568627 0.000000
0.000000 0.572549 0.000000
0.011765 0.576471 0.000000
0.058824 0.584314 0.000000
0.149020 0.592157 0.000000
0.286275 0.603922 0.000000
0.431373 0.603922 0.000000
0.564706 0.600000 0.000000
0.662745 0.600000 0.000000
0.741176 0.596078 0.003922
0.815686 0.580392 0.000000
0.854902 0.560784 0.000000
0.886275 0.545098 0.000000
0.929412 0.537255 0.000000
0.949020 0.525490 0.000000
0.968627 0.509804 0.000000
0.964706 0.505882 0.000000
0.980392 0.501961 0.011765
0.972549 0.505882 0.003922
0.000000 0.607843 0.007843
0.000000 0.607843 0.000000
0.000000 0.603922 0.000000
0.000000 0.607843 0.003922
0.000000 0.607843 0.003922
0.000000 0.611765 0.003922
0.000000 0.615686 0.000000
0.000000 0.615686 0.000000
0.000000 0.619608 0.000000
0.023529 0.627451 0.007843
0.082353 0.631373 0.000000
0.203922 0.639216 0.000000
0.337255 0.643137 0.000000
0.490196 0.650980 0.007843
0.603922 0.647059 0.003922
0.713725 0.647059 0.000000
0.780392 0.643137 0.000000
0.839216 0.627451 0.000000
0.890196 0.615686 0.003922
0.929412 0.600000 0.007843
0.945098 0.596078 0.000000
0.956863 0.580392 0.000000
0.964706 0.572549 0.000000
0.968627 0.572549 0.007843
0.968627 0.568627 0.000000
0.000000 0.654902 0.003922
0.000000 0.647059 0.000000
0.003922 0.650980 0.003922
0.003922 0.650980 0.003922
0.000000 0.654902 0.007843
0.003922 0.658824 0.007843
0.000000 0.654902 0.000000
0.003922 0.658824 0.000000
0.000000 0.662745 0.000000
0.011765 0.670588 0.000000
0.054902 0.674510 0.000000
0.117647 0.682353 0.003922
0.247059 0.690196 0.000000
0.380392 0.694118 0.007843
0.533333 0.690196 0.000000
0.650980 0.694118 0.000000
0.752941 0.694118 0.000000
0.823529 0.682353 0.000000
0.874510 0.674510 0.003922
0.898039 0.670588 0.003922
0.941176 0.654902 0.000000
0.960784 0.650980 0.003922
0.964706 0.639216 0.000000
0.960784 0.631373 0.000000
0.972549 0.627451 0.000000
0.000000 0.698039 0.003922
0.000000 0.701961 0.007843
0.000000 0.698039 0.003922
0.000000 0.694118 0.000000
0.007843 0.690196 0.000000
0.000000 0.698039 0.003922
0.000000 0.698039 0.003922
0.003922 0.705882 0.003922
0.003922 0.705882 0.000000
0.007843 0.709804 0.003922
0.003922 0.717647 0.000000
0.062745 0.721569 0.000000
0.160784 0.725490 0.003922
0.298039 0.729412 0.003922
0.450980 0.733333 0.000000
0.588235 0.741176 0.000000
0.698039 0.733333 0.000000
0.792157 0.729412 0.007843
0.847059 0.733333 0.000000
0.890196 0.729412 0.000000
0.933333 0.713725 0.003922
0.960784 0.705882 0.007843
0.960784 0.698039 0.003922
0.964706 0.690196 0.007843
0.980392 0.690196 0.000000
0.000000 0.741176 0.000000
0.011765 0.737255 0.000000
0.003922 0.733333 0.000000
0.000000 0.741176 0.003922
0.000000 0.741176 0.003922
0.011765 0.741176 0.007843
0.003922 0.733333 0.000000
0.003922 0.745098 0.007843
0.003922 0.745098 0.000000
0.000000 0.749020 0.000000
0.003922 0.752941 0.000000
0.027451 0.752941 0.007843
0.090196 0.760784 0.003922
0.215686 0.764706 0.000000
0.360784 0.768627 0.000000
0.509804 0.768627 0.007843
0.631373 0.772549 0.011765
0.733333 0.776471 0.000000
0.819608 0.772549 0.003922
0.878431 0.768627 0.003922
0.917647 0.760784 0.003922
0.949020 0.752941 0.000000
0.960784 0.749020 0.000000
0.960784 0.745098 0.003922
0.964706 0.737255 0.000000
0.003922 0.780392 0.000000
0.003922 0.772549 0.003922
0.003922 0.780392 0.007843
0.000000 0.784314 0.000000
0.000000 0.776471 0.000000
0.000000 0.776471 0.000000
0.003922 0.780392 0.000000
0.003922 0.780392 0.000000
0.000000 0.784314 0.000000
0.000000 0.788235 0.011765
0.000000 0.788235 0.003922
0.015686 0.788235 0.000000
0.070588 0.788235 0.000000
0.137255 0.792157 0.000000
0.286275 0.803922 0.000000
0.419608 0.800000 0.000000
0.572549 0.803922 0.003922
0.682353 0.807843 0.003922
0.772549 0.800000 0.000000
0.847059 0.796078 0.000000
0.905882 0.800000 0.003922
0.933333 0.807843 0.003922
0.956863 0.796078 0.000000
0.956863 0.788235 0.000000
0.968627 0.792157 0.000000
0.003922 0.819608 0.003922
0.003922 0.811765 0.000000
0.000000 0.811765 0.000000
0.003922 0.819608 0.011765
0.000000 0.807843 0.003922
0.003922 0.811765 0.007843
0.003922 0.819608 0.003922
0.000000 0.815686 0.000000
0.003922 0.819608 0.000000
0.003922 0.819608 0.003922
0.000000 0.823529 0.003922
0.000000 0.823529 0.003922
0.023529 0.815686 0.000000
0.082353 0.827451 0.000000
0.196078 0.835294 0.007843
0.360784 0.831373 0.003922
0.513725 0.827451 0.007843
0.635294 0.823529 0.000000
0.729412 0.831373 0.000000
0.803922 0.839216 0.000000
0.870588 0.831373 0.000000
0.925490 0.831373 0.007843
0.952941 0.831373 0.000000
0.949020 0.831373 0.000000
0.964706 0.831373 0.000000
0.000000 0.850980 0.000000
0.003922 0.847059 0.000000
0.000000 0.850980 0.000000
0.000000 0.850980 0.000000
0.000000 0.850980 0.000000
0.000000 0.850980 0.000000
0.000000 0.850980 0.000000
0.007843 0.850980 0.000000
0.007843 0.850980 0.000000
0.000000 0.850980 0.000000
0.000000 0.850980 0.000000
0.000000 0.854902 0.000000
0.007843 0.850980 0.000000
0.050980 0.854902 0.003922
0.145098 0.854902 0.000000
0.286275 0.858824 0.000000
0.443137 0.854902 0.003922
0.576471 0.858824 0.000000
0.690196 0.866667 0.000000
0.780392 0.858824 0.000000
0.850980 0.854902 0.000000
0.901961 0.862745 0.003922
0.937255 0.858824 0.000000
0.956863 0.862745 0.000000
0.964706 0.862745 0.000000
0.000000 0.878431 0.000000
0.000000 0.882353 0.000000
0.000000 0.886275 0.000000
0.000000 0.882353 0.000000
0.007843 0.878431 0.003922
0.000000 0.882353 0.003922
0.000000 0.882353 0.003922
0.007843 0.878431 0.000000
0.000000 0.878431 0.000000
0.007843 0.870588 0.000000
0.000000 0.882353 0.003922
0.000000 0.886275 0.000000
0.000000 0.886275 0.000000
0.027451 0.886275 0.000000
0.101961 0.882353 0.000000
0.215686 0.882353 0.007843
0.384314 0.890196 0.000000
0.525490 0.890196 0.000000
0.650980 0.890196 0.000000
0.745098 0.890196 0.000000
0.819608 0.886275 0.000000
0.870588 0.890196 0.000000
0.921569 0.894118 0.000000
0.949020 0.890196 0.000000
0.960784 0.894118 0.000000
0.000000 0.898039 0.007843
0.003922 0.909804 0.007843
0.000000 0.905882 0.000000
0.000000 0.913725 0.015686
0.000000 0.909804 0.003922
0.000000 0.909804 0.003922
0.007843 0.909804 0.003922
0.000000 0.909804 0.000000
0.000000 0.909804 0.000000
0.000000 0.909804 0.000000
0.000000 0.913725 0.003922
0.003922 0.913725 0.003922
0.000000 0.909804 0.000000
0.011765 0.913725 0.000000
0.062745 0.913725 0.015686
0.180392 0.917647 0.000000
0.333333 0.913725 0.003922
0.490196 0.913725 0.000000
0.619608 0.905882 0.000000
0.713725 0.905882 0.000000
0.796078 0.909804 0.000000
0.866667 0.913725 0.003922
0.901961 0.909804 0.000000
0.941176 0.909804 0.003922
0.949020 0.921569 0.000000
0.000000 0.937255 0.000000
0.000000 0.937255 0.000000
0.003922 0.941176 0.000000
0.000000 0.937255 0.000000
0.000000 0.933333 0.007843
0.007843 0.937255 0.003922
0.003922 0.941176 0.003922
0.003922 0.941176 0.003922
0.000000 0.937255 0.000000
0.003922 0.941176 0.000000
0.007843 0.937255 0.003922
0.000000 0.937255 0.000000
0.000000 0.937255 0.000000
0.000000 0.945098 0.000000
0.035294 0.929412 0.000000
0.145098 0.933333 0.000000
0.298039 0.933333 0.000000
0.454902 0.925490 0.000000
0.588235 0.929412 0.000000
0.686275 0.933333 0.000000
0.776471 0.933333 0.003922
0.835294 0.929412 0.003922
0.894118 0.929412 0.000000
0.925490 0.925490 0.007843
0.960784 0.933333 0.007843
0.000000 0.952941 0.000000
0.003922 0.960784 0.000000
0.000000 0.956863 0.000000
0.000000 0.956863 0.000000
0.000000 0.956863 0.000000
0.003922 0.956863 0.007843
0.003922 0.960784 0.000000
0.000000 0.956863 0.000000
0.000000 0.956863 0.000000
0.000000 0.956863 0.000000
0.000000 0.956863 0.000000
0.000000 0.956863 0.000000
0.000000 0.952941 0.000000
0.011765 0.949020 0.003922
0.043137 0.952941 0.000000
0.129412 0.952941 0.000000
0.278431 0.952941 0.000000
0.439216 0.945098 0.000000
0.564706 0.949020 0.000000
0.678431 0.952941 0.000000
0.752941 0.945098 0.003922
0.831373 0.949020 0.000000
0.878431 0.949020 0.000000
0.909804 0.945098 0.000000
0.949020 0.945098 0.003922
0.003922 0.964706 0.003922
0.007843 0.964706 0.003922
0.000000 0.968627 0.003922
0.003922 0.964706 0.003922
0.003922 0.968627 0.000000
0.003922 0.968627 0.000000
0.003922 0.968627 0.000000
0.000000 0.968627 0.003922
0.000000 0.964706 0.000000
0.000000 0.968627 0.000000
0.003922 0.968627 0.000000
0.003922 0.968627 0.000000
0.007843 0.972549 0.003922
0.000000 0.964706 0.000000
0.039216 0.964706 0.000000
0.133333 0.964706 0.011765
0.282353 0.964706 0.011765
0.431373 0.956863 0.003922
0.576471 0.960784 0.007843
0.678431 0.956863 0.015686
0.749020 0.964706 0.000000
0.819608 0.956863 0.000000
0.878431 0.952941 0.003922
0.917647 0.949020 0.000000
0.945098 0.949020 0.000000
0.003922 0.000000 0.000000
0.003922 0.000000 0.000000
0.015686 0.000000 0.000000
0.043137 0.003922 0.000000
0.094118 0.000000 0.000000
0.152941 0.000000 0.003922
0.215686 0.003922 0.003922
0.270588 0.003922 0.007843
0.345098 0.000000 0.003922
0.423529 0.000000 0.015686
0.486275 0.000000 0.007843
0.556863 0.000000 0.000000
0.615686 0.000000 0.000000
0.678431 0.000000 0.000000
0.725490 0.000000 0.000000
0.784314 0.000000 0.000000
0.831373 0.000000 0.000000
0.874510 0.000000 0.000000
0.901961 0.003922 0.000000
0.937255 0.003922 0.003922
0.972549 0.000000 0.003922
0.972549 0.000000 0.000000
0.976471 0.000000 0.000000
0.976471 0.003922 0.003922
0.976471 0.003922 0.000000
0.003922 0.003922 0.000000
0.000000 0.003922 0.000000
0.019608 0.003922 0.000000
0.039216 0.000000 0.000000
0.094118 0.000000 0.000000
0.145098 0.003922 0.003922
0.203922 0.003922 0.000000
0.274510 0.000000 0.000000
0.349020 0.000000 0.003922
0.423529 0.000000 0.007843
0.486275 0.000000 0.000000
0.556863 0.000000 0.000000
0.619608 0.000000 0.000000
0.682353 0.000000 0.003922
0.729412 0.000000 0.011765
0.784314 0.000000 0.000000
0.839216 0.000000 0.000000
0.874510 0.003922 0.000000
0.913725 0.003922 0.003922
0.941176 0.000000 0.003922
0.960784 0.000000 0.000000
0.976471 0.000000 0.000000
0.972549 0.000000 0.000000
0.976471 0.000000 0.003922
0.976471 0.000000 0.000000
0.003922 0.023529 0.000000
0.000000 0.019608 0.003922
0.007843 0.019608 0.000000
0.047059 0.015686 0.003922
0.094118 0.019608 0.003922
0.149020 0.019608 0.000000
0.211765 0.011765 0.000000
0.282353 0.007843 0.007843
0.356863 0.003922 0.000000
0.419608 0.003922 0.003922
0.486275 0.000000 0.000000
0.560784 0.003922 0.000000
0.623529 0.003922 0.007843
0.678431 0.000000 0.007843
0.733333 0.000000 0.007843
0.784314 0.000000 0.007843
0.831373 0.000000 0.000000
0.870588 0.000000 0.000000
0.913725 0.003922 0.003922
0.945098 0.003922 0.000000
0.964706 0.003922 0.000000
0.976471 0.000000 0.000000
0.976471 0.000000 0.000000
0.980392 0.000000 0.003922
0.968627 0.000000 0.000000
0.003922 0.058824 0.000000
0.003922 0.043137 0.000000
0.015686 0.054902 0.011765
0.035294 0.050980 0.000000
0.098039 0.050980 0.000000
0.145098 0.054902 0.000000
0.207843 0.039216 0.003922
0.282353 0.031373 0.000000
0.356863 0.023529 0.003922
0.423529 0.011765 0.000000
0.490196 0.003922 0.003922
0.560784 0.003922 0.000000
0.619608 0.000000 0.003922
0.678431 0.003922 0.003922
0.725490 0.000000 0.000000
0.780392 0.000000 0.000000
0.823529 0.000000 0.003922
0.870588 0.000000 0.000000
0.909804 0.000000 0.000000
0.941176 0.000000 0.003922
0.960784 0.000000 0.000000
0.964706 0.003922 0.000000
0.980392 0.000000 0.003922
0.988235 0.000000 0.007843
0.980392 0.000000 0.003922
0.003922 0.098039 0.003922
0.000000 0.094118 0.000000
0.007843 0.098039 0.000000
0.023529 0.094118 0.000000
0.066667 0.098039 0.007843
0.125490 0.094118 0.003922
0.207843 0.090196 0.000000
0.286275 0.090196 0.000000
0.356863 0.070588 0.000000
0.435294 0.058824 0.003922
0.501961 0.039216 0.000000
0.552941 0.027451 0.000000
0.627451 0.023529 0.000000
0.682353 0.007843 0.000000
0.737255 0.000000 0.003922
0.772549 0.003922 0.007843
0.819608 0.003922 0.000000
0.874510 0.003922 0.000000
0.913725 0.003922 0.000000
0.937255 0.003922 0.003922
0.952941 0.003922 0.000000
0.972549 0.000000 0.000000
0.976471 0.000000 0.000000
0.972549 0.000000 0.000000
0.980392 0.000000 0.003922
0.000000 0.156863 0.000000
0.003922 0.152941 0.000000
0.007843 0.156863 0.003922
0.019608 0.156863 0.000000
0.047059 0.149020 0.000000
0.101961 0.149020 0.000000
0.180392 0.152941 0.000000
0.262745 0.152941 0.000000
0.352941 0.141176 0.000000
0.431373 0.121569 0.000000
0.490196 0.105882 0.000000
0.556863 0.090196 0.000000
0.619608 0.074510 0.000000
0.686275 0.050980 0.000000
0.733333 0.039216 0.000000
0.784314 0.035294 0.003922
0.819608 0.023529 0.000000
0.870588 0.015686 0.007843
0.905882 0.011765 0.007843
0.941176 0.007843 0.007843
0.960784 0.003922 0.003922
0.968627 0.007843 0.003922
0.980392 0.003922 0.000000
0.976471 0.003922 0.003922
0.980392 0.007843 0.011765
0.000000 0.215686 0.000000
0.000000 0.211765 0.000000
0.003922 0.211765 0.000000
0.011765 0.219608 0.000000
0.031373 0.203922 0.011765
0.066667 0.215686 0.000000
0.149020 0.223529 0.007843
0.243137 0.215686 0.000000
0.333333 0.211765 0.000000
0.427451 0.203922 0.000000
0.494118 0.188235 0.000000
0.564706 0.168627 0.003922
0.619608 0.149020 0.003922
0.674510 0.133333 0.000000
0.725490 0.121569 0.000000
0.784314 0.101961 0.000000
0.831373 0.086275 0.000000
0.874510 0.070588 0.003922
0.909804 0.054902 0.007843
0.941176 0.047059 0.003922
0.952941 0.043137 0.000000
0.968627 0.035294 0.000000
0.980392 0.035294 0.000000
0.976471 0.031373 0.000000
0.968627 0.043137 0.000000
0.000000 0.270588 0.000000
0.000000 0.274510 0.000000
0.000000 0.270588 0.000000
0.011765 0.274510 0.000000
0.003922 0.278431 0.000000
0.027451 0.286275 0.000000
0.098039 0.282353 0.000000
0.184314 0.286275 0.000000
0.294118 0.286275 0.000000
0.400000 0.282353 0.000000
0.494118 0.270588 0.000000
0.560784 0.254902 0.000000
0.627451 0.235294 0.000000
0.682353 0.227451 0.003922
0.733333 0.200000 0.003922
0.776471 0.184314 0.000000
0.819608 0.164706 0.000000
0.866667 0.145098 0.000000
0.909804 0.129412 0.000000
0.933333 0.121569 0.000000
0.952941 0.113725 0.003922
0.968627 0.105882 0.003922
0.976471 0.090196 0.003922
0.972549 0.094118 0.000000
0.980392 0.094118 0.007843
0.000000 0.329412 0.000000
0.000000 0.333333 0.000000
0.003922 0.333333 0.000000
0.000000 0.333333 0.007843
0.000000 0.337255 0.000000
0.011765 0.341176 0.000000
0.054902 0.345098 0.003922
0.125490 0.356863 0.003922
0.227451 0.356863 0.007843
0.352941 0.352941 0.000000
0.466667 0.349020 0.000000
0.556863 0.337255 0.000000
0.623529 0.333333 0.000000
0.686275 0.305882 0.000000
0.733333 0.294118 0.003922
0.784314 0.270588 0.000000
0.823529 0.254902 0.000000
0.866667 0.239216 0.000000
0.905882 0.227451 0.000000
0.929412 0.219608 0.000000
0.952941 0.207843 0.003922
0.968627 0.200000 0.003922
0.964706 0.188235 0.000000
0.976471 0.192157 0.000000
0.980392 0.188235 0.007843
0.000000 0.400000 0.000000
0.000000 0.392157 0.000000
0.000000 0.396078 0.000000
0.000000 0.392157 0.000000
0.000000 0.403922 0.000000
0.000000 0.403922 0.000000
0.011765 0.407843 0.000000
0.066667 0.411765 0.003922
0.156863 0.419608 0.003922
0.278431 0.427451 0.000000
0.407843 0.423529 0.000000
0.525490 0.419608 0.000000
0.615686 0.407843 0.000000
0.666667 0.396078 0.000000
0.729412 0.376471 0.000000
0.780392 0.356863 0.000000
0.827451 0.341176 0.003922
0.862745 0.329412 0.000000
0.901961 0.309804 0.000000
0.937255 0.305882 0.000000
0.960784 0.294118 0.000000
0.968627 0.286275 0.000000
0.964706 0.282353 0.000000
0.964706 0.282353 0.000000
0.980392 0.282353 0.000000
0.000000 0.447059 0.003922
0.000000 0.447059 0.003922
0.000000 0.447059 0.000000
0.003922 0.454902 0.000000
0.007843 0.458824 0.000000
0.000000 0.466667 0.003922
0.003922 0.466667 0.000000
0.023529 0.470588 0.000000
0.086275 0.478431 0.000000
