build/Debug-iphonesimulator/JustShoot.app/KodakPortra400.cube
#Generated with IWLTBAP LUT Generator
#Website: http://luts.iwltbap.com
TITLE "Æ«»Æ"
#LUT size
LUT_3D_SIZE 25
#LUT data points
0.000000 0.019608 0.031373
0.019608 0.015686 0.039216
0.047059 0.023529 0.039216
0.098039 0.027451 0.027451
0.184314 0.047059 0.023529
0.278431 0.074510 0.023529
0.356863 0.101961 0.031373
0.423529 0.125490 0.035294
0.494118 0.141176 0.035294
0.552941 0.160784 0.027451
0.611765 0.184314 0.031373
0.654902 0.200000 0.039216
0.686275 0.223529 0.035294
0.721569 0.247059 0.031373
0.752941 0.266667 0.023529
0.788235 0.282353 0.015686
0.815686 0.301961 0.019608
0.839216 0.317647 0.015686
0.866667 0.329412 0.015686
0.890196 0.345098 0.027451
0.905882 0.360784 0.043137
0.921569 0.372549 0.062745
0.937255 0.388235 0.078431
0.945098 0.407843 0.101961
0.968627 0.423529 0.105882
0.003922 0.011765 0.058824
0.003922 0.031373 0.054902
0.039216 0.039216 0.031373
0.090196 0.054902 0.035294
0.172549 0.066667 0.023529
0.274510 0.094118 0.035294
0.360784 0.117647 0.035294
0.427451 0.137255 0.031373
0.482353 0.156863 0.031373
0.552941 0.172549 0.035294
0.611765 0.196078 0.039216
0.650980 0.211765 0.031373
0.686275 0.231373 0.031373
0.713725 0.258824 0.027451
0.752941 0.274510 0.019608
0.792157 0.294118 0.031373
0.819608 0.301961 0.019608
0.839216 0.317647 0.015686
0.870588 0.337255 0.031373
0.894118 0.356863 0.043137
0.909804 0.372549 0.058824
0.913725 0.384314 0.066667
0.925490 0.396078 0.078431
0.933333 0.415686 0.094118
0.956863 0.427451 0.109804
0.000000 0.043137 0.058824
0.000000 0.050980 0.062745
0.023529 0.058824 0.039216
0.066667 0.070588 0.050980
0.164706 0.098039 0.035294
0.258824 0.113725 0.043137
0.356863 0.133333 0.027451
0.427451 0.156863 0.027451
0.490196 0.176471 0.039216
0.552941 0.192157 0.047059
0.611765 0.215686 0.050980
0.654902 0.231373 0.039216
0.690196 0.254902 0.035294
0.729412 0.266667 0.027451
0.752941 0.286275 0.019608
0.788235 0.301961 0.027451
0.815686 0.313725 0.019608
0.843137 0.329412 0.023529
0.866667 0.345098 0.035294
0.882353 0.364706 0.043137
0.909804 0.380392 0.062745
0.917647 0.388235 0.070588
0.921569 0.403922 0.082353
0.941176 0.419608 0.109804
0.956863 0.439216 0.117647
0.003922 0.074510 0.082353
0.000000 0.074510 0.066667
0.015686 0.078431 0.066667
0.027451 0.094118 0.062745
0.125490 0.121569 0.043137
0.239216 0.145098 0.043137
0.345098 0.168627 0.047059
0.435294 0.192157 0.039216
0.501961 0.200000 0.035294
0.564706 0.215686 0.043137
0.615686 0.239216 0.050980
0.662745 0.247059 0.043137
0.698039 0.270588 0.039216
0.733333 0.290196 0.023529
0.756863 0.309804 0.031373
0.792157 0.321569 0.023529
0.815686 0.333333 0.027451
0.843137 0.345098 0.035294
0.870588 0.356863 0.043137
0.886275 0.372549 0.050980
0.905882 0.388235 0.066667
0.917647 0.403922 0.090196
0.929412 0.419608 0.113725
0.941176 0.435294 0.109804
0.956863 0.447059 0.117647
0.000000 0.105882 0.090196
0.011765 0.117647 0.098039
0.011765 0.117647 0.082353
0.019608 0.117647 0.094118
0.082353 0.141176 0.066667
0.184314 0.168627 0.070588
0.298039 0.196078 0.058824
0.403922 0.219608 0.039216
0.490196 0.243137 0.043137
0.556863 0.258824 0.054902
0.607843 0.274510 0.050980
0.654902 0.286275 0.047059
0.694118 0.305882 0.039216
0.729412 0.321569 0.043137
0.760784 0.329412 0.035294
0.792157 0.341176 0.027451
0.823529 0.349020 0.031373
0.858824 0.368627 0.039216
0.870588 0.380392 0.050980
0.898039 0.392157 0.074510
0.909804 0.403922 0.078431
0.913725 0.419608 0.090196
0.925490 0.435294 0.105882
0.945098 0.450980 0.121569
0.956863 0.462745 0.133333
0.007843 0.145098 0.121569
0.003922 0.149020 0.121569
0.011765 0.156863 0.125490
0.027451 0.152941 0.109804
0.062745 0.168627 0.109804
0.121569 0.192157 0.090196
0.239216 0.231373 0.082353
0.364706 0.258824 0.090196
0.470588 0.286275 0.082353
0.537255 0.305882 0.070588
0.600000 0.325490 0.054902
0.647059 0.333333 0.047059
0.701961 0.349020 0.043137
0.737255 0.356863 0.047059
0.764706 0.360784 0.050980
0.796078 0.368627 0.047059
0.823529 0.384314 0.054902
0.847059 0.392157 0.058824
0.866667 0.403922 0.062745
0.886275 0.415686 0.078431
0.901961 0.431373 0.094118
0.917647 0.439216 0.101961
0.929412 0.450980 0.113725
0.941176 0.470588 0.129412
0.956863 0.482353 0.156863
0.003922 0.200000 0.152941
0.000000 0.200000 0.133333
0.015686 0.196078 0.145098
0.031373 0.188235 0.156863
0.050980 0.203922 0.133333
0.101961 0.219608 0.125490
0.184314 0.250980 0.125490
0.313725 0.286275 0.113725
0.419608 0.321569 0.101961
0.521569 0.345098 0.082353
0.596078 0.368627 0.078431
0.647059 0.384314 0.066667
0.690196 0.388235 0.066667
0.737255 0.400000 0.074510
0.772549 0.400000 0.070588
0.788235 0.415686 0.062745
0.827451 0.419608 0.070588
0.847059 0.423529 0.078431
0.870588 0.431373 0.094118
0.890196 0.443137 0.098039
0.909804 0.458824 0.109804
0.917647 0.470588 0.121569
0.929412 0.482353 0.137255
0.941176 0.494118 0.156863
0.964706 0.509804 0.176471
0.015686 0.247059 0.176471
0.027451 0.250980 0.184314
0.031373 0.247059 0.164706
0.039216 0.250980 0.160784
0.066667 0.239216 0.149020
0.105882 0.247059 0.145098
0.160784 0.274510 0.152941
0.258824 0.305882 0.149020
0.372549 0.345098 0.133333
0.494118 0.388235 0.125490
0.576471 0.407843 0.098039
0.647059 0.427451 0.086275
0.694118 0.439216 0.086275
0.737255 0.450980 0.090196
0.768627 0.458824 0.094118
0.803922 0.462745 0.098039
0.827451 0.462745 0.090196
0.854902 0.466667 0.098039
0.878431 0.474510 0.101961
0.894118 0.486275 0.113725
0.905882 0.494118 0.133333
0.929412 0.505882 0.160784
0.933333 0.509804 0.164706
0.941176 0.525490 0.196078
0.956863 0.541176 0.203922
0.035294 0.294118 0.184314
0.047059 0.305882 0.200000
0.047059 0.309804 0.188235
0.070588 0.290196 0.184314
0.074510 0.290196 0.164706
0.113725 0.282353 0.172549
0.164706 0.301961 0.172549
0.231373 0.329412 0.176471
0.325490 0.356863 0.172549
0.443137 0.396078 0.160784
0.549020 0.431373 0.149020
0.619608 0.462745 0.129412
0.686275 0.486275 0.125490
0.733333 0.498039 0.113725
0.764706 0.509804 0.117647
0.803922 0.509804 0.113725
0.839216 0.509804 0.121569
0.854902 0.509804 0.117647
0.878431 0.517647 0.129412
0.890196 0.521569 0.137255
0.913725 0.533333 0.160784
0.921569 0.541176 0.160784
0.925490 0.541176 0.184314
0.949020 0.549020 0.215686
0.960784 0.560784 0.239216
0.058824 0.356863 0.203922
0.066667 0.360784 0.207843
0.078431 0.352941 0.207843
0.086275 0.349020 0.211765
0.094118 0.345098 0.207843
0.125490 0.337255 0.203922
0.164706 0.337255 0.196078
0.215686 0.352941 0.196078
0.294118 0.380392 0.200000
0.384314 0.411765 0.200000
0.490196 0.447059 0.188235
0.584314 0.474510 0.184314
0.658824 0.521569 0.160784
0.713725 0.541176 0.160784
0.760784 0.560784 0.149020
0.796078 0.568627 0.149020
0.827451 0.564706 0.156863
0.850980 0.564706 0.164706
0.866667 0.560784 0.168627
0.898039 0.568627 0.180392
0.909804 0.568627 0.188235
0.917647 0.576471 0.203922
0.925490 0.580392 0.227451
0.937255 0.592157 0.250980
0.952941 0.596078 0.278431
0.094118 0.415686 0.227451
0.101961 0.411765 0.235294
0.109804 0.419608 0.235294
0.113725 0.411765 0.231373
0.133333 0.403922 0.231373
0.141176 0.388235 0.219608
0.176471 0.376471 0.207843
0.231373 0.384314 0.211765
0.286275 0.400000 0.227451
0.360784 0.423529 0.231373
0.443137 0.454902 0.231373
0.529412 0.494118 0.231373
0.619608 0.529412 0.223529
0.690196 0.556863 0.203922
0.741176 0.584314 0.200000
0.792157 0.607843 0.200000
0.819608 0.607843 0.192157
0.843137 0.611765 0.203922
0.874510 0.607843 0.219608
0.894118 0.611765 0.227451
0.901961 0.611765 0.231373
0.913725 0.615686 0.239216
0.921569 0.619608 0.274510
0.925490 0.623529 0.301961
0.941176 0.635294 0.313725
0.117647 0.458824 0.243137
0.125490 0.462745 0.270588
0.121569 0.470588 0.258824
0.141176 0.466667 0.262745
0.149020 0.454902 0.258824
0.176471 0.443137 0.243137
0.188235 0.431373 0.247059
0.215686 0.419608 0.227451
0.282353 0.431373 0.239216
0.341176 0.447059 0.247059
0.411765 0.478431 0.262745
0.494118 0.509804 0.270588
0.576471 0.537255 0.266667
0.647059 0.576471 0.254902
0.705882 0.607843 0.243137
0.760784 0.627451 0.243137
0.803922 0.639216 0.247059
0.831373 0.647059 0.239216
0.858824 0.650980 0.250980
0.890196 0.647059 0.258824
0.905882 0.647059 0.278431
0.909804 0.647059 0.298039
0.921569 0.647059 0.313725
0.933333 0.654902 0.341176
0.941176 0.658824 0.360784
0.137255 0.513725 0.274510
0.149020 0.501961 0.301961
0.156863 0.505882 0.278431
0.168627 0.509804 0.294118
0.172549 0.498039 0.278431
0.184314 0.501961 0.274510
0.196078 0.482353 0.262745
0.223529 0.470588 0.262745
0.270588 0.466667 0.266667
0.321569 0.474510 0.266667
0.400000 0.498039 0.270588
0.466667 0.521569 0.282353
0.541176 0.549020 0.301961
0.600000 0.572549 0.298039
0.666667 0.607843 0.290196
0.721569 0.639216 0.290196
0.776471 0.666667 0.286275
0.811765 0.674510 0.282353
0.843137 0.678431 0.294118
0.874510 0.682353 0.309804
0.894118 0.678431 0.325490
0.905882 0.682353 0.341176
0.913725 0.686275 0.364706
0.929412 0.686275 0.400000
0.941176 0.690196 0.407843
0.160784 0.552941 0.317647
0.168627 0.552941 0.313725
0.164706 0.549020 0.317647
0.184314 0.552941 0.309804
0.200000 0.545098 0.317647
0.203922 0.541176 0.301961
0.223529 0.537255 0.298039
0.250980 0.517647 0.294118
0.274510 0.498039 0.282353
0.329412 0.498039 0.286275
0.392157 0.513725 0.290196
0.450980 0.533333 0.301961
0.517647 0.549020 0.313725
0.576471 0.584314 0.329412
0.623529 0.607843 0.329412
0.694118 0.631373 0.325490
0.752941 0.666667 0.333333
0.792157 0.686275 0.329412
0.831373 0.701961 0.337255
0.862745 0.709804 0.352941
0.886275 0.713725 0.364706
0.898039 0.717647 0.384314
0.909804 0.717647 0.415686
0.921569 0.713725 0.454902
0.929412 0.717647 0.466667
0.188235 0.580392 0.345098
0.188235 0.588235 0.333333
0.192157 0.584314 0.333333
0.211765 0.588235 0.341176
0.211765 0.584314 0.333333
0.227451 0.572549 0.333333
0.247059 0.568627 0.317647
0.270588 0.560784 0.313725
0.305882 0.541176 0.305882
0.337255 0.525490 0.298039
0.380392 0.529412 0.298039
0.439216 0.549020 0.321569
0.509804 0.568627 0.337255
0.560784 0.596078 0.349020
0.611765 0.615686 0.356863
0.654902 0.639216 0.360784
0.709804 0.666667 0.356863
0.760784 0.698039 0.364706
0.807843 0.713725 0.368627
0.854902 0.721569 0.380392
0.874510 0.733333 0.403922
0.890196 0.737255 0.435294
0.905882 0.741176 0.458824
0.917647 0.737255 0.501961
0.917647 0.741176 0.509804
0.200000 0.627451 0.360784
0.211765 0.631373 0.364706
0.219608 0.631373 0.368627
0.227451 0.623529 0.356863
0.243137 0.615686 0.356863
0.254902 0.607843 0.356863
0.262745 0.600000 0.345098
0.286275 0.596078 0.337255
0.309804 0.588235 0.329412
0.337255 0.568627 0.317647
0.376471 0.556863 0.313725
0.419608 0.549020 0.325490
0.494118 0.576471 0.345098
0.556863 0.600000 0.364706
0.584314 0.619608 0.372549
0.635294 0.643137 0.396078
0.682353 0.670588 0.407843
0.725490 0.694118 0.407843
0.780392 0.721569 0.403922
0.823529 0.737255 0.411765
0.854902 0.741176 0.427451
0.882353 0.749020 0.458824
0.901961 0.756863 0.490196
0.913725 0.764706 0.521569
0.925490 0.764706 0.584314
0.239216 0.654902 0.396078
0.235294 0.662745 0.407843
0.254902 0.654902 0.400000
0.262745 0.658824 0.400000
0.278431 0.650980 0.392157
0.286275 0.647059 0.384314
0.294118 0.647059 0.372549
0.305882 0.639216 0.372549
0.317647 0.619608 0.345098
0.352941 0.607843 0.349020
0.384314 0.588235 0.337255
0.423529 0.576471 0.329412
0.474510 0.584314 0.345098
0.525490 0.603922 0.364706
0.580392 0.623529 0.388235
0.615686 0.647059 0.411765
0.662745 0.666667 0.431373
0.694118 0.690196 0.435294
0.741176 0.713725 0.439216
0.788235 0.733333 0.447059
0.831373 0.756863 0.458824
0.862745 0.768627 0.478431
0.890196 0.776471 0.509804
0.894118 0.780392 0.545098
0.909804 0.788235 0.603922
0.282353 0.694118 0.431373
0.278431 0.686275 0.439216
0.290196 0.690196 0.435294
0.305882 0.694118 0.431373
0.321569 0.682353 0.435294
0.337255 0.674510 0.427451
0.341176 0.674510 0.407843
0.352941 0.666667 0.396078
0.352941 0.647059 0.376471
0.372549 0.647059 0.364706
0.392157 0.627451 0.345098
0.431373 0.615686 0.349020
0.470588 0.607843 0.356863
0.525490 0.611765 0.360784
0.564706 0.635294 0.392157
0.600000 0.654902 0.411765
0.647059 0.678431 0.443137
0.682353 0.698039 0.458824
0.717647 0.713725 0.462745
0.768627 0.741176 0.474510
0.811765 0.764706 0.482353
0.839216 0.784314 0.498039
0.870588 0.788235 0.533333
0.901961 0.796078 0.580392
0.901961 0.807843 0.619608
0.325490 0.717647 0.474510
0.333333 0.717647 0.478431
0.349020 0.717647 0.474510
0.360784 0.705882 0.466667
0.376471 0.709804 0.478431
0.388235 0.709804 0.458824
0.384314 0.694118 0.439216
0.388235 0.686275 0.431373
0.396078 0.682353 0.411765
0.407843 0.674510 0.380392
0.419608 0.654902 0.364706
0.443137 0.639216 0.360784
0.474510 0.627451 0.364706
0.517647 0.631373 0.380392
0.552941 0.650980 0.396078
0.603922 0.666667 0.419608
0.647059 0.694118 0.450980
0.670588 0.701961 0.466667
0.705882 0.721569 0.482353
0.745098 0.745098 0.501961
0.780392 0.764706 0.525490
0.827451 0.784314 0.541176
0.854902 0.792157 0.560784
0.878431 0.811765 0.607843
0.905882 0.823529 0.654902
0.403922 0.749020 0.521569
0.400000 0.741176 0.533333
0.392157 0.741176 0.529412
0.407843 0.733333 0.513725
0.419608 0.737255 0.517647
0.431373 0.733333 0.521569
0.435294 0.729412 0.505882
0.435294 0.725490 0.478431
0.443137 0.713725 0.450980
0.450980 0.709804 0.431373
0.454902 0.694118 0.419608
0.466667 0.686275 0.407843
0.482353 0.662745 0.380392
0.517647 0.654902 0.388235
0.556863 0.658824 0.403922
0.596078 0.674510 0.427451
0.639216 0.694118 0.454902
0.666667 0.721569 0.482353
0.698039 0.741176 0.505882
0.729412 0.760784 0.537255
0.764706 0.768627 0.545098
0.792157 0.784314 0.560784
0.839216 0.800000 0.600000
0.866667 0.819608 0.615686
0.890196 0.835294 0.658824
0.466667 0.764706 0.572549
0.466667 0.764706 0.572549
0.458824 0.764706 0.568627
0.458824 0.764706 0.568627
0.470588 0.760784 0.568627
0.478431 0.760784 0.564706
0.474510 0.760784 0.545098
0.482353 0.756863 0.521569
0.478431 0.745098 0.505882
0.494118 0.737255 0.482353
0.498039 0.729412 0.470588
0.494118 0.717647 0.450980
0.513725 0.709804 0.431373
0.537255 0.698039 0.423529
0.560784 0.686275 0.423529
0.600000 0.698039 0.439216
0.635294 0.717647 0.486275
0.666667 0.737255 0.501961
0.701961 0.752941 0.533333
0.737255 0.772549 0.564706
0.764706 0.780392 0.580392
0.796078 0.796078 0.600000
0.823529 0.807843 0.619608
0.850980 0.823529 0.643137
0.882353 0.835294 0.678431
0.521569 0.800000 0.635294
0.513725 0.796078 0.615686
0.525490 0.788235 0.627451
0.525490 0.788235 0.615686
0.525490 0.788235 0.615686
0.537255 0.776471 0.611765
0.533333 0.780392 0.611765
0.529412 0.776471 0.592157
0.533333 0.768627 0.568627
0.541176 0.772549 0.560784
0.537255 0.764706 0.537255
0.541176 0.752941 0.509804
0.552941 0.752941 0.494118
0.560784 0.737255 0.482353
0.588235 0.729412 0.478431
0.611765 0.725490 0.466667
0.647059 0.741176 0.498039
0.678431 0.760784 0.537255
0.701961 0.776471 0.560784
0.733333 0.788235 0.580392
0.768627 0.807843 0.611765
0.788235 0.819608 0.635294
0.803922 0.823529 0.662745
0.839216 0.831373 0.682353
0.870588 0.854902 0.709804
0.576471 0.819608 0.674510
0.580392 0.823529 0.662745
0.580392 0.815686 0.674510
0.564706 0.815686 0.670588
0.580392 0.803922 0.666667
0.592157 0.819608 0.670588
0.576471 0.819608 0.674510
0.588235 0.811765 0.650980
0.588235 0.811765 0.635294
0.576471 0.800000 0.623529
0.580392 0.800000 0.607843
0.580392 0.792157 0.588235
0.592157 0.788235 0.580392
0.611765 0.788235 0.564706
0.635294 0.772549 0.552941
0.650980 0.772549 0.549020
0.670588 0.776471 0.560784
0.698039 0.792157 0.588235
0.721569 0.807843 0.615686
0.756863 0.823529 0.647059
0.784314 0.831373 0.674510
0.803922 0.843137 0.698039
0.823529 0.850980 0.717647
0.835294 0.862745 0.729412
0.862745 0.862745 0.752941
0.639216 0.850980 0.725490
0.639216 0.847059 0.737255
0.627451 0.843137 0.717647
0.639216 0.847059 0.729412
0.631373 0.843137 0.717647
0.631373 0.847059 0.733333
0.643137 0.835294 0.717647
0.643137 0.835294 0.717647
0.639216 0.839216 0.717647
0.647059 0.843137 0.705882
0.647059 0.843137 0.698039
0.647059 0.835294 0.686275
0.650980 0.835294 0.670588
0.666667 0.827451 0.662745
0.682353 0.827451 0.654902
0.698039 0.827451 0.650980
0.721569 0.835294 0.662745
0.741176 0.839216 0.674510
0.764706 0.847059 0.694118
0.792157 0.858824 0.725490
0.807843 0.866667 0.745098
0.831373 0.866667 0.760784
0.847059 0.882353 0.776471
0.847059 0.882353 0.768627
0.862745 0.878431 0.780392
0.701961 0.878431 0.788235
0.694118 0.870588 0.780392
0.690196 0.870588 0.768627
0.701961 0.874510 0.776471
0.694118 0.866667 0.768627
0.701961 0.874510 0.784314
0.698039 0.874510 0.784314
0.698039 0.878431 0.776471
0.701961 0.874510 0.776471
0.713725 0.878431 0.784314
0.713725 0.882353 0.776471
0.717647 0.878431 0.760784
0.721569 0.878431 0.772549
0.733333 0.874510 0.764706
0.737255 0.874510 0.756863
0.749020 0.878431 0.756863
0.772549 0.874510 0.760784
0.784314 0.882353 0.764706
0.803922 0.882353 0.772549
0.831373 0.894118 0.792157
0.843137 0.894118 0.815686
0.850980 0.901961 0.831373
0.858824 0.905882 0.827451
0.874510 0.901961 0.839216
0.886275 0.901961 0.835294
0.007843 0.023529 0.058824
0.015686 0.015686 0.047059
0.035294 0.015686 0.039216
0.086275 0.023529 0.035294
0.172549 0.031373 0.031373
0.258824 0.058824 0.043137
0.349020 0.090196 0.043137
0.419608 0.117647 0.054902
0.494118 0.141176 0.039216
0.549020 0.160784 0.039216
0.603922 0.184314 0.050980
0.643137 0.203922 0.054902
0.686275 0.223529 0.043137
0.717647 0.239216 0.039216
0.756863 0.258824 0.043137
0.788235 0.278431 0.050980
0.819608 0.298039 0.043137
0.839216 0.309804 0.043137
0.862745 0.329412 0.039216
0.882353 0.349020 0.058824
0.898039 0.364706 0.074510
0.917647 0.376471 0.090196
0.933333 0.396078 0.090196
0.949020 0.411765 0.098039
0.968627 0.419608 0.109804
0.003922 0.019608 0.054902
0.003922 0.031373 0.062745
0.039216 0.035294 0.058824
0.078431 0.039216 0.043137
0.168627 0.062745 0.035294
0.254902 0.082353 0.039216
0.349020 0.109804 0.039216
0.423529 0.133333 0.035294
0.486275 0.145098 0.039216
0.552941 0.172549 0.047059
0.596078 0.188235 0.035294
0.650980 0.215686 0.047059
0.686275 0.227451 0.054902
0.725490 0.254902 0.058824
0.749020 0.278431 0.043137
0.788235 0.286275 0.039216
0.823529 0.301961 0.047059
0.843137 0.317647 0.039216
0.866667 0.329412 0.047059
0.886275 0.345098 0.058824
0.905882 0.364706 0.070588
0.921569 0.388235 0.090196
0.933333 0.400000 0.101961
0.945098 0.411765 0.113725
0.964706 0.427451 0.113725
0.000000 0.043137 0.066667
0.007843 0.050980 0.074510
0.015686 0.050980 0.070588
0.066667 0.066667 0.066667
0.164706 0.086275 0.058824
0.247059 0.109804 0.035294
0.352941 0.129412 0.050980
0.415686 0.152941 0.039216
0.486275 0.172549 0.043137
0.552941 0.188235 0.054902
0.603922 0.203922 0.047059
0.654902 0.231373 0.050980
0.686275 0.247059 0.050980
0.721569 0.262745 0.050980
0.749020 0.282353 0.054902
0.780392 0.294118 0.043137
0.819608 0.317647 0.039216
0.843137 0.333333 0.039216
0.866667 0.345098 0.050980
0.894118 0.360784 0.070588
0.909804 0.376471 0.078431
0.929412 0.388235 0.094118
0.929412 0.411765 0.090196
0.937255 0.415686 0.105882
0.956863 0.435294 0.133333
0.000000 0.074510 0.090196
0.000000 0.070588 0.070588
0.023529 0.086275 0.086275
0.027451 0.082353 0.082353
0.125490 0.117647 0.058824
0.243137 0.141176 0.050980
0.341176 0.160784 0.058824
0.419608 0.184314 0.050980
0.482353 0.192157 0.039216
0.545098 0.215686 0.043137
0.603922 0.231373 0.058824
0.654902 0.239216 0.050980
0.698039 0.262745 0.047059
0.729412 0.282353 0.039216
0.760784 0.298039 0.047059
0.788235 0.313725 0.043137
0.823529 0.325490 0.047059
0.850980 0.337255 0.054902
0.870588 0.352941 0.058824
0.890196 0.376471 0.070588
0.905882 0.392157 0.086275
0.913725 0.407843 0.090196
0.925490 0.415686 0.109804
0.941176 0.435294 0.117647
0.980392 0.447059 0.141176
0.000000 0.105882 0.098039
0.015686 0.113725 0.101961
0.015686 0.113725 0.101961
0.019608 0.117647 0.105882
0.086275 0.141176 0.082353
0.188235 0.160784 0.086275
0.305882 0.192157 0.074510
0.407843 0.219608 0.062745
0.486275 0.239216 0.066667
0.549020 0.258824 0.066667
0.607843 0.274510 0.058824
0.654902 0.278431 0.050980
0.694118 0.294118 0.043137
0.725490 0.313725 0.054902
0.756863 0.333333 0.050980
0.784314 0.337255 0.050980
0.819608 0.349020 0.050980
0.847059 0.364706 0.058824
0.874510 0.380392 0.078431
0.894118 0.384314 0.086275
0.909804 0.403922 0.086275
0.913725 0.415686 0.098039
0.925490 0.435294 0.121569
0.929412 0.450980 0.125490
0.949020 0.458824 0.145098
0.003922 0.149020 0.121569
0.000000 0.156863 0.125490
0.003922 0.160784 0.125490
0.027451 0.156863 0.121569
0.066667 0.160784 0.109804
0.133333 0.192157 0.101961
0.243137 0.227451 0.090196
0.364706 0.258824 0.090196
0.478431 0.282353 0.082353
0.545098 0.301961 0.078431
0.603922 0.313725 0.074510
0.650980 0.321569 0.070588
0.694118 0.337255 0.062745
0.733333 0.349020 0.062745
0.768627 0.364706 0.070588
0.800000 0.368627 0.066667
0.823529 0.380392 0.074510
0.847059 0.388235 0.078431
0.874510 0.400000 0.082353
0.894118 0.415686 0.090196
0.905882 0.427451 0.094118
0.921569 0.443137 0.109804
0.925490 0.450980 0.125490
0.937255 0.470588 0.149020
0.972549 0.478431 0.176471
0.000000 0.188235 0.141176
0.003922 0.200000 0.152941
0.011765 0.207843 0.160784
0.027451 0.200000 0.141176
0.062745 0.207843 0.137255
0.105882 0.219608 0.133333
0.180392 0.254902 0.129412
0.313725 0.286275 0.121569
0.423529 0.317647 0.109804
0.537255 0.349020 0.105882
0.600000 0.364706 0.090196
0.650980 0.380392 0.078431
0.694118 0.384314 0.074510
0.733333 0.392157 0.078431
0.768627 0.396078 0.074510
0.784314 0.411765 0.082353
0.823529 0.423529 0.094118
0.847059 0.431373 0.101961
0.870588 0.439216 0.098039
0.894118 0.447059 0.101961
0.909804 0.454902 0.113725
0.917647 0.470588 0.133333
0.929412 0.478431 0.160784
0.933333 0.501961 0.160784
0.964706 0.505882 0.196078
0.003922 0.254902 0.160784
0.019608 0.250980 0.172549
0.031373 0.258824 0.172549
0.039216 0.250980 0.156863
0.066667 0.243137 0.152941
0.113725 0.250980 0.156863
0.172549 0.278431 0.156863
0.258824 0.305882 0.149020
0.376471 0.349020 0.145098
0.490196 0.380392 0.133333
0.584314 0.411765 0.117647
0.647059 0.431373 0.105882
0.686275 0.447059 0.098039
0.729412 0.458824 0.094118
0.764706 0.454902 0.090196
0.792157 0.458824 0.094118
0.827451 0.462745 0.098039
0.850980 0.466667 0.109804
0.870588 0.474510 0.113725
0.890196 0.486275 0.125490
0.905882 0.490196 0.145098
0.917647 0.501961 0.164706
0.925490 0.517647 0.176471
0.933333 0.525490 0.184314
0.960784 0.529412 0.219608
0.023529 0.298039 0.188235
0.043137 0.313725 0.203922
0.047059 0.305882 0.196078
0.062745 0.301961 0.172549
0.082353 0.298039 0.184314
0.101961 0.294118 0.180392
0.160784 0.305882 0.172549
0.231373 0.329412 0.172549
0.325490 0.360784 0.176471
0.443137 0.411765 0.168627
0.541176 0.447059 0.164706
0.627451 0.466667 0.145098
0.698039 0.486275 0.141176
0.725490 0.505882 0.133333
0.756863 0.509804 0.129412
0.796078 0.513725 0.129412
0.827451 0.513725 0.141176
0.850980 0.509804 0.137255
0.866667 0.513725 0.137255
0.894118 0.521569 0.152941
0.913725 0.529412 0.172549
0.909804 0.537255 0.184314
0.917647 0.541176 0.200000
0.941176 0.552941 0.219608
0.956863 0.564706 0.231373
0.066667 0.356863 0.219608
0.070588 0.360784 0.223529
0.086275 0.360784 0.219608
0.094118 0.360784 0.215686
0.098039 0.356863 0.215686
0.125490 0.345098 0.200000
0.164706 0.341176 0.188235
0.219608 0.356863 0.192157
0.298039 0.384314 0.203922
0.388235 0.415686 0.203922
0.498039 0.462745 0.200000
0.584314 0.494118 0.196078
0.666667 0.517647 0.184314
0.713725 0.537255 0.180392
0.760784 0.556863 0.168627
0.792157 0.560784 0.168627
0.827451 0.560784 0.172549
0.850980 0.560784 0.180392
0.862745 0.564706 0.180392
0.894118 0.568627 0.192157
0.909804 0.568627 0.188235
0.917647 0.576471 0.211765
0.921569 0.576471 0.227451
0.933333 0.584314 0.262745
0.952941 0.596078 0.286275
0.086275 0.423529 0.239216
0.098039 0.415686 0.247059
0.113725 0.419608 0.254902
0.117647 0.419608 0.247059
0.129412 0.407843 0.235294
0.156863 0.403922 0.235294
0.184314 0.384314 0.215686
0.231373 0.392157 0.219608
0.286275 0.407843 0.235294
