build/Debug-iphonesimulator/JustShoot.app/KodakPortra400.cube
#Generated with IWLTBAP LUT Generator
#Website: http://luts.iwltbap.com
TITLE "Æ«»Æ"
#LUT size
LUT_3D_SIZE 5
#LUT data points
0.000000 0.019608 0.031373
0.356863 0.101961 0.031373
0.686275 0.223529 0.035294
0.866667 0.329412 0.015686
0.968627 0.423529 0.105882
0.003922 0.200000 0.152941
0.184314 0.250980 0.125490
0.690196 0.388235 0.066667
0.870588 0.431373 0.094118
0.964706 0.509804 0.176471
0.137255 0.513725 0.274510
0.196078 0.482353 0.262745
0.541176 0.549020 0.301961
0.843137 0.678431 0.294118
0.941176 0.690196 0.407843
0.325490 0.717647 0.474510
0.384314 0.694118 0.439216
0.474510 0.627451 0.364706
0.705882 0.721569 0.482353
0.905882 0.823529 0.654902
0.701961 0.878431 0.788235
0.698039 0.874510 0.784314
0.721569 0.878431 0.772549
0.803922 0.882353 0.772549
0.886275 0.901961 0.835294
0.000000 0.039216 0.145098
0.188235 0.007843 0.152941
0.686275 0.054902 0.113725
0.858824 0.298039 0.125490
0.976471 0.411765 0.203922
0.000000 0.188235 0.223529
0.239216 0.254902 0.250980
0.666667 0.337255 0.192157
0.858824 0.415686 0.188235
0.964706 0.501961 0.258824
0.137255 0.545098 0.345098
0.270588 0.549020 0.384314
0.560784 0.580392 0.368627
0.843137 0.670588 0.384314
0.925490 0.678431 0.466667
0.352941 0.721569 0.517647
0.454902 0.717647 0.545098
0.498039 0.654902 0.419608
0.705882 0.733333 0.529412
0.890196 0.827451 0.694118
0.690196 0.878431 0.792157
0.709804 0.878431 0.800000
0.733333 0.882353 0.784314
0.800000 0.886275 0.796078
0.878431 0.905882 0.843137
0.007843 0.074510 0.349020
0.235294 0.000000 0.376471
0.588235 0.000000 0.360784
0.847059 0.000000 0.262745
0.952941 0.360784 0.380392
0.011765 0.184314 0.423529
0.258824 0.129412 0.470588
0.627451 0.160784 0.419608
0.835294 0.250980 0.337255
0.952941 0.494118 0.454902
0.054902 0.560784 0.545098
0.368627 0.584314 0.603922
0.631373 0.635294 0.615686
0.831373 0.647059 0.584314
0.933333 0.670588 0.568627
0.494118 0.745098 0.682353
0.521569 0.752941 0.674510
0.592157 0.737255 0.666667
0.737255 0.760784 0.650980
0.890196 0.839216 0.764706
0.690196 0.882353 0.800000
0.709804 0.882353 0.815686
0.760784 0.894118 0.831373
0.811765 0.898039 0.815686
0.894118 0.905882 0.862745
0.098039 0.086275 0.607843
0.337255 0.007843 0.635294
0.596078 0.000000 0.631373
0.792157 0.003922 0.623529
0.921569 0.070588 0.584314
0.266667 0.035294 0.639216
0.388235 0.003922 0.650980
0.619608 0.000000 0.674510
0.807843 0.047059 0.639216
0.929412 0.266667 0.584314
0.000000 0.490196 0.709804
0.192157 0.505882 0.698039
0.603922 0.490196 0.741176
0.803922 0.537255 0.690196
0.913725 0.603922 0.686275
0.278431 0.756863 0.760784
0.427451 0.760784 0.780392
0.650980 0.780392 0.807843
0.784314 0.803922 0.819608
0.901961 0.815686 0.823529
0.745098 0.878431 0.874510
0.764706 0.886275 0.862745
0.776471 0.890196 0.874510
0.819608 0.901961 0.882353
0.890196 0.917647 0.890196
0.290196 0.305882 0.831373
0.407843 0.219608 0.854902
0.678431 0.007843 0.870588
0.847059 0.000000 0.866667
0.956863 0.000000 0.839216
0.309804 0.321569 0.843137
0.447059 0.207843 0.858824
0.698039 0.007843 0.870588
0.858824 0.000000 0.878431
0.964706 0.015686 0.835294
0.341176 0.384314 0.870588
0.356863 0.360784 0.858824
0.662745 0.149020 0.894118
0.847059 0.027451 0.901961
0.937255 0.462745 0.843137
0.000000 0.725490 0.905882
0.007843 0.725490 0.898039
0.337255 0.721569 0.913725
0.752941 0.678431 0.898039
0.901961 0.749020 0.870588
0.600000 0.905882 0.905882
0.627451 0.901961 0.909804
0.686275 0.898039 0.898039
0.815686 0.909804 0.925490
0.901961 0.917647 0.929412
