build/Debug-iphonesimulator/JustShoot.app/KodakPortra400.cube
#Generated with IWLTBAP LUT Generator
#Website: http://luts.iwltbap.com
TITLE "Æ«»Æ"
#LUT size
LUT_3D_SIZE 9
#LUT data points
0.000000 0.019608 0.031373
0.098039 0.027451 0.027451
0.356863 0.101961 0.031373
0.552941 0.160784 0.027451
0.686275 0.223529 0.035294
0.788235 0.282353 0.015686
0.866667 0.329412 0.015686
0.921569 0.372549 0.062745
0.968627 0.423529 0.105882
0.003922 0.074510 0.082353
0.027451 0.094118 0.062745
0.345098 0.168627 0.047059
0.564706 0.215686 0.043137
0.698039 0.270588 0.039216
0.792157 0.321569 0.023529
0.870588 0.356863 0.043137
0.917647 0.403922 0.090196
0.956863 0.447059 0.117647
0.003922 0.200000 0.152941
0.031373 0.188235 0.156863
0.184314 0.250980 0.125490
0.521569 0.345098 0.082353
0.690196 0.388235 0.066667
0.788235 0.415686 0.062745
0.870588 0.431373 0.094118
0.917647 0.470588 0.121569
0.964706 0.509804 0.176471
0.058824 0.356863 0.203922
0.086275 0.349020 0.211765
0.164706 0.337255 0.196078
0.384314 0.411765 0.200000
0.658824 0.521569 0.160784
0.796078 0.568627 0.149020
0.866667 0.560784 0.168627
0.917647 0.576471 0.203922
0.952941 0.596078 0.278431
0.137255 0.513725 0.274510
0.168627 0.509804 0.294118
0.196078 0.482353 0.262745
0.321569 0.474510 0.266667
0.541176 0.549020 0.301961
0.721569 0.639216 0.290196
0.843137 0.678431 0.294118
0.905882 0.682353 0.341176
0.941176 0.690196 0.407843
0.200000 0.627451 0.360784
0.227451 0.623529 0.356863
0.262745 0.600000 0.345098
0.337255 0.568627 0.317647
0.494118 0.576471 0.345098
0.635294 0.643137 0.396078
0.780392 0.721569 0.403922
0.882353 0.749020 0.458824
0.925490 0.764706 0.584314
0.325490 0.717647 0.474510
0.360784 0.705882 0.466667
0.384314 0.694118 0.439216
0.407843 0.674510 0.380392
0.474510 0.627451 0.364706
0.603922 0.666667 0.419608
0.705882 0.721569 0.482353
0.827451 0.784314 0.541176
0.905882 0.823529 0.654902
0.521569 0.800000 0.635294
0.525490 0.788235 0.615686
0.533333 0.780392 0.611765
0.541176 0.772549 0.560784
0.552941 0.752941 0.494118
0.611765 0.725490 0.466667
0.701961 0.776471 0.560784
0.788235 0.819608 0.635294
0.870588 0.854902 0.709804
0.701961 0.878431 0.788235
0.701961 0.874510 0.776471
0.698039 0.874510 0.784314
0.713725 0.878431 0.784314
0.721569 0.878431 0.772549
0.749020 0.878431 0.756863
0.803922 0.882353 0.772549
0.850980 0.901961 0.831373
0.886275 0.901961 0.835294
0.000000 0.023529 0.078431
0.043137 0.019608 0.074510
0.305882 0.031373 0.062745
0.529412 0.125490 0.066667
0.674510 0.203922 0.070588
0.776471 0.266667 0.074510
0.866667 0.317647 0.086275
0.917647 0.376471 0.094118
0.964706 0.423529 0.129412
0.000000 0.066667 0.098039
0.035294 0.086275 0.117647
0.309804 0.137255 0.086275
0.533333 0.196078 0.066667
0.670588 0.258824 0.082353
0.788235 0.305882 0.074510
0.866667 0.349020 0.094118
0.913725 0.403922 0.109804
0.964706 0.447059 0.152941
0.000000 0.192157 0.176471
0.035294 0.219608 0.180392
0.196078 0.250980 0.152941
0.537255 0.341176 0.133333
0.686275 0.368627 0.109804
0.784314 0.400000 0.105882
0.866667 0.431373 0.113725
0.917647 0.466667 0.149020
0.964706 0.509804 0.215686
0.054902 0.368627 0.215686
0.105882 0.380392 0.247059
0.180392 0.360784 0.219608
0.403922 0.431373 0.227451
0.658824 0.529412 0.211765
0.788235 0.556863 0.196078
0.862745 0.560784 0.207843
0.913725 0.564706 0.235294
0.949020 0.596078 0.298039
0.149020 0.533333 0.309804
0.176471 0.521569 0.321569
0.223529 0.505882 0.309804
0.360784 0.494118 0.298039
0.556863 0.560784 0.325490
0.729412 0.647059 0.321569
0.850980 0.678431 0.337255
0.901961 0.686275 0.372549
0.929412 0.690196 0.443137
0.215686 0.631373 0.388235
0.247059 0.639216 0.396078
0.301961 0.623529 0.372549
0.356863 0.588235 0.337255
0.494118 0.588235 0.360784
0.635294 0.650980 0.419608
0.784314 0.721569 0.427451
0.886275 0.756863 0.478431
0.913725 0.772549 0.576471
0.329412 0.713725 0.482353
0.368627 0.713725 0.513725
0.415686 0.701961 0.482353
0.435294 0.678431 0.431373
0.490196 0.643137 0.388235
0.600000 0.678431 0.439216
0.709804 0.729412 0.501961
0.811765 0.788235 0.545098
0.898039 0.831373 0.662745
0.505882 0.792157 0.623529
0.513725 0.792157 0.627451
0.537255 0.784314 0.615686
0.549020 0.772549 0.572549
0.552941 0.756863 0.513725
0.619608 0.733333 0.482353
0.705882 0.768627 0.584314
0.792157 0.815686 0.635294
0.866667 0.847059 0.729412
0.682353 0.874510 0.788235
0.686275 0.874510 0.788235
0.701961 0.878431 0.788235
0.729412 0.878431 0.796078
0.733333 0.886275 0.780392
0.756863 0.874510 0.764706
0.811765 0.890196 0.784314
0.850980 0.898039 0.811765
0.878431 0.905882 0.843137
0.000000 0.039216 0.145098
0.023529 0.019608 0.152941
0.188235 0.007843 0.152941
0.501961 0.003922 0.117647
0.686275 0.054902 0.113725
0.776471 0.211765 0.117647
0.858824 0.298039 0.125490
0.913725 0.360784 0.141176
0.976471 0.411765 0.203922
0.000000 0.074510 0.172549
0.019608 0.074510 0.180392
0.211765 0.070588 0.180392
0.529412 0.098039 0.133333
0.674510 0.188235 0.156863
0.776471 0.270588 0.145098
0.862745 0.333333 0.149020
0.913725 0.392157 0.168627
0.972549 0.443137 0.223529
0.000000 0.188235 0.223529
0.023529 0.211765 0.250980
0.239216 0.254902 0.250980
0.517647 0.298039 0.207843
0.666667 0.337255 0.192157
0.776471 0.376471 0.184314
0.858824 0.415686 0.188235
0.921569 0.458824 0.215686
0.964706 0.501961 0.258824
0.062745 0.364706 0.294118
0.090196 0.384314 0.301961
0.223529 0.400000 0.321569
0.427451 0.443137 0.305882
0.670588 0.513725 0.270588
0.780392 0.525490 0.266667
0.854902 0.541176 0.254902
0.901961 0.552941 0.278431
0.949020 0.588235 0.341176
0.137255 0.545098 0.345098
0.176471 0.533333 0.360784
0.270588 0.549020 0.384314
0.376471 0.501961 0.341176
0.560784 0.580392 0.368627
0.729412 0.650980 0.380392
0.843137 0.670588 0.384314
0.905882 0.670588 0.423529
0.925490 0.678431 0.466667
0.211765 0.639216 0.423529
0.266667 0.643137 0.454902
0.360784 0.647059 0.466667
0.411765 0.607843 0.407843
0.509804 0.596078 0.403922
0.650980 0.658824 0.462745
0.796078 0.725490 0.466667
0.882353 0.760784 0.537255
0.909804 0.780392 0.619608
0.352941 0.721569 0.517647
0.372549 0.725490 0.521569
0.454902 0.717647 0.545098
0.466667 0.701961 0.498039
0.498039 0.654902 0.419608
0.603922 0.678431 0.458824
0.705882 0.733333 0.529412
0.835294 0.792157 0.580392
0.890196 0.827451 0.694118
0.501961 0.796078 0.643137
0.521569 0.800000 0.643137
0.552941 0.796078 0.643137
0.576471 0.780392 0.627451
0.580392 0.760784 0.568627
0.623529 0.737255 0.509804
0.709804 0.776471 0.600000
0.792157 0.819608 0.658824
0.862745 0.858824 0.741176
0.690196 0.878431 0.792157
0.698039 0.874510 0.792157
0.709804 0.878431 0.800000
0.721569 0.886275 0.807843
0.733333 0.882353 0.784314
0.752941 0.882353 0.776471
0.800000 0.886275 0.796078
0.854902 0.905882 0.835294
0.878431 0.905882 0.843137
0.003922 0.062745 0.231373
0.027451 0.031373 0.250980
0.180392 0.003922 0.266667
0.411765 0.000000 0.258824
0.654902 0.000000 0.203922
0.780392 0.011765 0.168627
0.866667 0.164706 0.188235
0.905882 0.349020 0.270588
0.949020 0.423529 0.317647
0.000000 0.074510 0.270588
0.039216 0.047059 0.286275
0.203922 0.023529 0.305882
0.439216 0.043137 0.270588
0.658824 0.027451 0.223529
0.772549 0.054902 0.172549
0.854902 0.278431 0.247059
0.917647 0.388235 0.309804
0.945098 0.462745 0.329412
0.000000 0.196078 0.341176
0.007843 0.203922 0.341176
0.227451 0.219608 0.372549
0.482353 0.223529 0.329412
0.662745 0.266667 0.290196
0.776471 0.341176 0.298039
0.854902 0.419608 0.313725
0.909804 0.466667 0.333333
0.956863 0.509804 0.364706
0.023529 0.376471 0.368627
0.062745 0.392157 0.400000
0.270588 0.439216 0.462745
0.482353 0.470588 0.435294
0.666667 0.490196 0.400000
0.764706 0.517647 0.388235
0.847059 0.541176 0.388235
0.909804 0.560784 0.396078
0.937255 0.592157 0.435294
0.243137 0.552941 0.478431
0.278431 0.556863 0.486275
0.364706 0.576471 0.525490
0.458824 0.568627 0.513725
0.596078 0.607843 0.486275
0.752941 0.662745 0.498039
0.843137 0.666667 0.501961
0.894118 0.662745 0.490196
0.933333 0.682353 0.533333
0.317647 0.658824 0.525490
0.345098 0.662745 0.537255
0.419608 0.662745 0.564706
0.490196 0.654902 0.560784
0.537255 0.631373 0.505882
0.666667 0.682353 0.545098
0.788235 0.733333 0.549020
0.886275 0.752941 0.603922
0.909804 0.768627 0.643137
0.396078 0.733333 0.580392
0.407843 0.737255 0.603922
0.470588 0.725490 0.592157
0.533333 0.725490 0.607843
0.545098 0.682353 0.525490
0.615686 0.686275 0.521569
0.721569 0.741176 0.584314
0.843137 0.796078 0.639216
0.894118 0.827451 0.717647
0.509804 0.803922 0.674510
0.537255 0.800000 0.678431
0.564706 0.796078 0.678431
0.600000 0.792157 0.678431
0.596078 0.776471 0.635294
0.619608 0.752941 0.556863
0.713725 0.780392 0.607843
0.796078 0.827451 0.682353
0.878431 0.858824 0.745098
0.701961 0.878431 0.800000
0.701961 0.878431 0.800000
0.713725 0.882353 0.803922
0.733333 0.886275 0.815686
0.756863 0.886275 0.819608
0.768627 0.886275 0.792157
0.811765 0.886275 0.800000
0.858824 0.901961 0.839216
0.890196 0.901961 0.858824
0.007843 0.074510 0.349020
0.050980 0.031373 0.360784
0.235294 0.000000 0.376471
0.400000 0.000000 0.388235
0.588235 0.000000 0.360784
0.749020 0.000000 0.321569
0.847059 0.000000 0.262745
0.913725 0.050980 0.231373
0.952941 0.360784 0.380392
0.050980 0.035294 0.368627
0.117647 0.011765 0.384314
0.254902 0.000000 0.407843
0.427451 0.007843 0.415686
0.600000 0.007843 0.380392
0.741176 0.000000 0.321569
0.854902 0.003922 0.270588
0.909804 0.152941 0.258824
0.945098 0.415686 0.400000
0.011765 0.184314 0.423529
0.094118 0.164706 0.447059
0.258824 0.129412 0.470588
0.474510 0.109804 0.458824
0.627451 0.160784 0.419608
0.760784 0.180392 0.368627
0.835294 0.250980 0.337255
0.909804 0.400000 0.407843
0.952941 0.494118 0.454902
0.000000 0.360784 0.490196
0.000000 0.380392 0.494118
0.192157 0.400000 0.521569
0.462745 0.419608 0.537255
0.643137 0.435294 0.498039
0.752941 0.470588 0.486275
0.839216 0.505882 0.478431
0.894118 0.545098 0.482353
0.945098 0.580392 0.513725
0.054902 0.560784 0.545098
0.184314 0.556863 0.564706
0.368627 0.584314 0.603922
0.517647 0.615686 0.635294
0.631373 0.635294 0.615686
0.745098 0.639216 0.596078
0.831373 0.647059 0.584314
0.886275 0.658824 0.572549
0.933333 0.670588 0.568627
0.462745 0.666667 0.658824
0.478431 0.670588 0.654902
0.517647 0.682353 0.674510
0.552941 0.690196 0.674510
0.592157 0.674510 0.639216
0.694118 0.713725 0.635294
0.815686 0.745098 0.650980
0.882353 0.756863 0.666667
0.909804 0.756863 0.690196
0.494118 0.745098 0.682353
0.505882 0.745098 0.682353
0.521569 0.752941 0.674510
0.556863 0.749020 0.666667
0.592157 0.737255 0.666667
0.631373 0.701961 0.600000
0.737255 0.760784 0.650980
0.847059 0.803922 0.686275
0.890196 0.839216 0.764706
0.556863 0.807843 0.705882
0.556863 0.807843 0.713725
0.572549 0.807843 0.709804
0.600000 0.811765 0.721569
0.639216 0.803922 0.717647
0.647059 0.780392 0.650980
0.713725 0.780392 0.639216
0.800000 0.823529 0.713725
0.882353 0.874510 0.776471
0.690196 0.882353 0.800000
0.701961 0.886275 0.815686
0.709804 0.882353 0.815686
0.729412 0.890196 0.819608
0.760784 0.894118 0.831373
0.780392 0.890196 0.831373
0.811765 0.898039 0.815686
0.854902 0.898039 0.835294
0.894118 0.905882 0.862745
0.015686 0.074510 0.470588
0.129412 0.031373 0.494118
0.294118 0.000000 0.498039
0.450980 0.000000 0.513725
0.576471 0.000000 0.509804
0.701961 0.000000 0.494118
0.815686 0.000000 0.470588
0.905882 0.000000 0.423529
0.956863 0.117647 0.407843
0.125490 0.035294 0.490196
0.196078 0.015686 0.505882
0.321569 0.000000 0.525490
0.454902 0.000000 0.537255
0.588235 0.000000 0.533333
0.705882 0.000000 0.501961
0.815686 0.003922 0.466667
0.901961 0.019608 0.427451
0.956863 0.180392 0.411765
0.133333 0.109804 0.533333
0.176471 0.078431 0.537255
0.309804 0.054902 0.549020
0.474510 0.043137 0.564706
0.615686 0.050980 0.568627
0.721569 0.094118 0.525490
0.819608 0.145098 0.474510
0.890196 0.211765 0.431373
0.941176 0.356863 0.482353
0.019608 0.341176 0.560784
0.090196 0.345098 0.572549
0.274510 0.325490 0.592157
0.462745 0.309804 0.619608
0.635294 0.317647 0.619608
0.725490 0.372549 0.576471
0.819608 0.407843 0.537255
0.898039 0.454902 0.525490
0.941176 0.545098 0.576471
0.003922 0.529412 0.627451
0.000000 0.533333 0.627451
0.192157 0.549020 0.654902
0.443137 0.584314 0.678431
0.619608 0.600000 0.686275
0.721569 0.600000 0.658824
0.815686 0.607843 0.639216
0.882353 0.631373 0.631373
0.909804 0.654902 0.639216
0.188235 0.682353 0.670588
0.250980 0.674510 0.686275
0.423529 0.686275 0.709804
0.552941 0.698039 0.721569
0.647059 0.721569 0.745098
0.709804 0.729412 0.741176
0.807843 0.741176 0.713725
0.886275 0.741176 0.709804
0.929412 0.741176 0.733333
0.572549 0.764706 0.741176
0.592157 0.756863 0.749020
0.603922 0.764706 0.749020
0.627451 0.760784 0.756863
0.654902 0.772549 0.772549
0.670588 0.752941 0.733333
0.756863 0.780392 0.725490
0.866667 0.811765 0.760784
0.898039 0.827451 0.811765
0.627451 0.823529 0.780392
0.627451 0.823529 0.776471
0.631373 0.831373 0.772549
0.654902 0.827451 0.768627
0.662745 0.827451 0.772549
0.690196 0.807843 0.760784
0.701961 0.788235 0.705882
0.819608 0.839216 0.760784
0.882353 0.874510 0.823529
0.717647 0.890196 0.831373
0.721569 0.886275 0.847059
0.729412 0.886275 0.850980
0.745098 0.894118 0.843137
0.764706 0.894118 0.850980
0.796078 0.901961 0.874510
0.811765 0.898039 0.847059
0.862745 0.901961 0.858824
0.882353 0.909804 0.878431
0.098039 0.086275 0.607843
0.192157 0.043137 0.611765
0.337255 0.007843 0.635294
0.494118 0.000000 0.631373
0.596078 0.000000 0.631373
0.705882 0.000000 0.635294
0.792157 0.003922 0.623529
0.878431 0.000000 0.592157
0.921569 0.070588 0.584314
0.176471 0.043137 0.619608
0.254902 0.015686 0.627451
0.384314 0.000000 0.639216
0.513725 0.000000 0.643137
0.615686 0.000000 0.654902
0.701961 0.000000 0.643137
0.800000 0.000000 0.623529
0.878431 0.003922 0.596078
0.933333 0.129412 0.592157
0.266667 0.035294 0.639216
0.298039 0.019608 0.639216
0.388235 0.003922 0.650980
0.517647 0.003922 0.662745
0.619608 0.000000 0.674510
0.721569 0.000000 0.682353
0.807843 0.047059 0.639216
0.882353 0.149020 0.600000
0.929412 0.266667 0.584314
0.141176 0.282353 0.650980
0.203922 0.254902 0.666667
0.329412 0.207843 0.674510
0.509804 0.172549 0.694118
0.631373 0.168627 0.701961
0.729412 0.192157 0.701961
0.811765 0.290196 0.647059
0.878431 0.368627 0.619608
0.925490 0.450980 0.619608
0.000000 0.490196 0.709804
0.019608 0.494118 0.701961
0.192157 0.505882 0.698039
0.443137 0.501961 0.725490
0.603922 0.490196 0.741176
0.725490 0.498039 0.737255
0.803922 0.537255 0.690196
0.870588 0.572549 0.682353
0.913725 0.603922 0.686275
0.000000 0.650980 0.745098
0.000000 0.658824 0.749020
0.074510 0.666667 0.749020
0.392157 0.674510 0.760784
0.584314 0.686275 0.776471
0.701961 0.705882 0.788235
0.792157 0.701961 0.764706
0.870588 0.705882 0.752941
0.905882 0.725490 0.764706
0.278431 0.756863 0.760784
0.317647 0.756863 0.764706
0.427451 0.760784 0.780392
0.556863 0.772549 0.784314
0.650980 0.780392 0.807843
0.729412 0.796078 0.823529
0.784314 0.803922 0.819608
0.866667 0.811765 0.811765
0.901961 0.815686 0.823529
0.619608 0.823529 0.807843
0.647059 0.827451 0.815686
0.670588 0.835294 0.819608
0.701961 0.827451 0.823529
0.725490 0.843137 0.835294
0.741176 0.843137 0.831373
0.737255 0.819608 0.800000
0.831373 0.843137 0.807843
0.898039 0.886275 0.866667
0.745098 0.878431 0.874510
0.749020 0.886275 0.858824
0.764706 0.886275 0.862745
0.768627 0.890196 0.866667
0.776471 0.890196 0.874510
0.792157 0.898039 0.878431
0.819608 0.901961 0.882353
0.858824 0.905882 0.866667
0.890196 0.917647 0.890196
0.156863 0.164706 0.733333
0.227451 0.101961 0.733333
0.411765 0.027451 0.752941
0.552941 0.000000 0.756863
0.650980 0.000000 0.760784
0.733333 0.000000 0.764706
0.811765 0.000000 0.760784
0.874510 0.003922 0.725490
0.905882 0.003922 0.725490
0.211765 0.113725 0.725490
0.286275 0.066667 0.737255
0.427451 0.015686 0.756863
0.556863 0.003922 0.760784
0.658824 0.000000 0.764706
0.749020 0.000000 0.760784
0.803922 0.000000 0.749020
0.882353 0.000000 0.737255
0.913725 0.070588 0.717647
0.309804 0.062745 0.749020
0.356863 0.039216 0.756863
0.478431 0.011765 0.756863
0.572549 0.000000 0.764706
0.658824 0.000000 0.772549
0.749020 0.003922 0.772549
0.811765 0.003922 0.772549
0.874510 0.011765 0.733333
0.917647 0.207843 0.721569
0.298039 0.121569 0.768627
0.349020 0.105882 0.768627
0.443137 0.070588 0.768627
0.560784 0.035294 0.784314
0.650980 0.023529 0.800000
0.741176 0.019608 0.788235
0.819608 0.031373 0.776471
0.878431 0.180392 0.752941
0.913725 0.396078 0.725490
0.094118 0.458824 0.772549
0.145098 0.450980 0.772549
0.262745 0.415686 0.780392
0.443137 0.349020 0.788235
0.619608 0.309804 0.811765
0.725490 0.282353 0.807843
0.823529 0.317647 0.811765
0.878431 0.439216 0.760784
0.913725 0.564706 0.752941
0.000000 0.607843 0.807843
0.000000 0.603922 0.815686
0.019608 0.607843 0.815686
0.231373 0.611765 0.811765
0.537255 0.603922 0.807843
0.690196 0.592157 0.847059
0.800000 0.600000 0.831373
0.862745 0.650980 0.792157
0.905882 0.690196 0.772549
0.003922 0.733333 0.823529
0.000000 0.741176 0.819608
0.035294 0.741176 0.831373
0.254902 0.749020 0.839216
0.521569 0.756863 0.850980
0.666667 0.760784 0.854902
0.772549 0.776471 0.854902
0.850980 0.780392 0.843137
0.905882 0.800000 0.827451
0.333333 0.823529 0.839216
0.388235 0.835294 0.839216
0.470588 0.839216 0.847059
0.556863 0.835294 0.858824
0.654902 0.843137 0.850980
0.733333 0.854902 0.862745
0.803922 0.854902 0.878431
0.847059 0.866667 0.882353
0.898039 0.878431 0.894118
0.690196 0.882353 0.870588
0.705882 0.890196 0.866667
0.729412 0.890196 0.874510
0.745098 0.886275 0.878431
0.796078 0.894118 0.878431
0.819608 0.898039 0.894118
0.827451 0.898039 0.905882
0.858824 0.905882 0.905882
0.901961 0.909804 0.898039
0.290196 0.305882 0.831373
0.309804 0.298039 0.843137
0.407843 0.219608 0.854902
0.576471 0.117647 0.870588
0.678431 0.007843 0.870588
0.776471 0.000000 0.862745
0.847059 0.000000 0.866667
0.894118 0.000000 0.858824
0.956863 0.000000 0.839216
0.305882 0.313725 0.843137
0.305882 0.309804 0.858824
0.439216 0.207843 0.858824
0.584314 0.109804 0.866667
0.690196 0.007843 0.874510
0.776471 0.000000 0.870588
0.858824 0.000000 0.878431
0.901961 0.000000 0.862745
0.960784 0.003922 0.835294
0.309804 0.321569 0.843137
0.325490 0.317647 0.850980
0.447059 0.207843 0.858824
0.600000 0.105882 0.870588
0.698039 0.007843 0.870588
0.784314 0.000000 0.890196
0.858824 0.000000 0.878431
0.898039 0.000000 0.870588
0.964706 0.015686 0.835294
0.329412 0.325490 0.858824
0.313725 0.321569 0.850980
0.439216 0.243137 0.866667
0.584314 0.152941 0.886275
0.694118 0.047059 0.901961
0.772549 0.000000 0.898039
0.850980 0.003922 0.886275
0.905882 0.000000 0.874510
0.960784 0.219608 0.862745
0.341176 0.384314 0.870588
0.333333 0.392157 0.858824
0.356863 0.360784 0.858824
0.525490 0.243137 0.878431
0.662745 0.149020 0.894118
0.741176 0.078431 0.890196
0.847059 0.027451 0.901961
0.905882 0.094118 0.886275
0.937255 0.462745 0.843137
0.160784 0.603922 0.870588
0.156863 0.596078 0.886275
0.196078 0.596078 0.878431
0.325490 0.572549 0.874510
0.517647 0.486275 0.882353
0.690196 0.435294 0.905882
0.800000 0.407843 0.894118
0.894118 0.450980 0.898039
0.921569 0.631373 0.870588
0.000000 0.725490 0.905882
0.003922 0.733333 0.894118
0.007843 0.725490 0.898039
0.007843 0.717647 0.901961
0.337255 0.721569 0.913725
0.619608 0.698039 0.898039
0.752941 0.678431 0.898039
0.862745 0.678431 0.894118
0.901961 0.749020 0.870588
0.149020 0.839216 0.898039
0.152941 0.831373 0.894118
0.223529 0.831373 0.917647
0.286275 0.831373 0.913725
0.494118 0.831373 0.898039
0.611765 0.827451 0.905882
0.725490 0.831373 0.905882
0.839216 0.823529 0.913725
0.901961 0.847059 0.905882
0.600000 0.905882 0.905882
0.600000 0.905882 0.905882
0.627451 0.901961 0.909804
0.650980 0.898039 0.925490
0.686275 0.898039 0.898039
0.752941 0.909804 0.917647
0.815686 0.909804 0.925490
0.870588 0.913725 0.929412
0.901961 0.917647 0.929412
